; generated by Slic3r 1.3.0 on 2019-01-07 at 16:51:23

; external perimeters extrusion width = 0.44mm (2.18mm^3/s)
; perimeters extrusion width = 0.56mm (5.69mm^3/s)
; infill extrusion width = 0.50mm (7.31mm^3/s)
; solid infill extrusion width = 0.56mm (2.07mm^3/s)
; top infill extrusion width = 0.56mm (1.55mm^3/s)
; support material extrusion width = 0.44mm (4.76mm^3/s)

M107
M104 S200 ; set temperature
G28
; Filament gcode

M109 S200 ; set temperature and wait for it to be reached
G21 ; set units to millimeters
G90 ; use absolute coordinates
M82 ; use absolute distances for extrusion
G92 E0
G1 Z0.250 F7800.000
G1 E-2.00000 F2400.00000
G92 E0
G1 X89.927 Y87.173 F7800.000
G1 E2.00000 F2400.00000
G1 F1800
G1 X90.500 Y86.608 E2.03734
G1 X90.922 Y86.231 E2.06358
G1 X91.501 Y85.761 E2.09821
G1 X92.185 Y85.267 E2.13734
G1 X92.813 Y84.867 E2.17187
G1 X93.550 Y84.453 E2.21111
G1 X94.217 Y84.127 E2.24552
G1 X94.959 Y83.815 E2.28287
G1 X95.498 Y83.618 E2.30951
G1 X96.203 Y83.399 E2.34373
G1 X97.029 Y83.192 E2.38323
G1 X97.752 Y83.054 E2.41739
G1 X98.550 Y82.948 E2.45473
G1 X99.128 Y82.899 E2.48164
G1 X99.859 Y82.873 E2.51560
G1 X100.717 Y82.890 E2.55538
G1 X101.445 Y82.947 E2.58926
G1 X102.298 Y83.062 E2.62919
G1 X103.011 Y83.201 E2.66291
G1 X103.792 Y83.397 E2.70026
G1 X104.355 Y83.569 E2.72756
G1 X105.036 Y83.813 E2.76112
G1 X105.834 Y84.150 E2.80133
G1 X106.481 Y84.469 E2.83478
G1 X107.182 Y84.864 E2.87212
G1 X107.685 Y85.180 E2.89966
G1 X108.274 Y85.591 E2.93299
G1 X108.959 Y86.130 E2.97343
G1 X109.496 Y86.604 E3.00665
G1 X110.117 Y87.219 E3.04722
G1 X110.594 Y87.749 E3.08030
G1 X111.139 Y88.426 E3.12059
G1 X111.748 Y89.303 E3.17015
G1 X112.285 Y90.217 E3.21935
G1 X112.751 Y91.169 E3.26852
G1 X112.957 Y91.658 E3.29311
G1 X113.200 Y92.319 E3.32582
G1 X113.503 Y93.333 E3.37492
G1 X113.729 Y94.368 E3.42402
G1 X113.875 Y95.416 E3.47311
G1 X113.918 Y95.943 E3.49767
G1 X113.946 Y96.748 E3.53501
G1 X113.946 Y110.282 E4.16290
G1 X113.922 Y110.849 E4.18923
G1 X113.762 Y111.854 E4.23645
G1 X113.486 Y112.747 E4.27980
G1 X113.412 Y112.930 E4.28895
G1 X112.995 Y113.762 E4.33216
G1 X112.339 Y114.688 E4.38480
G1 X111.501 Y115.524 E4.43970
G1 X110.654 Y116.132 E4.48807
G1 X109.695 Y116.616 E4.53790
G1 X108.728 Y116.931 E4.58508
G1 X108.485 Y116.986 E4.59664
G1 X107.667 Y117.104 E4.63502
G1 X107.100 Y117.128 E4.66132
G1 X92.501 Y117.116 E5.33863
G1 X91.514 Y116.986 E5.38479
G1 X91.272 Y116.931 E5.39632
G1 X90.305 Y116.616 E5.44350
G1 X89.419 Y116.176 E5.48938
G1 X88.493 Y115.520 E5.54201
G1 X87.657 Y114.683 E5.59693
G1 X87.050 Y113.836 E5.64524
G1 X86.566 Y112.877 E5.69509
G1 X86.251 Y111.909 E5.74231
G1 X86.195 Y111.665 E5.75392
G1 X86.078 Y110.849 E5.79216
G1 X86.054 Y110.282 E5.81851
G1 X86.054 Y96.849 E6.44171
G1 X86.099 Y95.696 E6.49523
G1 X86.152 Y95.169 E6.51978
G1 X86.270 Y94.373 E6.55712
G1 X86.501 Y93.316 E6.60732
G1 X86.806 Y92.301 E6.65647
G1 X86.987 Y91.803 E6.68107
G1 X87.278 Y91.104 E6.71619
G1 X87.504 Y90.626 E6.74074
G1 X87.882 Y89.915 E6.77808
G1 X88.458 Y88.991 E6.82860
G1 X89.085 Y88.137 E6.87778
G1 X89.423 Y87.729 E6.90234
G1 X89.886 Y87.217 E6.93437
G1 E4.93437 F2400.00000
G92 E0
G1 X103.435 Y100.167 F7800.000
G1 E2.00000 F2400.00000
G1 F1800
G1 X102.887 Y100.649 E2.03385
G1 X102.470 Y100.930 E2.05720
G1 X102.034 Y101.162 E2.08012
G1 X101.576 Y101.349 E2.10303
G1 X101.102 Y101.487 E2.12594
G1 X100.616 Y101.575 E2.14886
G1 X100.124 Y101.613 E2.17177
G1 X99.630 Y101.601 E2.19469
G1 X99.140 Y101.537 E2.21760
G1 X98.659 Y101.424 E2.24051
G1 X98.193 Y101.261 E2.26343
G1 X97.745 Y101.052 E2.28634
G1 X97.314 Y100.793 E2.30967
G1 X96.748 Y100.345 E2.34320
G1 X96.397 Y99.984 E2.36653
G1 X96.090 Y99.597 E2.38944
G1 X95.825 Y99.180 E2.41236
G1 X95.604 Y98.739 E2.43527
G1 X95.430 Y98.276 E2.45819
G1 X95.304 Y97.799 E2.48110
G1 X95.228 Y97.311 E2.50401
G1 X95.202 Y96.816 E2.52700
G1 X95.258 Y96.088 E2.56085
G1 X95.361 Y95.596 E2.58420
G1 X95.511 Y95.125 E2.60711
G1 X95.709 Y94.673 E2.63003
G1 X95.952 Y94.243 E2.65294
G1 X96.238 Y93.840 E2.67585
G1 X96.564 Y93.469 E2.69877
G1 X96.927 Y93.134 E2.72168
G1 X97.322 Y92.837 E2.74460
G1 X97.745 Y92.583 E2.76751
G1 X98.193 Y92.374 E2.79042
G1 X98.659 Y92.211 E2.81334
G1 X99.149 Y92.096 E2.83667
G1 X99.867 Y92.022 E2.87019
G1 X100.370 Y92.035 E2.89353
G1 X100.860 Y92.098 E2.91644
G1 X101.341 Y92.211 E2.93935
G1 X101.807 Y92.374 E2.96227
G1 X102.255 Y92.583 E2.98518
G1 X102.686 Y92.842 E3.00851
G1 X103.252 Y93.290 E3.04204
G1 X103.603 Y93.651 E3.06537
G1 X103.910 Y94.038 E3.08828
G1 X104.175 Y94.455 E3.11119
G1 X104.397 Y94.898 E3.13418
G1 X104.637 Y95.587 E3.16803
G1 X104.740 Y96.079 E3.19138
G1 X104.791 Y96.571 E3.21430
G1 X104.791 Y97.065 E3.23721
G1 X104.740 Y97.556 E3.26012
G1 X104.639 Y98.039 E3.28304
G1 X104.489 Y98.510 E3.30595
G1 X104.291 Y98.962 E3.32887
G1 X104.048 Y99.392 E3.35178
G1 X103.762 Y99.795 E3.37469
G1 X103.474 Y100.122 E3.39490
G1 X103.118 Y99.851 F7800.000
G1 F1800
G1 X102.614 Y100.295 E3.42607
G1 X102.240 Y100.547 E3.44701
G1 X101.844 Y100.758 E3.46779
G1 X101.429 Y100.926 E3.48857
G1 X100.999 Y101.052 E3.50935
G1 X100.559 Y101.132 E3.53013
G1 X100.112 Y101.166 E3.55090
G1 X99.664 Y101.155 E3.57168
G1 X99.220 Y101.097 E3.59246
G1 X98.784 Y100.995 E3.61324
G1 X98.361 Y100.847 E3.63402
G1 X97.955 Y100.658 E3.65480
G1 X97.569 Y100.425 E3.67573
G1 X97.047 Y100.013 E3.70658
G1 X96.732 Y99.689 E3.72751
G1 X96.454 Y99.338 E3.74829
G1 X96.214 Y98.960 E3.76907
G1 X96.014 Y98.560 E3.78985
G1 X95.856 Y98.141 E3.81063
G1 X95.742 Y97.707 E3.83141
G1 X95.673 Y97.265 E3.85219
G1 X95.650 Y96.821 E3.87279
G1 X95.701 Y96.151 E3.90396
G1 X95.793 Y95.710 E3.92490
G1 X95.929 Y95.283 E3.94568
G1 X96.109 Y94.873 E3.96646
G1 X96.329 Y94.483 E3.98724
G1 X96.589 Y94.118 E4.00802
G1 X96.885 Y93.781 E4.02880
G1 X97.213 Y93.477 E4.04958
G1 X97.571 Y93.208 E4.07035
G1 X97.955 Y92.978 E4.09113
G1 X98.361 Y92.788 E4.11191
G1 X98.784 Y92.641 E4.13269
G1 X99.223 Y92.537 E4.15362
G1 X99.885 Y92.469 E4.18448
G1 X100.336 Y92.480 E4.20540
G1 X100.780 Y92.538 E4.22618
G1 X101.216 Y92.641 E4.24696
G1 X101.639 Y92.788 E4.26774
G1 X102.045 Y92.978 E4.28852
G1 X102.431 Y93.210 E4.30945
G1 X102.953 Y93.623 E4.34031
G1 X103.268 Y93.946 E4.36123
G1 X103.546 Y94.297 E4.38201
G1 X103.786 Y94.675 E4.40279
G1 X103.985 Y95.072 E4.42339
G1 X104.206 Y95.706 E4.45457
G1 X104.299 Y96.148 E4.47550
G1 X104.345 Y96.594 E4.49628
G1 X104.345 Y97.042 E4.51706
G1 X104.299 Y97.487 E4.53784
G1 X104.207 Y97.925 E4.55862
G1 X104.071 Y98.352 E4.57940
G1 X103.891 Y98.763 E4.60018
G1 X103.671 Y99.152 E4.62096
G1 X103.411 Y99.517 E4.64174
G1 X103.158 Y99.806 E4.65955
G1 X103.118 Y99.851 F7800.000
G1 E2.65955 F2400.00000
G92 E0
G1 X106.800 Y104.713 F7800.000
G1 E2.00000 F2400.00000
G1 F1800
G1 X106.441 Y104.531 E2.01865
G1 X106.155 Y104.486 E2.03211
G1 X93.845 Y104.486 E2.60319
G1 X93.559 Y104.531 E2.61665
G1 X93.200 Y104.714 E2.63533
G1 X93.210 Y103.215 E2.70487
G1 X93.279 Y103.084 E2.71174
G1 X93.497 Y102.906 E2.72478
G1 X93.753 Y102.653 E2.74149
G1 X94.055 Y102.204 E2.76660
G1 X94.245 Y101.682 E2.79237
G1 X94.303 Y101.144 E2.81748
G1 X94.267 Y100.761 E2.83532
G1 X94.171 Y100.392 E2.85298
G1 X93.797 Y99.612 E2.89311
G1 X93.517 Y98.878 E2.92955
G1 X93.325 Y98.130 E2.96538
G1 X93.245 Y97.625 E2.98912
G1 X93.198 Y96.846 E3.02533
G1 X93.238 Y96.073 E3.06125
G1 X93.367 Y95.309 E3.09716
G1 X93.583 Y94.559 E3.13339
G1 X93.770 Y94.085 E3.15703
G1 X93.995 Y93.620 E3.18099
G1 X94.255 Y93.174 E3.20494
G1 X94.548 Y92.749 E3.22889
G1 X94.872 Y92.347 E3.25284
G1 X95.226 Y91.971 E3.27680
G1 X95.602 Y91.627 E3.30045
G1 X96.224 Y91.159 E3.33658
G1 X96.666 Y90.887 E3.36063
G1 X97.125 Y90.652 E3.38457
G1 X97.601 Y90.451 E3.40853
G1 X98.091 Y90.288 E3.43248
G1 X98.591 Y90.162 E3.45643
G1 X99.100 Y90.074 E3.48038
G1 X99.614 Y90.025 E3.50434
G1 X100.131 Y90.016 E3.52829
G1 X100.646 Y90.045 E3.55224
G1 X101.158 Y90.114 E3.57620
G1 X101.663 Y90.221 E3.60015
G1 X102.158 Y90.366 E3.62410
G1 X102.641 Y90.548 E3.64806
G1 X103.109 Y90.767 E3.67201
G1 X103.559 Y91.020 E3.69596
G1 X103.989 Y91.306 E3.71991
G1 X104.395 Y91.625 E3.74387
G1 X104.776 Y91.973 E3.76782
G1 X105.130 Y92.349 E3.79177
G1 X105.454 Y92.751 E3.81573
G1 X105.747 Y93.176 E3.83968
G1 X106.006 Y93.623 E3.86363
G1 X106.231 Y94.087 E3.88759
G1 X106.418 Y94.562 E3.91123
G1 X106.634 Y95.312 E3.94745
G1 X106.762 Y96.076 E3.98337
G1 X106.802 Y96.849 E4.01929
G1 X106.755 Y97.620 E4.05511
G1 X106.676 Y98.125 E4.07887
G1 X106.484 Y98.873 E4.11468
G1 X106.205 Y99.607 E4.15112
G1 X105.829 Y100.393 E4.19153
G1 X105.733 Y100.763 E4.20926
G1 X105.697 Y101.153 E4.22743
G1 X105.756 Y101.685 E4.25226
G1 X105.947 Y102.207 E4.27805
G1 X106.249 Y102.656 E4.30320
G1 X106.506 Y102.909 E4.31990
G1 X106.721 Y103.084 E4.33275
G1 X106.771 Y103.161 E4.33701
G1 X106.799 Y103.272 E4.34231
G1 X106.800 Y104.653 E4.40641
G1 E2.40641 F2400.00000
G92 E0
G1 X106.750 Y109.932 F7800.000
G1 E2.00000 F2400.00000
G1 F1800
G1 X106.750 Y105.562 E2.20272
G1 X106.721 Y105.380 E2.21128
G1 X106.628 Y105.198 E2.22076
G1 X106.484 Y105.053 E2.23024
G1 X106.302 Y104.961 E2.23972
G1 X106.120 Y104.932 E2.24827
G1 X93.880 Y104.932 E2.81609
G1 X93.698 Y104.961 E2.82464
G1 X93.508 Y105.058 E2.83455
G1 X93.327 Y105.267 E2.84739
G1 X93.255 Y105.478 E2.85773
G1 X93.250 Y109.932 E3.06436
G1 X94.826 Y109.932 E3.13751
G1 X94.582 Y110.274 E3.15699
G1 X94.497 Y110.342 E3.16207
G1 X94.319 Y110.416 E3.17102
G1 X94.185 Y110.432 E3.17725
G1 X92.920 Y110.432 E3.23598
G1 X92.814 Y110.401 E3.24109
G1 X92.760 Y110.327 E3.24533
G1 X92.754 Y103.218 E3.57513
G1 X92.782 Y103.076 E3.58183
G1 X92.875 Y102.875 E3.59210
G1 X92.960 Y102.769 E3.59840
G1 X93.198 Y102.574 E3.61270
G1 X93.408 Y102.367 E3.62637
G1 X93.654 Y102.000 E3.64687
G1 X93.807 Y101.580 E3.66760
G1 X93.855 Y101.141 E3.68810
G1 X93.826 Y100.839 E3.70217
G1 X93.750 Y100.547 E3.71618
G1 X93.387 Y99.788 E3.75517
G1 X93.091 Y99.014 E3.79363
G1 X92.888 Y98.221 E3.83162
G1 X92.801 Y97.673 E3.85733
G1 X92.750 Y96.848 E3.89571
G1 X92.794 Y96.024 E3.93399
G1 X92.931 Y95.210 E3.97226
G1 X93.160 Y94.415 E4.01065
G1 X93.361 Y93.905 E4.03607
G1 X93.601 Y93.410 E4.06159
G1 X93.878 Y92.935 E4.08712
G1 X94.190 Y92.482 E4.11264
G1 X94.535 Y92.053 E4.13817
G1 X94.912 Y91.653 E4.16370
G1 X95.317 Y91.283 E4.18911
G1 X95.973 Y90.789 E4.22720
G1 X96.447 Y90.498 E4.25303
G1 X96.936 Y90.247 E4.27855
G1 X97.444 Y90.033 E4.30407
G1 X97.965 Y89.859 E4.32960
G1 X98.499 Y89.725 E4.35513
G1 X99.041 Y89.631 E4.38065
G1 X99.589 Y89.579 E4.40618
G1 X100.139 Y89.569 E4.43170
G1 X100.688 Y89.601 E4.45723
G1 X101.234 Y89.674 E4.48275
G1 X101.772 Y89.788 E4.50828
G1 X102.300 Y89.942 E4.53380
G1 X102.815 Y90.137 E4.55933
G1 X103.313 Y90.369 E4.58486
G1 X103.793 Y90.639 E4.61038
G1 X104.251 Y90.945 E4.63591
G1 X104.684 Y91.284 E4.66143
G1 X105.090 Y91.655 E4.68696
G1 X105.467 Y92.056 E4.71248
G1 X105.812 Y92.484 E4.73801
G1 X106.124 Y92.937 E4.76354
G1 X106.401 Y93.413 E4.78906
G1 X106.640 Y93.908 E4.81459
G1 X106.841 Y94.418 E4.84000
G1 X107.070 Y95.213 E4.87839
G1 X107.206 Y96.027 E4.91666
G1 X107.250 Y96.851 E4.95494
G1 X107.200 Y97.668 E4.99292
G1 X107.114 Y98.215 E5.01864
G1 X106.911 Y99.008 E5.05661
G1 X106.615 Y99.783 E5.09508
G1 X106.250 Y100.547 E5.13436
G1 X106.174 Y100.840 E5.14840
G1 X106.146 Y101.149 E5.16278
G1 X106.193 Y101.582 E5.18302
G1 X106.347 Y102.002 E5.20378
G1 X106.594 Y102.370 E5.22431
G1 X106.805 Y102.576 E5.23798
G1 X107.040 Y102.769 E5.25212
G1 X107.128 Y102.880 E5.25868
G1 X107.192 Y103.002 E5.26509
G1 X107.245 Y103.217 E5.27536
G1 X107.250 Y110.262 E5.60220
G1 X107.232 Y110.376 E5.60751
G1 X107.111 Y110.427 E5.61364
G1 X105.747 Y110.427 E5.67691
G1 X105.557 Y110.373 E5.68607
G1 X105.461 Y110.311 E5.69137
G1 X105.337 Y110.173 E5.69998
G1 X105.238 Y109.932 E5.71206
G1 X106.690 Y109.932 E5.77943
G1 X107.149 Y109.909 F7800.000
G1 E3.77943 F2400.00000
G92 E0
G1 X106.996 Y105.510 F7800.000
G1 E2.00000 F2400.00000
G1 F1800
G1 X106.936 Y105.033 E2.00170
G1 X107.023 Y105.190 F7800.000
G1 F1800
G1 X106.748 Y104.966 E2.00319
G1 X106.179 Y104.239 F7800.000
G1 F1800
G1 X106.526 Y103.891 E2.02648
G1 X106.526 Y103.246 E2.05708
G1 X105.559 Y104.213 E2.12191
G1 X104.914 Y104.213 E2.15252
G1 X106.219 Y102.908 E2.24006
G1 X106.078 Y102.770 E2.24941
G1 X105.931 Y102.551 E2.26194
G1 X104.269 Y104.213 E2.37343
G1 X103.623 Y104.213 E2.40404
G1 X105.687 Y102.149 E2.54249
G1 X105.514 Y101.676 E2.56636
G1 X102.978 Y104.213 E2.73651
G1 X102.332 Y104.213 E2.76712
G1 X105.436 Y101.109 E2.97531
G1 X105.422 Y100.983 E2.98132
G1 X105.465 Y100.512 E3.00377
G1 X105.492 Y100.407 E3.00889
G1 X101.687 Y104.213 E3.26416
G1 X101.042 Y104.213 E3.29478
G1 X105.941 Y99.313 E3.62345
G1 X106.232 Y98.564 E3.66155
G1 X106.296 Y98.313 E3.67388
G1 X100.396 Y104.213 E4.06967
G1 X99.751 Y104.213 E4.10028
G1 X102.767 Y101.196 E4.30263
G1 X102.397 Y101.394 E4.32255
G1 X101.897 Y101.597 E4.34816
G1 X101.649 Y101.669 E4.36038
G1 X99.105 Y104.213 E4.53102
G1 X98.460 Y104.213 E4.56163
G1 X100.826 Y101.846 E4.72038
G1 X100.309 Y101.886 E4.74502
G1 X100.145 Y101.882 E4.75277
G1 X97.815 Y104.213 E4.90911
G1 X97.169 Y104.213 E4.93972
G1 X99.539 Y101.843 E5.09870
G1 X99.233 Y101.803 E5.11333
G1 X98.991 Y101.746 E5.12516
G1 X96.524 Y104.213 E5.29064
G1 X95.878 Y104.213 E5.32126
G1 X98.488 Y101.603 E5.49634
G1 X98.025 Y101.421 E5.51995
G1 X95.233 Y104.213 E5.70724
G1 X94.588 Y104.213 E5.73785
G1 X97.596 Y101.205 E5.93963
G1 X97.197 Y100.958 E5.96188
G1 X93.942 Y104.213 E6.18019
G1 X93.636 Y104.213 E6.19469
G1 X93.477 Y104.238 E6.20236
G1 X93.478 Y104.031 E6.21216
G1 X96.836 Y100.673 E6.43743
G1 X96.622 Y100.503 E6.45042
G1 X96.493 Y100.371 E6.45917
G1 X94.280 Y102.584 E6.60759
G1 X94.509 Y101.957 E6.63924
G1 X94.539 Y101.679 E6.65250
G1 X96.181 Y100.038 E6.76260
G1 X95.896 Y99.677 E6.78440
G1 X94.550 Y101.023 E6.87469
G1 X94.534 Y100.856 E6.88264
G1 X94.438 Y100.490 E6.90063
G1 X95.645 Y99.283 E6.98158
G1 X95.425 Y98.858 E7.00429
G1 X94.241 Y100.042 E7.08372
G1 X94.032 Y99.605 E7.10668
G1 X95.238 Y98.399 E7.18757
G1 X95.089 Y97.903 E7.21215
G1 X93.854 Y99.138 E7.29501
G1 X93.770 Y98.916 E7.30625
G1 X93.700 Y98.646 E7.31948
G1 X94.985 Y97.361 E7.40567
G1 X94.957 Y97.183 E7.41421
G1 X94.935 Y96.765 E7.43406
G1 X93.575 Y98.126 E7.52531
G1 X93.504 Y97.552 E7.55274
G1 X94.971 Y96.085 E7.65117
G1 X94.989 Y95.852 E7.66224
G1 X95.103 Y95.308 E7.68862
G1 X93.475 Y96.935 E7.79778
G1 X93.509 Y96.295 E7.82815
G1 X93.517 Y96.248 E7.83045
G1 X95.505 Y94.259 E7.96381
G1 X95.368 Y92.461 F7800.000
G1 F1800
G1 X96.061 Y91.797 E8.00934
G1 X96.650 Y91.354 E8.04428
G1 X97.059 Y91.103 E8.06706
G1 X97.666 Y90.808 E8.09910
G1 X93.985 Y94.489 E8.34604
G1 X93.832 Y94.877 E8.36581
G1 X93.666 Y95.453 E8.39427
G1 X98.639 Y90.480 E8.72786
G1 X98.858 Y90.425 E8.73854
G1 X99.431 Y90.334 E8.76607
G1 X97.438 Y92.326 E8.89972
G1 X97.851 Y92.133 E8.92131
G1 X98.483 Y91.927 E8.95286
G1 X100.118 Y90.292 E9.06255
G1 X100.741 Y90.314 E9.09213
G1 X99.265 Y91.791 E9.19119
G1 X99.677 Y91.748 E9.21084
G1 X99.946 Y91.755 E9.22360
G1 X101.309 Y90.392 E9.31508
G1 X101.835 Y90.512 E9.34064
G1 X100.543 Y91.803 E9.42726
G1 X100.767 Y91.832 E9.43794
G1 X101.085 Y91.907 E9.45344
G1 X102.325 Y90.667 E9.53664
G1 X102.784 Y90.853 E9.56015
G1 X101.581 Y92.056 E9.64089
G1 X101.802 Y92.133 E9.65200
G1 X102.039 Y92.244 E9.66439
G1 X103.215 Y91.067 E9.74333
G1 X103.620 Y91.308 E9.76567
G1 X102.463 Y92.465 E9.84333
G1 X102.855 Y92.718 E9.86548
G1 X104.000 Y91.573 E9.94229
G1 X104.280 Y91.792 E9.95914
G1 X104.357 Y91.862 E9.96407
G1 X103.216 Y93.003 E10.04061
G1 X103.378 Y93.132 E10.05046
G1 X103.553 Y93.311 E10.06233
G1 X104.690 Y92.174 E10.13859
G1 X105.000 Y92.510 E10.16025
G1 X103.860 Y93.649 E10.23667
G1 X104.140 Y94.015 E10.25851
G1 X105.286 Y92.869 E10.33539
G1 X105.549 Y93.252 E10.35742
G1 X104.391 Y94.409 E10.43508
G1 X104.606 Y94.840 E10.45789
G1 X105.786 Y93.660 E10.53704
G1 X105.996 Y94.095 E10.55996
G1 X104.780 Y95.312 E10.64158
G1 X104.895 Y95.641 E10.65811
G1 X104.929 Y95.807 E10.66619
G1 X106.177 Y94.560 E10.74985
G1 X106.321 Y95.061 E10.77459
G1 X105.026 Y96.356 E10.86145
