; generated by Slic3r 1.3.0 on 2019-05-07 at 12:20:43

; external perimeters extrusion width = 0.44mm (1.19mm^3/s)
; perimeters extrusion width = 0.56mm (3.10mm^3/s)
; infill extrusion width = 0.50mm (5.48mm^3/s)
; solid infill extrusion width = 0.56mm (3.72mm^3/s)
; top infill extrusion width = 0.56mm (1.55mm^3/s)
; support material extrusion width = 0.44mm (4.76mm^3/s)

M107
M104 S200 ; set temperature
G28 ; home all axes
M150 B180 G210
M150 B180 G210
G92 E0
G1 E6 F1800
; Filament gcode

M109 S200 ; set temperature and wait for it to be reached
G21 ; set units to millimeters
G90 ; use absolute coordinates
M82 ; use absolute distances for extrusion
G92 E0
G1 Z0.250 F7800.000
G1 E-2.00000 F2400.00000
G92 E0
G1 X85.092 Y85.820 F7800.000
G1 E2.00000 F2400.00000
G1 F1560
G1 X86.839 Y84.382 E2.08920
G1 X90.000 Y83.554 E2.21808
G1 X110.000 Y83.554 E3.00676
G1 X112.227 Y83.951 E3.09596
G1 X114.180 Y85.092 E3.18516
G1 X115.618 Y86.839 E3.27437
G1 X116.446 Y90.000 E3.40325
G1 X116.446 Y110.000 E4.19192
G1 X116.049 Y112.227 E4.28112
G1 X114.908 Y114.180 E4.37033
G1 X113.161 Y115.618 E4.45953
G1 X110.000 Y116.446 E4.58841
G1 X90.000 Y116.446 E5.37708
G1 X87.773 Y116.049 E5.46629
G1 X85.820 Y114.908 E5.55549
G1 X84.382 Y113.161 E5.64469
G1 X83.554 Y110.000 E5.77357
G1 X83.554 Y90.000 E6.56225
G1 X83.951 Y87.773 E6.65145
G1 X85.062 Y85.872 E6.73829
G1 E4.73829 F2400.00000
G92 E0
G1 X109.304 Y109.304 F7800.000
G1 E2.00000 F2400.00000
G1 F1560
G1 X90.696 Y109.304 E2.73376
G1 X90.696 Y90.696 E3.46751
G1 X109.304 Y90.696 E4.20127
G1 X109.304 Y109.244 E4.93266
G1 X109.750 Y109.750 F7800.000
G1 F1560
G1 X90.250 Y109.750 E5.70161
G1 X90.250 Y90.250 E6.47057
G1 X109.750 Y90.250 E7.23953
G1 X109.750 Y109.690 E8.00612
G1 X109.364 Y109.646 F7800.000
G1 X108.684 Y109.031 F7800.000
G1 F1560
G1 X109.031 Y108.684 E8.02554
G1 X109.031 Y108.051 E8.05054
G1 X108.051 Y109.031 E8.10531
G1 X107.418 Y109.031 E8.13032
G1 X109.031 Y107.418 E8.22046
G1 X109.031 Y106.786 E8.24546
G1 X106.786 Y109.031 E8.37096
G1 X106.153 Y109.031 E8.39596
G1 X109.031 Y106.153 E8.55682
G1 X109.031 Y105.520 E8.58183
G1 X105.520 Y109.031 E8.77805
G1 X104.888 Y109.031 E8.80305
G1 X109.031 Y104.888 E9.03464
G1 X109.031 Y104.255 E9.05964
G1 X104.255 Y109.031 E9.32659
G1 X103.622 Y109.031 E9.35159
G1 X109.031 Y103.622 E9.65390
G1 X109.031 Y102.990 E9.67890
G1 X102.990 Y109.031 E10.01657
G1 X102.357 Y109.031 E10.04157
G1 X109.031 Y102.357 E10.41460
G1 X109.031 Y101.724 E10.43961
G1 X101.724 Y109.031 E10.84800
G1 X101.092 Y109.031 E10.87301
G1 X109.031 Y101.092 E11.31676
G1 X109.031 Y100.459 E11.34176
G1 X100.459 Y109.031 E11.82088
G1 X99.826 Y109.031 E11.84588
G1 X109.031 Y99.826 E12.36036
G1 X109.031 Y99.194 E12.38537
G1 X99.194 Y109.031 E12.93520
G1 X98.561 Y109.031 E12.96021
G1 X109.031 Y98.561 E13.54541
G1 X109.031 Y97.928 E13.57041
G1 X97.928 Y109.031 E14.19098
G1 X97.296 Y109.031 E14.21598
G1 X109.031 Y97.296 E14.87190
G1 X109.031 Y96.663 E14.89691
G1 X96.663 Y109.031 E15.58819
G1 X96.030 Y109.031 E15.61320
G1 X109.031 Y96.030 E16.33985
G1 X109.031 Y95.398 E16.36485
G1 X95.398 Y109.031 E17.12686
G1 X94.765 Y109.031 E17.15186
G1 X109.031 Y94.765 E17.94923
G1 X109.031 Y94.132 E17.97424
G1 X94.132 Y109.031 E18.80697
G1 X93.500 Y109.031 E18.83198
G1 X109.031 Y93.500 E19.70007
G1 X109.031 Y92.867 E19.72507
G1 X92.867 Y109.031 E20.62853
G1 X92.234 Y109.031 E20.65354
G1 X109.031 Y92.234 E21.59235
G1 X109.031 Y91.602 E21.61736
G1 X91.602 Y109.031 E22.59154
G1 X90.969 Y109.031 E22.61654
G1 X109.031 Y90.969 E23.62608
G1 X108.398 Y90.969 E23.65109
G1 X90.969 Y108.398 E24.62527
G1 X90.969 Y107.766 E24.65027
G1 X107.766 Y90.969 E25.58909
G1 X107.133 Y90.969 E25.61410
G1 X90.969 Y107.133 E26.51756
G1 X90.969 Y106.500 E26.54256
G1 X106.500 Y90.969 E27.41066
G1 X105.868 Y90.969 E27.43566
G1 X90.969 Y105.868 E28.26840
G1 X90.969 Y105.235 E28.29341
G1 X105.235 Y90.969 E29.09078
G1 X104.602 Y90.969 E29.11578
G1 X90.969 Y104.602 E29.87780
G1 X90.969 Y103.970 E29.90280
G1 X103.970 Y90.969 E30.62945
G1 X103.337 Y90.969 E30.65446
G1 X90.969 Y103.337 E31.34575
G1 X90.969 Y102.704 E31.37075
G1 X102.704 Y90.969 E32.02668
G1 X102.072 Y90.969 E32.05168
G1 X90.969 Y102.072 E32.67225
G1 X90.969 Y101.439 E32.69725
G1 X101.439 Y90.969 E33.28246
G1 X100.806 Y90.969 E33.30746
G1 X90.969 Y100.806 E33.85730
G1 X90.969 Y100.174 E33.88231
G1 X100.174 Y90.969 E34.39679
G1 X99.541 Y90.969 E34.42179
G1 X90.969 Y99.541 E34.90091
G1 X90.969 Y98.908 E34.92592
G1 X98.908 Y90.969 E35.36967
G1 X98.276 Y90.969 E35.39468
G1 X90.969 Y98.276 E35.80307
G1 X90.969 Y97.643 E35.82808
G1 X97.643 Y90.969 E36.20111
G1 X97.010 Y90.969 E36.22612
G1 X90.969 Y97.010 E36.56379
G1 X90.969 Y96.378 E36.58879
G1 X96.378 Y90.969 E36.89110
G1 X95.745 Y90.969 E36.91611
G1 X90.969 Y95.745 E37.18306
G1 X90.969 Y95.112 E37.20806
G1 X95.112 Y90.969 E37.43965
G1 X94.480 Y90.969 E37.46465
G1 X90.969 Y94.480 E37.66088
G1 X90.969 Y93.847 E37.68588
G1 X93.847 Y90.969 E37.84674
G1 X93.214 Y90.969 E37.87175
G1 X90.969 Y93.214 E37.99725
G1 X90.969 Y92.582 E38.02226
G1 X92.582 Y90.969 E38.11240
G1 X91.949 Y90.969 E38.13740
G1 X90.969 Y91.949 E38.19218
G1 X90.969 Y91.316 E38.21718
G1 X91.316 Y90.969 E38.23660
G1 Z0.250 F7800.000
G1 Z0.450 F7800.000
G1 X109.323 Y109.323 F7800.000
G1 F1800
G1 X90.677 Y109.323 E38.91803
G1 X90.677 Y90.677 E39.59946
G1 X109.323 Y90.677 E40.28089
G1 X109.323 Y109.263 E40.96013
G1 X109.780 Y109.780 F7800.000
G1 F900
G1 X90.220 Y109.780 E41.50908
G1 X90.220 Y90.220 E42.05802
G1 X109.780 Y90.220 E42.60697
G1 X109.780 Y109.720 E43.15423
G1 X109.394 Y109.676 F7800.000
G1 X109.007 Y91.395 F7800.000
G1 F2160
G1 X108.605 Y90.993 E43.17510
G1 X107.871 Y90.993 E43.20201
G1 X109.007 Y92.129 E43.26094
G1 X109.007 Y92.863 E43.28785
G1 X107.137 Y90.993 E43.38483
G1 X106.403 Y90.993 E43.41175
G1 X109.007 Y93.597 E43.54679
G1 X109.007 Y94.331 E43.57370
G1 X105.669 Y90.993 E43.74680
G1 X104.936 Y90.993 E43.77371
G1 X109.007 Y95.064 E43.98488
G1 X109.007 Y95.798 E44.01179
G1 X104.202 Y90.993 E44.26101
G1 X103.468 Y90.993 E44.28792
G1 X109.007 Y96.532 E44.57520
G1 X109.007 Y97.266 E44.60211
G1 X102.734 Y90.993 E44.92745
G1 X102.000 Y90.993 E44.95436
G1 X109.007 Y98.000 E45.31776
G1 X109.007 Y98.734 E45.34467
G1 X101.266 Y90.993 E45.74613
G1 X100.533 Y90.993 E45.77304
G1 X109.007 Y99.467 E46.21256
G1 X109.007 Y100.201 E46.23947
G1 X99.799 Y90.993 E46.71704
G1 X99.065 Y90.993 E46.74395
G1 X109.007 Y100.935 E47.25959
G1 X109.007 Y101.669 E47.28650
G1 X98.331 Y90.993 E47.84019
G1 X97.597 Y90.993 E47.86710
G1 X109.007 Y102.403 E48.45885
G1 X109.007 Y103.136 E48.48577
G1 X96.864 Y90.993 E49.11558
G1 X96.130 Y90.993 E49.14249
G1 X109.007 Y103.870 E49.81036
G1 X109.007 Y104.604 E49.83727
G1 X95.396 Y90.993 E50.54320
G1 X94.662 Y90.993 E50.57011
G1 X109.007 Y105.338 E51.31410
G1 X109.007 Y106.072 E51.34101
G1 X93.928 Y90.993 E52.12305
G1 X93.194 Y90.993 E52.14996
G1 X109.007 Y106.806 E52.97007
G1 X109.007 Y107.539 E52.99698
G1 X92.461 Y90.993 E53.85515
G1 X91.727 Y90.993 E53.88206
G1 X109.007 Y108.273 E54.77828
G1 X109.007 Y109.007 E54.80519
G1 X90.993 Y90.993 E55.73947
G1 X90.993 Y91.727 E55.76638
G1 X108.273 Y109.007 E56.66261
G1 X107.539 Y109.007 E56.68952
G1 X90.993 Y92.461 E57.54769
G1 X90.993 Y93.194 E57.57460
G1 X106.806 Y109.007 E58.39470
G1 X106.072 Y109.007 E58.42162
G1 X90.993 Y93.928 E59.20366
G1 X90.993 Y94.662 E59.23057
G1 X105.338 Y109.007 E59.97456
G1 X104.604 Y109.007 E60.00147
G1 X90.993 Y95.396 E60.70740
G1 X90.993 Y96.130 E60.73432
G1 X103.870 Y109.007 E61.40219
G1 X103.136 Y109.007 E61.42910
G1 X90.993 Y96.864 E62.05891
G1 X90.993 Y97.597 E62.08582
G1 X102.403 Y109.007 E62.67757
G1 X101.669 Y109.007 E62.70448
G1 X90.993 Y98.331 E63.25818
G1 X90.993 Y99.065 E63.28509
G1 X100.935 Y109.007 E63.80072
G1 X100.201 Y109.007 E63.82764
G1 X90.993 Y99.799 E64.30521
G1 X90.993 Y100.533 E64.33212
G1 X99.467 Y109.007 E64.77164
G1 X98.734 Y109.007 E64.79855
G1 X90.993 Y101.266 E65.20001
G1 X90.993 Y102.000 E65.22692
G1 X98.000 Y109.007 E65.59032
G1 X97.266 Y109.007 E65.61723
G1 X90.993 Y102.734 E65.94257
G1 X90.993 Y103.468 E65.96948
G1 X96.532 Y109.007 E66.25676
G1 X95.798 Y109.007 E66.28368
G1 X90.993 Y104.202 E66.53290
G1 X90.993 Y104.936 E66.55981
G1 X95.064 Y109.007 E66.77097
G1 X94.331 Y109.007 E66.79788
G1 X90.993 Y105.669 E66.97099
G1 X90.993 Y106.403 E66.99790
G1 X93.597 Y109.007 E67.13294
G1 X92.863 Y109.007 E67.15986
G1 X90.993 Y107.137 E67.25684
G1 X90.993 Y107.871 E67.28375
G1 X92.129 Y109.007 E67.34268
G1 X91.395 Y109.007 E67.36959
G1 X90.993 Y108.605 E67.39046
G1 Z0.650 F7800.000
G1 X109.323 Y109.323 F7800.000
G1 F1800
G1 X90.677 Y109.323 E68.07189
G1 X90.677 Y90.677 E68.75332
G1 X109.323 Y90.677 E69.43476
G1 X109.323 Y109.263 E70.11399
G1 X109.780 Y109.780 F7800.000
G1 F900
G1 X90.220 Y109.780 E70.66294
G1 X90.220 Y90.220 E71.21189
G1 X109.780 Y90.220 E71.76083
G1 X109.780 Y109.720 E72.30809
G1 X109.394 Y109.676 F7800.000
G1 X108.605 Y109.007 F7800.000
G1 F2160
G1 X109.007 Y108.605 E72.32896
G1 X109.007 Y107.871 E72.35587
G1 X107.871 Y109.007 E72.41480
G1 X107.137 Y109.007 E72.44171
G1 X109.007 Y107.137 E72.53869
G1 X109.007 Y106.403 E72.56561
G1 X106.403 Y109.007 E72.70065
G1 X105.669 Y109.007 E72.72756
G1 X109.007 Y105.669 E72.90066
G1 X109.007 Y104.936 E72.92758
G1 X104.936 Y109.007 E73.13874
G1 X104.202 Y109.007 E73.16565
G1 X109.007 Y104.202 E73.41487
G1 X109.007 Y103.468 E73.44178
G1 X103.468 Y109.007 E73.72906
G1 X102.734 Y109.007 E73.75597
G1 X109.007 Y102.734 E74.08131
G1 X109.007 Y102.000 E74.10822
G1 X102.000 Y109.007 E74.47162
G1 X101.266 Y109.007 E74.49853
G1 X109.007 Y101.266 E74.89999
G1 X109.007 Y100.533 E74.92690
G1 X100.533 Y109.007 E75.36642
G1 X99.799 Y109.007 E75.39333
G1 X109.007 Y99.799 E75.87090
G1 X109.007 Y99.065 E75.89781
G1 X99.065 Y109.007 E76.41345
G1 X98.331 Y109.007 E76.44036
G1 X109.007 Y98.331 E76.99405
G1 X109.007 Y97.597 E77.02096
G1 X97.597 Y109.007 E77.61271
G1 X96.864 Y109.007 E77.63963
G1 X109.007 Y96.864 E78.26944
G1 X109.007 Y96.130 E78.29635
G1 X96.130 Y109.007 E78.96422
G1 X95.396 Y109.007 E78.99113
G1 X109.007 Y95.396 E79.69706
G1 X109.007 Y94.662 E79.72397
G1 X94.662 Y109.007 E80.46795
G1 X93.928 Y109.007 E80.49487
G1 X109.007 Y93.928 E81.27691
G1 X109.007 Y93.195 E81.30382
G1 X93.194 Y109.007 E82.12393
G1 X92.461 Y109.007 E82.15084
G1 X109.007 Y92.461 E83.00900
G1 X109.007 Y91.727 E83.03592
G1 X91.727 Y109.007 E83.93214
G1 X90.993 Y109.007 E83.95905
G1 X109.007 Y90.993 E84.89333
G1 X108.273 Y90.993 E84.92024
G1 X90.993 Y108.273 E85.81647
G1 X90.993 Y107.539 E85.84338
G1 X107.539 Y90.993 E86.70154
G1 X106.806 Y90.993 E86.72846
G1 X90.993 Y106.806 E87.54856
G1 X90.993 Y106.072 E87.57547
G1 X106.072 Y90.993 E88.35752
G1 X105.338 Y90.993 E88.38443
G1 X90.993 Y105.338 E89.12842
G1 X90.993 Y104.604 E89.15533
G1 X104.604 Y90.993 E89.86126
G1 X103.870 Y90.993 E89.88817
G1 X90.993 Y103.870 E90.55604
G1 X90.993 Y103.136 E90.58296
G1 X103.136 Y90.993 E91.21277
G1 X102.403 Y90.993 E91.23968
G1 X90.993 Y102.403 E91.83143
G1 X90.993 Y101.669 E91.85834
G1 X101.669 Y90.993 E92.41204
G1 X100.935 Y90.993 E92.43895
G1 X90.993 Y100.935 E92.95458
G1 X90.993 Y100.201 E92.98149
G1 X100.201 Y90.993 E93.45907
G1 X99.467 Y90.993 E93.48598
G1 X90.993 Y99.467 E93.92550
G1 X90.993 Y98.734 E93.95241
G1 X98.734 Y90.993 E94.35387
G1 X98.000 Y90.993 E94.38078
G1 X90.993 Y98.000 E94.74418
G1 X90.993 Y97.266 E94.77109
G1 X97.266 Y90.993 E95.09643
G1 X96.532 Y90.993 E95.12334
G1 X90.993 Y96.532 E95.41062
G1 X90.993 Y95.798 E95.43753
G1 X95.798 Y90.993 E95.68675
G1 X95.064 Y90.993 E95.71367
G1 X90.993 Y95.064 E95.92483
G1 X90.993 Y94.331 E95.95174
G1 X94.331 Y90.993 E96.12485
G1 X93.597 Y90.993 E96.15176
G1 X90.993 Y93.597 E96.28680
G1 X90.993 Y92.863 E96.31371
G1 X92.863 Y90.993 E96.41070
G1 X92.129 Y90.993 E96.43761
G1 X90.993 Y92.129 E96.49654
G1 X90.993 Y91.395 E96.52345
G1 X91.395 Y90.993 E96.54432
M106 S239.7
G1 Z0.850 F7800.000
G1 X109.323 Y109.323 F7800.000
G1 F1800
G1 X90.677 Y109.323 E97.22575
G1 X90.677 Y90.677 E97.90718
G1 X109.323 Y90.677 E98.58861
G1 X109.323 Y109.263 E99.26785
G1 X109.780 Y109.780 F7800.000
G1 F900
G1 X90.220 Y109.780 E99.81680
G1 X90.220 Y90.220 E100.36574
G1 X109.780 Y90.220 E100.91469
G1 X109.780 Y109.720 E101.46195
G1 X109.394 Y109.676 F7800.000
G1 X108.836 Y103.832 F7800.000
G1 F3600
G1 X106.388 Y103.176 E101.54383
G1 X102.469 Y107.095 E101.72286
G1 X102.936 Y108.836 E101.78108
G1 X108.836 Y108.836 E101.97169
G1 X108.836 Y103.832 E102.13333
G1 X108.836 Y94.368 F7800.000
G1 F3600
G1 X108.836 Y91.164 E102.23684
G1 X107.665 Y91.164 E102.27468
G1 X108.431 Y94.023 E102.37029
G1 X104.512 Y97.942 E102.54932
G1 X99.924 Y96.712 E102.70278
G1 X96.005 Y100.631 E102.88181
G1 X97.235 Y105.219 E103.03526
G1 X93.618 Y108.836 E103.20050
G1 X94.264 Y108.836 E103.22138
G1 X97.558 Y105.542 E103.37185
G1 X102.146 Y106.772 E103.52530
G1 X106.065 Y102.853 E103.70433
G1 X104.835 Y98.265 E103.85779
G1 X108.754 Y94.346 E104.03682
G1 X108.836 Y94.368 E104.03956
G1 X98.371 Y91.801 F7800.000
G1 F3600
G1 X99.008 Y91.164 E104.06865
G1 X98.361 Y91.164 E104.08953
G1 X98.048 Y91.478 E104.10385
G1 X96.878 Y91.164 E104.14297
G1 X92.544 Y91.164 E104.28300
G1 X91.164 Y92.544 E104.34602
G1 X91.164 Y99.097 E104.55773
G1 X95.682 Y100.308 E104.70883
G1 X99.601 Y96.389 E104.88786
G1 X98.371 Y91.801 E105.04131
G1 X91.164 Y91.897 F7800.000
G1 F3600
G1 X91.897 Y91.164 E105.07481
G1 X91.164 Y91.164 E105.09849
G1 X91.164 Y91.897 E105.12218
G1 X92.189 Y108.836 F7800.000
G1 F3600
G1 X91.164 Y108.561 E105.15646
G1 X91.164 Y108.836 E105.16533
G1 X92.189 Y108.836 E105.19845
G1 Z1.050 F7800.000
G1 X109.323 Y109.323 F7800.000
G1 F1800
G1 X90.677 Y109.323 E105.87988
G1 X90.677 Y90.677 E106.56131
G1 X109.323 Y90.677 E107.24275
G1 X109.323 Y109.263 E107.92199
G1 X109.780 Y109.780 F7800.000
G1 F900
G1 X90.220 Y109.780 E108.47093
G1 X90.220 Y90.220 E109.01988
G1 X109.780 Y90.220 E109.56882
G1 X109.780 Y109.720 E110.11608
G1 X109.394 Y109.676 F7800.000
G1 X108.312 Y94.464 F7800.000
G1 F3600
G1 X104.954 Y97.823 E110.26954
G1 X106.388 Y103.176 E110.44857
G1 X108.836 Y103.832 E110.53044
G1 X108.836 Y108.836 E110.69209
G1 X103.172 Y108.836 E110.87505
G1 X102.587 Y106.653 E110.94804
G1 X105.946 Y103.295 E111.10150
G1 X104.512 Y97.942 E111.28053
G1 X99.924 Y96.712 E111.43398
G1 X98.489 Y91.359 E111.61301
G1 X98.685 Y91.164 E111.62192
G1 X107.428 Y91.164 E111.90438
G1 X108.312 Y94.464 E112.01476
G1 X108.836 Y94.368 F7800.000
G1 F3600
G1 X108.754 Y94.346 E112.01751
G1 X107.901 Y91.164 E112.12393
G1 X108.836 Y91.164 E112.15413
G1 X108.836 Y94.368 E112.25763
G1 X98.048 Y91.478 F7800.000
G1 F3600
G1 X99.482 Y96.831 E112.43666
G1 X96.123 Y100.189 E112.59012
G1 X97.558 Y105.542 E112.76915
G1 X102.146 Y106.772 E112.92260
G1 X102.699 Y108.836 E112.99163
G1 X93.941 Y108.836 E113.27457
G1 X97.116 Y105.661 E113.41963
G1 X95.682 Y100.308 E113.59866
G1 X91.164 Y99.097 E113.74976
G1 X91.164 Y92.220 E113.97191
G1 X92.220 Y91.164 E114.02017
G1 X96.878 Y91.164 E114.17064
G1 X98.048 Y91.478 E114.20976
G1 X92.189 Y108.836 F7800.000
G1 F3600
G1 X91.164 Y108.836 E114.24288
G1 X91.164 Y108.561 E114.25175
G1 X92.189 Y108.836 E114.28604
G1 Z1.250 F7800.000
G1 X109.323 Y109.323 F7800.000
G1 F1800
G1 X90.677 Y109.323 E114.96747
G1 X90.677 Y90.677 E115.64890
G1 X109.323 Y90.677 E116.33034
G1 X109.323 Y109.263 E117.00957
G1 X109.780 Y109.780 F7800.000
G1 F900
G1 X90.220 Y109.780 E117.55852
G1 X90.220 Y90.220 E118.10747
G1 X109.780 Y90.220 E118.65641
G1 X109.780 Y109.720 E119.20367
G1 X109.394 Y109.676 F7800.000
G1 X108.836 Y94.132 F7800.000
G1 F3600
G1 X108.836 Y91.164 E119.29954
G1 X107.665 Y91.164 E119.33738
G1 X108.431 Y94.023 E119.43299
G1 X108.836 Y94.132 E119.44654
G1 X98.489 Y91.359 F7800.000
G1 F3600
G1 X98.685 Y91.164 E119.45546
G1 X97.761 Y91.164 E119.48528
G1 X98.489 Y91.359 E119.50964
G1 X98.371 Y91.801 F7800.000
G1 F3600
G1 X95.995 Y91.164 E119.58910
G1 X92.220 Y91.164 E119.71104
G1 X91.164 Y92.220 E119.75930
G1 X91.164 Y98.861 E119.97381
G1 X96.123 Y100.189 E120.13967
G1 X99.482 Y96.831 E120.29313
G1 X104.835 Y98.265 E120.47216
