; generated by Slic3r 1.3.0 on 2019-01-10 at 13:20:23

; external perimeters extrusion width = 0.44mm (2.18mm^3/s)
; perimeters extrusion width = 0.56mm (5.69mm^3/s)
; infill extrusion width = 0.50mm (7.31mm^3/s)
; solid infill extrusion width = 0.56mm (2.07mm^3/s)
; top infill extrusion width = 0.56mm (1.55mm^3/s)
; support material extrusion width = 0.44mm (4.76mm^3/s)

M107
M104 S200 ; set temperature
G28
; Filament gcode

M109 S200 ; set temperature and wait for it to be reached
G21 ; set units to millimeters
G90 ; use absolute coordinates
M82 ; use absolute distances for extrusion
G92 E0
G1 Z0.250 F7800.000
G1 E-2.00000 F2400.00000
G92 E0
G1 X82.016 Y82.243 F7800.000
G1 E2.00000 F2400.00000
G1 F1800
G1 X83.762 Y80.804 E2.10494
G1 X86.923 Y79.976 E2.25657
G1 X111.605 Y79.976 E3.40163
G1 X113.832 Y80.373 E3.50657
G1 X115.785 Y81.515 E3.61152
G1 X117.223 Y83.261 E3.71646
G1 X118.049 Y86.255 E3.86056
G1 X118.246 Y93.927 E4.21661
G1 X118.246 Y112.427 E5.07488
G1 X117.849 Y114.654 E5.17982
G1 X116.708 Y116.607 E5.28477
G1 X114.961 Y118.045 E5.38971
G1 X111.800 Y118.874 E5.54133
G1 X88.200 Y118.874 E6.63620
G1 X85.973 Y118.477 E6.74114
G1 X84.020 Y117.335 E6.84609
G1 X82.582 Y115.589 E6.95103
G1 X81.765 Y112.817 E7.08507
G1 X80.489 Y91.754 E8.06404
G1 X80.477 Y86.422 E8.31140
G1 X80.874 Y84.195 E8.41634
G1 X81.985 Y82.294 E8.51851
G1 E6.51851 F2400.00000
G92 E0
G1 X89.304 Y111.731 F7800.000
G1 E2.00000 F2400.00000
G1 F1800
G1 X88.896 Y111.731 E2.01890
G1 X88.896 Y94.624 E2.81255
G1 X89.304 Y94.624 E2.83144
G1 X89.304 Y111.671 E3.62231
G1 E1.62231 F2400.00000
G92 E0
G1 X110.696 Y111.731 F7800.000
G1 E2.00000 F2400.00000
G1 F1800
G1 X110.696 Y104.870 E2.31829
G1 X111.104 Y104.868 E2.33718
G1 X111.104 Y111.731 E2.65557
G1 X110.756 Y111.731 E2.67168
G1 E0.67168 F2400.00000
G92 E0
G1 X110.696 Y101.484 F7800.000
G1 E2.00000 F2400.00000
G1 F1800
G1 X110.696 Y94.624 E2.31826
G1 X111.104 Y94.624 E2.33715
G1 X111.104 Y101.485 E2.65548
G1 X110.756 Y101.484 E2.67159
G1 E0.67159 F2400.00000
G92 E0
G1 X110.250 Y95.277 F7800.000
G1 E2.00000 F2400.00000
G1 F1800
G1 X89.750 Y95.277 E2.95105
G1 X89.750 Y111.077 E3.68405
G1 X110.250 Y111.077 E4.63510
G1 X110.250 Y104.426 E4.94367
G1 X111.101 Y104.422 E4.98316
G1 X111.282 Y104.354 E4.99211
G1 X111.550 Y104.124 E5.00850
G1 X111.550 Y112.177 E5.38210
G1 X88.450 Y112.177 E6.45377
G1 X88.450 Y94.177 E7.28884
G1 X111.550 Y94.177 E8.36051
G1 X111.550 Y102.230 E8.73412
G1 X111.281 Y102.000 E8.75056
G1 X111.094 Y101.932 E8.75981
G1 X110.250 Y101.928 E8.79894
G1 X110.250 Y95.337 E9.10472
G1 X110.233 Y94.878 F7800.000
G1 E7.10472 F2400.00000
G92 E0
G1 X111.550 Y102.560 F7800.000
G1 E2.00000 F2400.00000
G1 F1800
G1 X111.550 Y103.795 E2.05731
G1 E0.05731 F2400.00000
G92 E0
G1 X110.473 Y111.627 F7800.000
G1 E2.00000 F2400.00000
G1 F1800
G1 X89.527 Y111.627 E3.30627
G1 E1.30627 F2400.00000
G92 E0
G1 X89.527 Y94.727 F7800.000
G1 E2.00000 F2400.00000
G1 F1800
G1 X110.473 Y94.727 E3.30627
G1 Z0.250 F7800.000
G1 E1.30627 F2400.00000
G92 E0
G1 X111.605 Y89.644 F7800.000
G1 E2.00000 F2400.00000
G1 F1800
G1 X111.605 Y86.422 E2.14946
G1 X110.712 Y86.422 E2.19088
G1 X110.712 Y89.644 E2.34034
G1 X109.820 Y89.644 E2.38176
G1 X109.820 Y86.422 E2.53122
G1 X108.927 Y86.422 E2.57264
G1 X108.927 Y89.495 E2.71519
G1 X108.034 Y89.495 E2.75661
G1 X108.034 Y86.422 E2.89917
G1 X107.142 Y86.422 E2.94058
G1 X107.142 Y89.495 E3.08314
G1 X106.249 Y89.495 E3.12455
G1 X106.249 Y86.422 E3.26711
G1 X105.356 Y86.422 E3.30853
G1 X105.356 Y89.495 E3.45108
G1 X104.463 Y89.495 E3.49250
G1 X104.463 Y86.422 E3.63506
G1 X103.571 Y86.422 E3.67647
G1 X103.571 Y89.495 E3.81903
G1 X103.393 Y89.495 E3.82727
G1 X103.393 Y86.422 E3.96983
G1 X103.571 Y86.422 E3.97807
G1 E1.97807 F2400.00000
G92 E0
G1 X101.785 Y89.495 F7800.000
G1 E2.00000 F2400.00000
G1 F1800
G1 X101.785 Y86.422 E2.14256
G1 X100.893 Y86.422 E2.18397
G1 X100.893 Y89.495 E2.32653
G1 X100.000 Y89.495 E2.36794
G1 X100.000 Y86.422 E2.51050
G1 X99.107 Y86.422 E2.55192
G1 X99.107 Y89.495 E2.69447
G1 X98.215 Y89.495 E2.73589
G1 X98.215 Y86.422 E2.87845
G1 X97.322 Y86.422 E2.91986
G1 X97.322 Y89.495 E3.06242
G1 X96.429 Y89.495 E3.10383
G1 X96.429 Y86.422 E3.24639
G1 X95.537 Y86.422 E3.28781
G1 X95.537 Y89.495 E3.43036
G1 X94.644 Y89.495 E3.47178
G1 X94.644 Y86.422 E3.61433
G1 X93.751 Y86.422 E3.65575
G1 X93.751 Y89.495 E3.79831
G1 X93.393 Y89.495 E3.81491
G1 X93.393 Y86.422 E3.95747
G1 X93.751 Y86.422 E3.97408
G1 E1.97408 F2400.00000
G92 E0
G1 X91.966 Y89.495 F7800.000
G1 E2.00000 F2400.00000
G1 F1800
G1 X91.966 Y86.422 E2.14256
G1 X91.073 Y86.422 E2.18397
G1 X91.073 Y89.495 E2.32653
G1 X91.037 Y89.495 E2.32821
G1 X91.037 Y89.696 E2.33755
G1 X90.883 Y89.696 E2.34467
G1 X90.883 Y89.644 E2.34710
G1 X90.180 Y89.644 E2.37971
G1 X90.180 Y86.422 E2.52917
G1 X89.288 Y86.422 E2.57059
G1 X89.288 Y89.644 E2.72005
G1 X88.395 Y89.644 E2.76147
G1 X88.395 Y86.422 E2.91093
G1 X87.502 Y86.422 E2.95235
G1 X87.502 Y89.644 E3.10181
G1 X87.317 Y89.644 E3.11041
G1 X87.317 Y91.364 E3.19021
G1 X86.923 Y91.364 E3.20847
G1 X86.923 Y86.422 E3.43773
G1 X87.502 Y86.422 E3.46459
G1 E1.46459 F2400.00000
G92 E0
G1 X91.073 Y100.241 F7800.000
G1 E2.00000 F2400.00000
G1 F1800
G1 X91.073 Y101.617 E2.06386
G1 X91.966 Y101.618 E2.10527
G1 X91.966 Y100.241 E2.16916
G1 X92.858 Y100.240 E2.21057
G1 X92.858 Y101.618 E2.27448
G1 X93.751 Y101.618 E2.31590
G1 X93.751 Y100.240 E2.37984
G1 X94.644 Y100.240 E2.42126
G1 X94.644 Y101.619 E2.48523
G1 X95.537 Y101.619 E2.52664
G1 X95.537 Y100.239 E2.59064
G1 X96.429 Y100.239 E2.63206
G1 X96.429 Y101.619 E2.69608
G1 X97.243 Y101.619 E2.73381
G1 X97.243 Y101.970 E2.75010
G1 X97.322 Y101.970 E2.75378
G1 X97.322 Y99.816 E2.85369
G1 X98.215 Y99.816 E2.89510
G1 X98.215 Y101.970 E2.99504
G1 X99.107 Y101.971 E3.03646
G1 X99.107 Y99.816 E3.13642
G1 X100.000 Y99.815 E3.17784
G1 X100.000 Y101.970 E3.27781
G1 X100.893 Y101.971 E3.31923
G1 X100.893 Y99.816 E3.41919
G1 X101.785 Y99.816 E3.46061
G1 X101.785 Y101.970 E3.56054
G1 X102.678 Y101.970 E3.60196
G1 X102.678 Y99.816 E3.70186
G1 X103.373 Y99.817 E3.73412
G1 X103.373 Y100.239 E3.75371
G1 X103.571 Y100.239 E3.76287
G1 X103.571 Y101.619 E3.82689
G1 X104.463 Y101.619 E3.86830
G1 X104.463 Y100.239 E3.93231
G1 X105.356 Y100.240 E3.97372
G1 X105.356 Y101.619 E4.03769
G1 X106.249 Y101.618 E4.07911
G1 X106.249 Y100.240 E4.14305
G1 X107.142 Y100.240 E4.18446
G1 X107.142 Y101.618 E4.24838
G1 X108.034 Y101.618 E4.28979
G1 X108.034 Y100.241 E4.35368
G1 X108.927 Y100.241 E4.39509
G1 X108.927 Y101.617 E4.45895
G1 Z0.450 F7800.000
G1 X108.744 Y101.245 F7800.000
G1 F3600
G1 X108.744 Y100.865 E4.47148
G1 X108.525 Y101.245 E4.48596
G1 X108.744 Y101.245 E4.49320
G1 E2.49320 F2400.00000
G92 E0
G1 X103.597 Y99.594 F7800.000
G1 E2.00000 F2400.00000
G1 F3600
G1 X96.403 Y99.594 E2.23750
G1 X96.403 Y100.016 E2.25144
G1 X90.660 Y100.018 E2.44107
G1 X90.660 Y101.841 E2.50126
G1 X97.019 Y101.842 E2.71122
G1 X97.019 Y102.193 E2.72281
G1 X99.359 Y102.194 E2.80006
G1 X102.981 Y102.193 E2.91964
G1 X102.981 Y101.842 E2.93123
G1 X109.340 Y101.841 E3.14120
G1 X109.340 Y100.018 E3.20138
G1 X103.597 Y100.016 E3.39101
G1 X103.597 Y99.594 E3.40496
G1 X103.001 Y100.189 F7800.000
G1 F3600
G1 X99.100 Y100.188 E3.53377
G1 X98.286 Y101.598 E3.58751
G1 X102.385 Y101.598 E3.72285
G1 X102.385 Y101.246 E3.73446
G1 X103.777 Y101.247 E3.78042
G1 X103.410 Y100.611 E3.80464
G1 X103.001 Y100.611 E3.81816
G1 X103.001 Y100.189 E3.83210
G1 E1.83210 F2400.00000
G92 E0
G1 X93.741 Y101.246 F7800.000
G1 E2.00000 F2400.00000
G1 F3600
G1 X93.375 Y100.613 E2.02414
G1 X91.256 Y100.613 E2.09413
G1 X91.256 Y101.245 E2.11499
G1 X93.741 Y101.246 E2.19704
G1 E0.19704 F2400.00000
G92 E0
G1 X88.760 Y88.259 F7800.000
G1 E2.00000 F2400.00000
G1 F3600
G1 X88.760 Y86.199 E2.06802
G1 X86.700 Y86.199 E2.13603
G1 X86.700 Y88.259 E2.20405
G1 X88.760 Y88.259 E2.27206
G1 X98.760 Y88.259 F7800.000
G1 F3600
G1 X98.760 Y86.199 E2.34008
G1 X96.700 Y86.199 E2.40809
G1 X96.700 Y88.259 E2.47611
G1 X98.760 Y88.259 E2.54413
G1 X108.760 Y88.259 F7800.000
G1 F3600
G1 X108.760 Y86.199 E2.61214
G1 X106.700 Y86.199 E2.68016
G1 X106.700 Y88.259 E2.74817
G1 X108.760 Y88.259 E2.81619
G1 E0.81619 F2400.00000
G92 E0
G1 X113.300 Y91.587 F7800.000
G1 E2.00000 F2400.00000
G1 F3600
G1 X113.300 Y86.199 E2.17790
G1 X112.950 Y86.199 E2.18946
G1 X112.950 Y91.587 E2.36736
G1 X113.300 Y91.587 E2.37891
G1 Z0.450 F7800.000
G1 E0.37891 F2400.00000
G92 E0
G1 X89.323 Y94.604 F7800.000
G1 E2.00000 F2400.00000
G1 F900
G1 X89.323 Y111.750 E2.73719
G1 X88.877 Y111.750 E2.75636
G1 X88.877 Y94.604 E3.49355
G1 X89.263 Y94.604 E3.51014
G1 E1.51014 F2400.00000
G92 E0
G1 X110.677 Y104.850 F7800.000
G1 E2.00000 F2400.00000
G1 F900
G1 X111.123 Y104.847 E2.01917
G1 X111.123 Y111.750 E2.31595
G1 X110.677 Y111.750 E2.33512
G1 X110.677 Y104.910 E2.62921
G1 E0.62921 F2400.00000
G92 E0
G1 X110.677 Y101.502 F7800.000
G1 E2.00000 F2400.00000
G1 F900
G1 X110.677 Y94.604 E2.29658
G1 X111.123 Y94.604 E2.31575
G1 X111.123 Y101.504 E2.61240
G1 X110.737 Y101.503 E2.62899
G1 X110.220 Y95.307 F7800.000
G1 F1650
G1 X89.780 Y95.307 E3.30386
G1 X89.780 Y111.047 E3.82356
G1 X110.220 Y111.047 E4.49843
G1 X110.220 Y104.396 E4.71804
G1 X111.103 Y104.390 E4.74720
G1 X111.275 Y104.322 E4.75329
G1 X111.580 Y104.051 E4.76679
G1 X111.580 Y112.207 E5.03609
G1 X88.420 Y112.207 E5.80077
G1 X88.420 Y94.147 E6.39706
G1 X111.580 Y94.147 E7.16174
G1 X111.580 Y102.293 E7.43071
G1 X111.251 Y102.018 E7.44487
G1 X111.079 Y101.961 E7.45086
G1 X110.220 Y101.958 E7.47923
G1 X110.220 Y95.367 E7.69684
G1 X110.203 Y94.908 F7800.000
G1 X111.550 Y102.555 F7800.000
G1 F1650
G1 X111.550 Y103.783 E7.74349
G1 X110.449 Y111.627 F7800.000
G1 F1200
G1 X89.551 Y111.627 E8.89031
G1 X89.551 Y94.727 F7800.000
G1 F1200
G1 X110.449 Y94.727 E10.03713
G1 Z0.650 F7800.000
G1 X89.323 Y94.604 F7800.000
G1 F900
G1 X89.323 Y111.750 E10.77433
G1 X88.877 Y111.750 E10.79349
G1 X88.877 Y94.604 E11.53069
G1 X89.263 Y94.604 E11.54728
G1 E9.54728 F2400.00000
G92 E0
G1 X110.677 Y104.850 F7800.000
G1 E2.00000 F2400.00000
G1 F900
G1 X111.123 Y104.846 E2.01917
G1 X111.123 Y111.750 E2.31600
G1 X110.677 Y111.750 E2.33517
G1 X110.677 Y104.910 E2.62928
G1 E0.62928 F2400.00000
G92 E0
G1 X110.677 Y101.502 F7800.000
G1 E2.00000 F2400.00000
G1 F900
G1 X110.677 Y94.604 E2.29657
G1 X111.123 Y94.604 E2.31574
G1 X111.123 Y101.503 E2.61235
G1 X110.737 Y101.502 E2.62894
G1 X110.220 Y95.307 F7800.000
G1 F1650
G1 X89.780 Y95.307 E3.30382
G1 X89.780 Y111.047 E3.82351
G1 X110.220 Y111.047 E4.49838
G1 X110.220 Y104.396 E4.71800
G1 X111.110 Y104.389 E4.74739
G1 X111.282 Y104.318 E4.75353
G1 X111.580 Y104.044 E4.76691
G1 X111.580 Y112.207 E5.03644
G1 X88.420 Y112.207 E5.80112
G1 X88.420 Y94.147 E6.39742
G1 X111.580 Y94.147 E7.16210
G1 X111.580 Y102.295 E7.43111
G1 X111.246 Y102.014 E7.44552
G1 X111.073 Y101.960 E7.45151
G1 X110.220 Y101.958 E7.47966
G1 X110.220 Y95.367 E7.69726
G1 X110.203 Y94.908 F7800.000
G1 X111.550 Y102.557 F7800.000
G1 F1650
G1 X111.550 Y103.772 E7.74346
G1 X110.449 Y111.627 F7800.000
G1 F1200
G1 X89.551 Y111.627 E8.89028
G1 X89.551 Y94.727 F7800.000
G1 F1200
G1 X110.449 Y94.727 E10.03710
G1 Z0.750 F7800.000
G1 E8.03710 F2400.00000
G92 E0
G1 X113.300 Y91.587 F7800.000
G1 E2.00000 F2400.00000
G1 F3600
G1 X113.300 Y86.199 E2.25243
G1 X112.950 Y86.199 E2.26882
G1 X112.950 Y91.587 E2.52125
G1 X113.300 Y91.587 E2.53765
G1 E0.53765 F2400.00000
G92 E0
G1 X108.760 Y88.259 F7800.000
G1 E2.00000 F2400.00000
G1 F3600
G1 X108.760 Y86.199 E2.09651
G1 X106.700 Y86.199 E2.19302
G1 X106.700 Y88.259 E2.28953
G1 X108.760 Y88.259 E2.38604
G1 X98.760 Y88.259 F7800.000
G1 F3600
G1 X98.760 Y86.199 E2.48255
G1 X96.700 Y86.199 E2.57906
G1 X96.700 Y88.259 E2.67557
G1 X98.760 Y88.259 E2.77208
G1 X88.760 Y88.259 F7800.000
G1 F3600
G1 X88.760 Y86.199 E2.86859
G1 X86.700 Y86.199 E2.96510
G1 X86.700 Y88.259 E3.06161
G1 X88.760 Y88.259 E3.15812
G1 E1.15812 F2400.00000
G92 E0
G1 X93.753 Y101.267 F7800.000
G1 E2.00000 F2400.00000
G1 F3600
G1 X93.363 Y100.591 E2.03658
G1 X91.234 Y100.592 E2.13631
G1 X91.234 Y101.267 E2.16791
G1 X93.753 Y101.267 E2.28594
G1 E0.28594 F2400.00000
G92 E0
G1 X103.022 Y100.168 F7800.000
G1 E2.00000 F2400.00000
G1 F3600
G1 X99.112 Y100.167 E2.18320
G1 X98.273 Y101.619 E2.26177
G1 X102.406 Y101.619 E2.45541
G1 X102.407 Y101.268 E2.47187
G1 X103.790 Y101.268 E2.53666
G1 X103.398 Y100.590 E2.57335
G1 X103.022 Y100.590 E2.59095
G1 X103.022 Y100.168 E2.61073
G1 X103.597 Y99.594 F7800.000
G1 F3600
G1 X96.403 Y99.594 E2.94772
G1 X96.403 Y100.016 E2.96751
G1 X90.660 Y100.018 E3.23658
G1 X90.660 Y101.841 E3.32198
G1 X97.019 Y101.842 E3.61991
G1 X97.019 Y102.193 E3.63635
G1 X99.359 Y102.194 E3.74596
G1 X102.981 Y102.193 E3.91564
G1 X102.981 Y101.842 E3.93208
G1 X109.340 Y101.841 E4.23001
G1 X109.340 Y100.018 E4.31541
G1 X103.597 Y100.016 E4.58449
G1 X103.597 Y99.594 E4.60427
G1 E2.60427 F2400.00000
G92 E0
G1 X108.766 Y101.267 F7800.000
G1 E2.00000 F2400.00000
G1 F3600
G1 X108.766 Y100.828 E2.02053
G1 X108.513 Y101.267 E2.04425
G1 X108.766 Y101.267 E2.05610
M106 S226.95
G1 Z0.850 F7800.000
G1 E0.05610 F2400.00000
G92 E0
G1 X89.323 Y94.604 F7800.000
G1 E2.00000 F2400.00000
G1 F900
G1 X89.323 Y111.750 E2.73719
G1 X88.877 Y111.750 E2.75636
G1 X88.877 Y94.604 E3.49355
G1 X89.263 Y94.604 E3.51014
G1 E1.51014 F2400.00000
G92 E0
G1 X110.677 Y104.849 F7800.000
G1 E2.00000 F2400.00000
G1 F900
G1 X111.123 Y104.845 E2.01917
G1 X111.123 Y111.750 E2.31605
G1 X110.677 Y111.750 E2.33521
G1 X110.677 Y104.909 E2.62936
G1 E0.62936 F2400.00000
G92 E0
G1 X110.677 Y101.502 F7800.000
G1 E2.00000 F2400.00000
G1 F900
G1 X110.677 Y94.604 E2.29655
G1 X111.123 Y94.604 E2.31572
G1 X111.123 Y101.502 E2.61231
G1 X110.737 Y101.502 E2.62890
G1 X110.220 Y95.307 F7800.000
G1 F1650
G1 X89.780 Y95.307 E3.30377
G1 X89.780 Y111.047 E3.82346
G1 X110.220 Y111.047 E4.49834
G1 X110.220 Y104.395 E4.71796
G1 X111.117 Y104.388 E4.74757
G1 X111.289 Y104.313 E4.75378
G1 X111.580 Y104.037 E4.76703
G1 X111.580 Y112.207 E5.03679
G1 X88.420 Y112.207 E5.80148
G1 X88.420 Y94.147 E6.39777
G1 X111.580 Y94.147 E7.16245
G1 X111.580 Y102.296 E7.43151
G1 X111.240 Y102.011 E7.44617
G1 X111.066 Y101.959 E7.45217
G1 X110.220 Y101.958 E7.48009
G1 X110.220 Y95.367 E7.69769
G1 X110.203 Y94.908 F7800.000
G1 X111.550 Y102.558 F7800.000
G1 F1650
G1 X111.550 Y103.762 E7.74342
G1 X110.449 Y111.627 F7800.000
G1 F1200
G1 X89.551 Y111.627 E8.89024
G1 X89.551 Y94.727 F7800.000
G1 F1200
G1 X110.449 Y94.727 E10.03707
G1 Z1.050 F7800.000
G1 E8.03707 F2400.00000
G92 E0
G1 X113.300 Y91.587 F7800.000
G1 E2.00000 F2400.00000
G1 F3600
G1 X113.300 Y86.199 E2.25243
G1 X112.950 Y86.199 E2.26882
G1 X112.950 Y91.587 E2.52125
G1 X113.300 Y91.587 E2.53765
G1 E0.53765 F2400.00000
G92 E0
G1 X108.760 Y88.259 F7800.000
G1 E2.00000 F2400.00000
G1 F3600
G1 X108.760 Y86.199 E2.09651
G1 X106.700 Y86.199 E2.19302
G1 X106.700 Y88.259 E2.28953
G1 X108.760 Y88.259 E2.38604
G1 X98.760 Y88.259 F7800.000
G1 F3600
G1 X98.760 Y86.199 E2.48255
G1 X96.700 Y86.199 E2.57906
G1 X96.700 Y88.259 E2.67557
G1 X98.760 Y88.259 E2.77208
G1 X88.760 Y88.259 F7800.000
G1 F3600
G1 X88.760 Y86.199 E2.86859
G1 X86.700 Y86.199 E2.96510
G1 X86.700 Y88.259 E3.06161
G1 X88.760 Y88.259 E3.15812
G1 E1.15812 F2400.00000
G92 E0
G1 X93.753 Y101.267 F7800.000
G1 E2.00000 F2400.00000
G1 F3600
G1 X93.363 Y100.591 E2.03658
G1 X91.234 Y100.592 E2.13631
G1 X91.234 Y101.267 E2.16791
G1 X93.753 Y101.267 E2.28594
G1 E0.28594 F2400.00000
G92 E0
G1 X103.022 Y100.168 F7800.000
G1 E2.00000 F2400.00000
G1 F3600
G1 X99.112 Y100.167 E2.18320
G1 X98.273 Y101.619 E2.26177
G1 X102.406 Y101.619 E2.45541
G1 X102.407 Y101.268 E2.47187
G1 X103.790 Y101.268 E2.53666
G1 X103.398 Y100.590 E2.57335
G1 X103.022 Y100.590 E2.59095
G1 X103.022 Y100.168 E2.61073
G1 X103.597 Y99.594 F7800.000
G1 F3600
G1 X96.403 Y99.594 E2.94772
G1 X96.403 Y100.016 E2.96751
G1 X90.660 Y100.018 E3.23658
G1 X90.660 Y101.841 E3.32198
G1 X97.019 Y101.842 E3.61991
G1 X97.019 Y102.193 E3.63635
G1 X99.359 Y102.194 E3.74596
G1 X102.981 Y102.193 E3.91564
G1 X102.981 Y101.842 E3.93208
G1 X109.340 Y101.841 E4.23001
