; generated by Slic3r 1.3.0 on 2019-01-04 at 19:47:35

; external perimeters extrusion width = 0.55mm (4.37mm^3/s)
; perimeters extrusion width = 0.70mm (11.44mm^3/s)
; infill extrusion width = 0.62mm (13.45mm^3/s)
; solid infill extrusion width = 0.70mm (3.81mm^3/s)
; top infill extrusion width = 0.70mm (2.86mm^3/s)

M107
M104 S200 ; set temperature
G28 ; home all axes
G1 Z5 F5000 ; lift nozzle

; Filament gcode

M109 S200 ; set temperature and wait for it to be reached
G21 ; set units to millimeters
G90 ; use absolute coordinates
M82 ; use absolute distances for extrusion
G92 E0
G1 Z0.350 F7800.000
G1 E-2.00000 F2400.00000
G92 E0
G1 X44.860 Y91.122 F7800.000
G1 E2.00000 F2400.00000
G1 F1800
G1 X47.012 Y90.330 E2.07096
G1 X48.192 Y90.224 E2.10761
G1 X153.263 Y90.224 E5.35864
G1 X155.522 Y90.621 E5.42960
G1 X157.510 Y91.764 E5.50056
G1 X158.989 Y93.517 E5.57153
G1 X159.782 Y95.669 E5.64249
G1 X159.888 Y96.849 E5.67914
G1 X159.888 Y103.249 E5.87716
G1 X159.491 Y105.507 E5.94813
G1 X158.347 Y107.496 E6.01909
G1 X156.595 Y108.975 E6.09005
G1 X154.443 Y109.768 E6.16101
G1 X153.263 Y109.873 E6.19767
G1 X48.192 Y109.873 E9.44869
G1 X45.933 Y109.476 E9.51965
G1 X43.945 Y108.333 E9.59062
G1 X42.466 Y106.580 E9.66158
G1 X41.673 Y104.428 E9.73254
G1 X41.567 Y103.249 E9.76919
G1 X41.567 Y96.849 E9.96722
G1 X41.964 Y94.590 E10.03818
G1 X43.108 Y92.602 E10.10914
G1 X44.803 Y91.171 E10.17778
G1 E8.17778 F2400.00000
G92 E0
G1 X49.792 Y101.649 F7800.000
G1 E2.00000 F2400.00000
G1 F1800
G1 X49.792 Y98.448 E2.09903
G1 X151.663 Y98.448 E5.25105
G1 X151.663 Y101.649 E5.35008
G1 X49.867 Y101.649 E8.49979
G1 X49.167 Y102.274 F7800.000
G1 F1800
G1 X49.167 Y97.823 E8.63748
G1 X152.288 Y97.823 E11.82818
G1 X152.288 Y102.274 E11.96588
G1 X49.242 Y102.274 E15.15425
G1 X48.542 Y102.899 F7800.000
G1 F1800
G1 X48.542 Y97.199 E15.33062
G1 X152.913 Y97.199 E18.55999
G1 X152.913 Y102.899 E18.73635
G1 X48.617 Y102.899 E21.96340
G1 X48.784 Y102.461 F7800.000
G1 E19.96340 F2400.00000
G92 E0
G1 X50.660 Y98.830 F7800.000
G1 E2.00000 F2400.00000
G1 F1800
G1 X50.174 Y99.316 E2.02129
G1 X50.174 Y100.201 E2.04866
G1 X51.544 Y98.830 E2.10867
G1 X52.428 Y98.830 E2.13604
G1 X50.174 Y101.085 E2.23476
G1 X50.174 Y101.267 E2.24040
G1 X50.876 Y101.267 E2.26214
G1 X53.313 Y98.830 E2.36882
G1 X54.197 Y98.830 E2.39620
G1 X51.760 Y101.267 E2.50289
G1 X52.644 Y101.267 E2.53026
G1 X55.081 Y98.830 E2.63695
G1 X55.965 Y98.830 E2.66433
G1 X53.529 Y101.267 E2.77102
G1 X54.413 Y101.267 E2.79839
G1 X56.850 Y98.830 E2.90508
G1 X57.734 Y98.830 E2.93246
G1 X55.297 Y101.267 E3.03914
G1 X56.181 Y101.267 E3.06652
G1 X58.618 Y98.830 E3.17321
G1 X59.502 Y98.830 E3.20058
G1 X57.066 Y101.267 E3.30727
G1 X57.950 Y101.267 E3.33465
G1 X60.387 Y98.830 E3.44134
G1 X61.271 Y98.830 E3.46871
G1 X58.834 Y101.267 E3.57540
G1 X59.718 Y101.267 E3.60278
G1 X62.155 Y98.830 E3.70946
G1 X63.039 Y98.830 E3.73684
G1 X60.603 Y101.267 E3.84353
G1 X61.487 Y101.267 E3.87090
G1 X63.924 Y98.830 E3.97759
G1 X64.808 Y98.830 E4.00497
G1 X62.371 Y101.267 E4.11166
G1 X63.255 Y101.267 E4.13903
G1 X65.692 Y98.830 E4.24572
G1 X66.576 Y98.830 E4.27310
G1 X64.140 Y101.267 E4.37979
G1 X65.024 Y101.267 E4.40716
G1 X67.461 Y98.830 E4.51385
G1 X68.345 Y98.830 E4.54123
G1 X65.908 Y101.267 E4.64791
G1 X66.792 Y101.267 E4.67529
G1 X69.229 Y98.830 E4.78198
G1 X70.113 Y98.830 E4.80935
G1 X67.677 Y101.267 E4.91604
G1 X68.561 Y101.267 E4.94342
G1 X70.998 Y98.830 E5.05011
G1 X71.882 Y98.830 E5.07748
G1 X69.445 Y101.267 E5.18417
G1 X70.329 Y101.267 E5.21155
G1 X72.766 Y98.830 E5.31823
G1 X73.650 Y98.830 E5.34561
G1 X71.213 Y101.267 E5.45230
G1 X72.098 Y101.267 E5.47967
G1 X74.534 Y98.830 E5.58636
G1 X75.419 Y98.830 E5.61374
G1 X72.982 Y101.267 E5.72043
G1 X73.866 Y101.267 E5.74780
G1 X76.303 Y98.830 E5.85449
G1 X77.187 Y98.830 E5.88187
G1 X74.750 Y101.267 E5.98856
G1 X75.635 Y101.267 E6.01593
G1 X78.071 Y98.830 E6.12262
G1 X78.956 Y98.830 E6.14999
G1 X76.519 Y101.267 E6.25668
G1 X77.403 Y101.267 E6.28406
G1 X79.840 Y98.830 E6.39075
G1 X80.724 Y98.830 E6.41812
G1 X78.287 Y101.267 E6.52481
G1 X79.172 Y101.267 E6.55219
G1 X81.608 Y98.830 E6.65888
G1 X82.493 Y98.830 E6.68625
G1 X80.056 Y101.267 E6.79294
G1 X80.940 Y101.267 E6.82032
G1 X83.377 Y98.830 E6.92700
G1 X84.261 Y98.830 E6.95438
G1 X81.824 Y101.267 E7.06107
G1 X82.709 Y101.267 E7.08844
G1 X85.145 Y98.830 E7.19513
G1 X86.030 Y98.830 E7.22251
G1 X83.593 Y101.267 E7.32920
G1 X84.477 Y101.267 E7.35657
G1 X86.914 Y98.830 E7.46326
G1 X87.798 Y98.830 E7.49064
G1 X85.361 Y101.267 E7.59732
G1 X86.246 Y101.267 E7.62470
G1 X88.682 Y98.830 E7.73139
G1 X89.567 Y98.830 E7.75876
G1 X87.130 Y101.267 E7.86545
G1 X88.014 Y101.267 E7.89283
G1 X90.451 Y98.830 E7.99952
G1 X91.335 Y98.830 E8.02689
G1 X88.898 Y101.267 E8.13358
G1 X89.783 Y101.267 E8.16096
G1 X92.219 Y98.830 E8.26764
G1 X93.104 Y98.830 E8.29502
G1 X90.667 Y101.267 E8.40171
G1 X91.551 Y101.267 E8.42908
G1 X93.988 Y98.830 E8.53577
G1 X94.872 Y98.830 E8.56315
G1 X92.435 Y101.267 E8.66984
G1 X93.319 Y101.267 E8.69721
G1 X95.756 Y98.830 E8.80390
G1 X96.640 Y98.830 E8.83128
G1 X94.204 Y101.267 E8.93796
G1 X95.088 Y101.267 E8.96534
G1 X97.525 Y98.830 E9.07203
G1 X98.409 Y98.830 E9.09940
G1 X95.972 Y101.267 E9.20609
G1 X96.856 Y101.267 E9.23347
G1 X99.293 Y98.830 E9.34016
G1 X100.177 Y98.830 E9.36753
G1 X97.741 Y101.267 E9.47422
G1 X98.625 Y101.267 E9.50160
G1 X101.062 Y98.830 E9.60829
G1 X101.946 Y98.830 E9.63566
G1 X99.509 Y101.267 E9.74235
G1 X100.393 Y101.267 E9.76972
G1 X102.830 Y98.830 E9.87641
G1 X103.714 Y98.830 E9.90379
G1 X101.278 Y101.267 E10.01048
G1 X102.162 Y101.267 E10.03785
G1 X104.599 Y98.830 E10.14454
G1 X105.483 Y98.830 E10.17192
G1 X103.046 Y101.267 E10.27861
G1 X103.930 Y101.267 E10.30598
G1 X106.367 Y98.830 E10.41267
G1 X107.251 Y98.830 E10.44005
G1 X104.815 Y101.267 E10.54673
G1 X105.699 Y101.267 E10.57411
G1 X108.136 Y98.830 E10.68080
G1 X109.020 Y98.830 E10.70817
G1 X106.583 Y101.267 E10.81486
G1 X107.467 Y101.267 E10.84224
G1 X109.904 Y98.830 E10.94893
G1 X110.788 Y98.830 E10.97630
G1 X108.352 Y101.267 E11.08299
G1 X109.236 Y101.267 E11.11037
G1 X111.673 Y98.830 E11.21705
G1 X112.557 Y98.830 E11.24443
G1 X110.120 Y101.267 E11.35112
G1 X111.004 Y101.267 E11.37849
G1 X113.441 Y98.830 E11.48518
G1 X114.325 Y98.830 E11.51256
G1 X111.889 Y101.267 E11.61925
G1 X112.773 Y101.267 E11.64662
G1 X115.210 Y98.830 E11.75331
G1 X116.094 Y98.830 E11.78069
G1 X113.657 Y101.267 E11.88737
G1 X114.541 Y101.267 E11.91475
G1 X116.978 Y98.830 E12.02144
G1 X117.862 Y98.830 E12.04881
G1 X115.425 Y101.267 E12.15550
G1 X116.310 Y101.267 E12.18288
G1 X118.746 Y98.830 E12.28957
G1 X119.631 Y98.830 E12.31694
G1 X117.194 Y101.267 E12.42363
G1 X118.078 Y101.267 E12.45101
G1 X120.515 Y98.830 E12.55770
G1 X121.399 Y98.830 E12.58507
G1 X118.962 Y101.267 E12.69176
G1 X119.847 Y101.267 E12.71913
G1 X122.283 Y98.830 E12.82582
G1 X123.168 Y98.830 E12.85320
G1 X120.731 Y101.267 E12.95989
G1 X121.615 Y101.267 E12.98726
G1 X124.052 Y98.830 E13.09395
G1 X124.936 Y98.830 E13.12133
G1 X122.499 Y101.267 E13.22802
G1 X123.384 Y101.267 E13.25539
G1 X125.820 Y98.830 E13.36208
G1 X126.705 Y98.830 E13.38946
G1 X124.268 Y101.267 E13.49614
G1 X125.152 Y101.267 E13.52352
G1 X127.589 Y98.830 E13.63021
G1 X128.473 Y98.830 E13.65758
G1 X126.036 Y101.267 E13.76427
G1 X126.921 Y101.267 E13.79165
G1 X129.357 Y98.830 E13.89834
G1 X130.242 Y98.830 E13.92571
G1 X127.805 Y101.267 E14.03240
G1 X128.689 Y101.267 E14.05978
G1 X131.126 Y98.830 E14.16646
G1 X132.010 Y98.830 E14.19384
G1 X129.573 Y101.267 E14.30053
G1 X130.458 Y101.267 E14.32790
G1 X132.894 Y98.830 E14.43459
G1 X133.779 Y98.830 E14.46197
G1 X131.342 Y101.267 E14.56866
G1 X132.226 Y101.267 E14.59603
G1 X134.663 Y98.830 E14.70272
G1 X135.547 Y98.830 E14.73010
G1 X133.110 Y101.267 E14.83678
G1 X133.995 Y101.267 E14.86416
G1 X136.431 Y98.830 E14.97085
G1 X137.316 Y98.830 E14.99822
G1 X134.879 Y101.267 E15.10491
G1 X135.763 Y101.267 E15.13229
G1 X138.200 Y98.830 E15.23898
G1 X139.084 Y98.830 E15.26635
G1 X136.647 Y101.267 E15.37304
G1 X137.531 Y101.267 E15.40042
G1 X139.968 Y98.830 E15.50711
G1 X140.852 Y98.830 E15.53448
G1 X138.416 Y101.267 E15.64117
G1 X139.300 Y101.267 E15.66854
G1 X141.737 Y98.830 E15.77523
G1 X142.621 Y98.830 E15.80261
G1 X140.184 Y101.267 E15.90930
G1 X141.068 Y101.267 E15.93667
G1 X143.505 Y98.830 E16.04336
G1 X144.389 Y98.830 E16.07074
G1 X141.953 Y101.267 E16.17743
G1 X142.837 Y101.267 E16.20480
G1 X145.274 Y98.830 E16.31149
G1 X146.158 Y98.830 E16.33886
G1 X143.721 Y101.267 E16.44555
G1 X144.605 Y101.267 E16.47293
G1 X147.042 Y98.830 E16.57962
G1 X147.926 Y98.830 E16.60699
G1 X145.490 Y101.267 E16.71368
G1 X146.374 Y101.267 E16.74106
G1 X148.811 Y98.830 E16.84775
G1 X149.695 Y98.830 E16.87512
G1 X147.258 Y101.267 E16.98181
G1 X148.142 Y101.267 E17.00919
G1 X150.579 Y98.830 E17.11587
G1 X151.281 Y98.830 E17.13761
G1 X151.281 Y99.012 E17.14325
G1 X149.027 Y101.267 E17.24197
G1 X149.911 Y101.267 E17.26934
G1 X151.281 Y99.897 E17.32934
G1 X151.281 Y100.781 E17.35672
G1 X150.795 Y101.267 E17.37801
G1 Z0.650 F7800.000
G1 X49.663 Y101.777 F7800.000
G1 F3600
G1 X49.663 Y98.320 E17.47128
G1 X151.792 Y98.320 E20.22634
G1 X151.792 Y101.777 E20.31961
G1 X49.738 Y101.777 E23.07266
G1 X49.028 Y102.413 F7800.000
G1 F3600
G1 X49.028 Y97.684 E23.20022
G1 X152.427 Y97.684 E25.98958
G1 X152.427 Y102.413 E26.11715
G1 X49.103 Y102.413 E28.90448
G1 X48.467 Y102.974 F7800.000
G1 F1800
G1 X48.467 Y97.124 E29.02505
G1 X152.988 Y97.124 E31.17926
G1 X152.988 Y102.974 E31.29983
G1 X48.542 Y102.974 E33.45249
G1 X48.709 Y102.536 F7800.000
G1 X50.052 Y100.894 F7800.000
G1 F1200
G1 X50.546 Y101.389 E33.47147
G1 X51.450 Y101.389 E33.49599
G1 X50.052 Y99.990 E33.54964
G1 X50.052 Y99.087 E33.57416
G1 X52.354 Y101.389 E33.66248
G1 X53.258 Y101.389 E33.68700
G1 X50.577 Y98.708 E33.78984
G1 X51.481 Y98.708 E33.81436
G1 X54.162 Y101.389 E33.91720
G1 X55.066 Y101.389 E33.94171
G1 X52.385 Y98.708 E34.04455
G1 X53.289 Y98.708 E34.06907
G1 X55.970 Y101.389 E34.17191
G1 X56.874 Y101.389 E34.19643
G1 X54.193 Y98.708 E34.29927
G1 X55.097 Y98.708 E34.32379
G1 X57.778 Y101.389 E34.42662
G1 X58.681 Y101.389 E34.45114
G1 X56.001 Y98.708 E34.55398
G1 X56.905 Y98.708 E34.57850
G1 X59.585 Y101.389 E34.68134
G1 X60.489 Y101.389 E34.70586
G1 X57.808 Y98.708 E34.80870
G1 X58.712 Y98.708 E34.83321
G1 X61.393 Y101.389 E34.93605
G1 X62.297 Y101.389 E34.96057
G1 X59.616 Y98.708 E35.06341
G1 X60.520 Y98.708 E35.08793
G1 X63.201 Y101.389 E35.19077
G1 X64.105 Y101.389 E35.21529
G1 X61.424 Y98.708 E35.31812
G1 X62.328 Y98.708 E35.34264
G1 X65.009 Y101.389 E35.44548
G1 X65.912 Y101.389 E35.47000
G1 X63.232 Y98.708 E35.57284
G1 X64.136 Y98.708 E35.59736
G1 X66.816 Y101.389 E35.70020
G1 X67.720 Y101.389 E35.72471
G1 X65.040 Y98.708 E35.82755
G1 X65.943 Y98.708 E35.85207
G1 X68.624 Y101.389 E35.95491
G1 X69.528 Y101.389 E35.97943
G1 X66.847 Y98.708 E36.08227
G1 X67.751 Y98.708 E36.10679
G1 X70.432 Y101.389 E36.20962
G1 X71.336 Y101.389 E36.23414
G1 X68.655 Y98.708 E36.33698
G1 X69.559 Y98.708 E36.36150
G1 X72.240 Y101.389 E36.46434
G1 X73.144 Y101.389 E36.48886
G1 X70.463 Y98.708 E36.59170
G1 X71.367 Y98.708 E36.61621
G1 X74.047 Y101.389 E36.71905
G1 X74.951 Y101.389 E36.74357
G1 X72.271 Y98.708 E36.84641
G1 X73.175 Y98.708 E36.87093
G1 X75.855 Y101.389 E36.97377
G1 X76.759 Y101.389 E36.99829
G1 X74.078 Y98.708 E37.10112
G1 X74.982 Y98.708 E37.12564
G1 X77.663 Y101.389 E37.22848
G1 X78.567 Y101.389 E37.25300
G1 X75.886 Y98.708 E37.35584
G1 X76.790 Y98.708 E37.38036
G1 X79.471 Y101.389 E37.48320
G1 X80.375 Y101.389 E37.50771
G1 X77.694 Y98.708 E37.61055
G1 X78.598 Y98.708 E37.63507
G1 X81.279 Y101.389 E37.73791
G1 X82.182 Y101.389 E37.76243
G1 X79.502 Y98.708 E37.86527
G1 X80.406 Y98.708 E37.88979
G1 X83.086 Y101.389 E37.99262
G1 X83.990 Y101.389 E38.01714
G1 X81.309 Y98.708 E38.11998
G1 X82.213 Y98.708 E38.14450
G1 X84.894 Y101.389 E38.24734
G1 X85.798 Y101.389 E38.27186
G1 X83.117 Y98.708 E38.37470
G1 X84.021 Y98.708 E38.39921
G1 X86.702 Y101.389 E38.50205
G1 X87.606 Y101.389 E38.52657
G1 X84.925 Y98.708 E38.62941
G1 X85.829 Y98.708 E38.65393
G1 X88.510 Y101.389 E38.75677
G1 X89.414 Y101.389 E38.78129
G1 X86.733 Y98.708 E38.88412
G1 X87.637 Y98.708 E38.90864
G1 X90.317 Y101.389 E39.01148
G1 X91.221 Y101.389 E39.03600
G1 X88.541 Y98.708 E39.13884
G1 X89.444 Y98.708 E39.16336
G1 X92.125 Y101.389 E39.26620
G1 X93.029 Y101.389 E39.29072
G1 X90.348 Y98.708 E39.39355
G1 X91.252 Y98.708 E39.41807
G1 X93.933 Y101.389 E39.52091
G1 X94.837 Y101.389 E39.54543
G1 X92.156 Y98.708 E39.64827
G1 X93.060 Y98.708 E39.67279
G1 X95.741 Y101.389 E39.77563
G1 X96.645 Y101.389 E39.80014
G1 X93.964 Y98.708 E39.90298
G1 X94.868 Y98.708 E39.92750
G1 X97.549 Y101.389 E40.03034
G1 X98.452 Y101.389 E40.05486
G1 X95.772 Y98.708 E40.15770
G1 X96.676 Y98.708 E40.18222
G1 X99.356 Y101.389 E40.28505
G1 X100.260 Y101.389 E40.30957
G1 X97.579 Y98.708 E40.41241
G1 X98.483 Y98.708 E40.43693
G1 X101.164 Y101.389 E40.53977
G1 X102.068 Y101.389 E40.56429
G1 X99.387 Y98.708 E40.66713
G1 X100.291 Y98.708 E40.69164
G1 X102.972 Y101.389 E40.79448
G1 X103.876 Y101.389 E40.81900
G1 X101.195 Y98.708 E40.92184
G1 X102.099 Y98.708 E40.94636
G1 X104.780 Y101.389 E41.04920
G1 X105.683 Y101.389 E41.07372
G1 X103.003 Y98.708 E41.17655
G1 X103.907 Y98.708 E41.20107
G1 X106.587 Y101.389 E41.30391
G1 X107.491 Y101.389 E41.32843
G1 X104.811 Y98.708 E41.43127
G1 X105.714 Y98.708 E41.45579
G1 X108.395 Y101.389 E41.55863
G1 X109.299 Y101.389 E41.58315
G1 X106.618 Y98.708 E41.68598
G1 X107.522 Y98.708 E41.71050
G1 X110.203 Y101.389 E41.81334
G1 X111.107 Y101.389 E41.83786
G1 X108.426 Y98.708 E41.94070
G1 X109.330 Y98.708 E41.96522
G1 X112.011 Y101.389 E42.06806
G1 X112.915 Y101.389 E42.09257
G1 X110.234 Y98.708 E42.19541
G1 X111.138 Y98.708 E42.21993
G1 X113.818 Y101.389 E42.32277
G1 X114.722 Y101.389 E42.34729
G1 X112.042 Y98.708 E42.45013
G1 X112.946 Y98.708 E42.47465
G1 X115.626 Y101.389 E42.57748
G1 X116.530 Y101.389 E42.60200
G1 X113.849 Y98.708 E42.70484
G1 X114.753 Y98.708 E42.72936
G1 X117.434 Y101.389 E42.83220
G1 X118.338 Y101.389 E42.85672
G1 X115.657 Y98.708 E42.95956
G1 X116.561 Y98.708 E42.98408
G1 X119.242 Y101.389 E43.08691
G1 X120.146 Y101.389 E43.11143
G1 X117.465 Y98.708 E43.21427
G1 X118.369 Y98.708 E43.23879
G1 X121.050 Y101.389 E43.34163
G1 X121.953 Y101.389 E43.36615
G1 X119.273 Y98.708 E43.46899
G1 X120.177 Y98.708 E43.49350
G1 X122.857 Y101.389 E43.59634
G1 X123.761 Y101.389 E43.62086
G1 X121.080 Y98.708 E43.72370
G1 X121.984 Y98.708 E43.74822
G1 X124.665 Y101.389 E43.85106
G1 X125.569 Y101.389 E43.87558
G1 X122.888 Y98.708 E43.97841
G1 X123.792 Y98.708 E44.00293
G1 X126.473 Y101.389 E44.10577
G1 X127.377 Y101.389 E44.13029
G1 X124.696 Y98.708 E44.23313
G1 X125.600 Y98.708 E44.25765
G1 X128.281 Y101.389 E44.36049
G1 X129.185 Y101.389 E44.38501
G1 X126.504 Y98.708 E44.48784
G1 X127.408 Y98.708 E44.51236
G1 X130.088 Y101.389 E44.61520
G1 X130.992 Y101.389 E44.63972
G1 X128.312 Y98.708 E44.74256
G1 X129.215 Y98.708 E44.76708
G1 X131.896 Y101.389 E44.86992
G1 X132.800 Y101.389 E44.89443
G1 X130.119 Y98.708 E44.99727
G1 X131.023 Y98.708 E45.02179
G1 X133.704 Y101.389 E45.12463
G1 X134.608 Y101.389 E45.14915
G1 X131.927 Y98.708 E45.25199
G1 X132.831 Y98.708 E45.27651
G1 X135.512 Y101.389 E45.37935
G1 X136.416 Y101.389 E45.40386
G1 X133.735 Y98.708 E45.50670
G1 X134.639 Y98.708 E45.53122
G1 X137.319 Y101.389 E45.63406
G1 X138.223 Y101.389 E45.65858
G1 X135.543 Y98.708 E45.76142
G1 X136.447 Y98.708 E45.78594
G1 X139.127 Y101.389 E45.88877
G1 X140.031 Y101.389 E45.91329
G1 X137.350 Y98.708 E46.01613
G1 X138.254 Y98.708 E46.04065
G1 X140.935 Y101.389 E46.14349
G1 X141.839 Y101.389 E46.16801
G1 X139.158 Y98.708 E46.27085
G1 X140.062 Y98.708 E46.29536
G1 X142.743 Y101.389 E46.39820
G1 X143.647 Y101.389 E46.42272
G1 X140.966 Y98.708 E46.52556
G1 X141.870 Y98.708 E46.55008
G1 X144.551 Y101.389 E46.65292
G1 X145.454 Y101.389 E46.67744
G1 X142.774 Y98.708 E46.78028
G1 X143.678 Y98.708 E46.80479
G1 X146.358 Y101.389 E46.90763
G1 X147.262 Y101.389 E46.93215
G1 X144.582 Y98.708 E47.03499
