; generated by Slic3r 1.3.0 on 2019-04-29 at 17:22:57

; external perimeters extrusion width = 0.44mm (1.19mm^3/s)
; perimeters extrusion width = 0.56mm (3.10mm^3/s)
; infill extrusion width = 0.50mm (5.48mm^3/s)
; solid infill extrusion width = 0.56mm (3.72mm^3/s)
; top infill extrusion width = 0.56mm (1.55mm^3/s)

M107
M104 S200 ; set temperature
G28 ; home all axes
M150 B180 G210
M150 B180 G210
G92 E0
G1 E6 F1800
; Filament gcode

M109 S200 ; set temperature and wait for it to be reached
G21 ; set units to millimeters
G90 ; use absolute coordinates
M82 ; use absolute distances for extrusion
G92 E0
G1 Z0.250 F7800.000
G1 E-1.20000 F2400.00000
G92 E0
G1 X95.488 Y94.298 F7800.000
G1 E1.20000 F2400.00000
G1 F561.989
G1 X95.660 Y94.166 E1.20806
G1 X97.117 Y93.324 E1.27052
G1 X97.318 Y93.241 E1.27857
G1 X98.973 Y92.802 E1.34213
G1 X99.159 Y92.777 E1.34908
G1 X100.841 Y92.777 E1.41152
G1 X101.057 Y92.806 E1.41959
G1 X102.682 Y93.241 E1.48204
G1 X102.883 Y93.324 E1.49010
G1 X104.340 Y94.166 E1.55255
G1 X104.512 Y94.298 E1.56061
G1 X105.702 Y95.488 E1.62307
G1 X105.834 Y95.660 E1.63113
G1 X106.676 Y97.117 E1.69358
G1 X106.759 Y97.318 E1.70164
G1 X107.194 Y98.943 E1.76410
G1 X107.223 Y99.159 E1.77215
G1 X107.223 Y100.841 E1.83461
G1 X107.194 Y101.057 E1.84266
G1 X106.759 Y102.682 E1.90512
G1 X106.676 Y102.883 E1.91318
G1 X105.834 Y104.340 E1.97563
G1 X105.702 Y104.512 E1.98369
G1 X104.512 Y105.702 E2.04615
G1 X104.340 Y105.834 E2.05420
G1 X102.883 Y106.676 E2.11666
G1 X102.682 Y106.759 E2.12471
G1 X101.057 Y107.194 E2.18717
G1 X100.841 Y107.223 E2.19523
G1 X99.159 Y107.223 E2.25768
G1 X98.943 Y107.194 E2.26574
G1 X97.318 Y106.759 E2.32820
G1 X97.117 Y106.676 E2.33625
G1 X95.660 Y105.834 E2.39871
G1 X95.488 Y105.702 E2.40676
G1 X94.298 Y104.512 E2.46922
G1 X94.166 Y104.340 E2.47728
G1 X93.324 Y102.883 E2.53973
G1 X93.241 Y102.682 E2.54779
G1 X92.806 Y101.057 E2.61024
G1 X92.777 Y100.841 E2.61830
G1 X92.777 Y99.159 E2.68075
G1 X92.806 Y98.943 E2.68882
G1 X93.241 Y97.318 E2.75127
G1 X93.324 Y97.117 E2.75933
G1 X94.166 Y95.660 E2.82178
G1 X94.298 Y95.488 E2.82984
G1 X95.445 Y94.340 E2.89007
G1 E1.69007 F2400.00000
G92 E0
G1 X100.560 Y100.150 F7800.000
G1 E1.20000 F2400.00000
G1 F1560
G1 X100.502 Y100.290 E1.20561
G1 X100.410 Y100.410 E1.21123
G1 X100.290 Y100.502 E1.21684
G1 X100.150 Y100.560 E1.22245
G1 X100.000 Y100.579 E1.22806
G1 X99.850 Y100.560 E1.23368
G1 X99.710 Y100.502 E1.23929
G1 X99.594 Y100.412 E1.24475
G1 X99.488 Y100.266 E1.25144
G1 X99.440 Y100.150 E1.25609
G1 X99.421 Y100.000 E1.26170
G1 X99.440 Y99.850 E1.26732
G1 X99.498 Y99.710 E1.27293
G1 X99.590 Y99.590 E1.27854
G1 X99.710 Y99.498 E1.28415
G1 X99.846 Y99.442 E1.28962
G1 X100.026 Y99.424 E1.29630
G1 X100.150 Y99.440 E1.30096
G1 X100.290 Y99.498 E1.30657
G1 X100.410 Y99.590 E1.31218
G1 X100.502 Y99.710 E1.31780
G1 X100.560 Y99.850 E1.32341
G1 X100.579 Y100.000 E1.32902
G1 X100.567 Y100.090 E1.33241
G1 X100.413 Y100.189 F7800.000
G1 X100.002 Y100.001 F7800.000
G1 F561.989
G1 X99.993 Y99.997 E1.33295
G1 Z0.450 F7800.000
G1 X100.152 Y99.328 F7800.000
G1 F360
G1 X100.352 Y99.406 E1.34033
G1 X100.489 Y99.511 E1.34627
G1 X100.599 Y99.654 E1.35248
G1 X100.668 Y99.821 E1.35869
G1 X100.692 Y100.000 E1.36490
G1 X100.668 Y100.179 E1.37111
G1 X100.599 Y100.346 E1.37732
G1 X100.489 Y100.489 E1.38353
G1 X100.346 Y100.599 E1.38974
G1 X100.179 Y100.668 E1.39596
G1 X100.000 Y100.692 E1.40217
G1 X99.821 Y100.668 E1.40838
G1 X99.654 Y100.599 E1.41459
G1 X99.532 Y100.506 E1.41987
G1 X99.398 Y100.338 E1.42725
G1 X99.332 Y100.179 E1.43318
G1 X99.312 Y100.027 E1.43846
G1 X99.335 Y99.814 E1.44584
G1 X99.401 Y99.654 E1.45178
G1 X99.494 Y99.532 E1.45705
G1 X99.662 Y99.398 E1.46444
G1 X99.821 Y99.332 E1.47037
G1 X100.000 Y99.308 E1.47658
G1 X100.093 Y99.320 E1.47980
G1 X100.212 Y98.875 F7800.000

G1 F3600
G1 X100.578 Y99.003 E1.49603
G1 X100.815 Y99.185 E1.50850
G1 X100.998 Y99.424 E1.52108
G1 X101.113 Y99.702 E1.53365
G1 X101.153 Y100.000 E1.54623
G1 X101.113 Y100.298 E1.55881
G1 X100.998 Y100.576 E1.57139
G1 X100.815 Y100.815 E1.58397
G1 X100.576 Y100.998 E1.59654
G1 X100.298 Y101.113 E1.60912
G1 X100.000 Y101.153 E1.62170
G1 X99.702 Y101.113 E1.63428
G1 X99.424 Y100.998 E1.64685
G1 X99.211 Y100.835 E1.65807
G1 X99.001 Y100.574 E1.67207
G1 X98.887 Y100.298 E1.68454
G1 X98.851 Y100.032 E1.69576
G1 X98.888 Y99.699 E1.70976
G1 X99.002 Y99.424 E1.72223
G1 X99.165 Y99.211 E1.73344
G1 X99.426 Y99.001 E1.74744
G1 X99.702 Y98.887 E1.75991
G1 X100.000 Y98.847 E1.77249
G1 X100.152 Y98.867 E1.77891

G1 Z0.650 F7800.000
G1 X100.193 Y99.015 F7800.000
G1 F360
G1 X100.261 Y99.024 E1.78127
G1 X100.505 Y99.125 E1.79034
G1 X100.714 Y99.286 E1.79941
G1 X100.875 Y99.495 E1.80848
G1 X100.976 Y99.739 E1.81755
G1 X101.010 Y100.000 E1.82662
G1 X100.976 Y100.261 E1.83569
G1 X100.875 Y100.505 E1.84476
G1 X100.714 Y100.714 E1.85383
G1 X100.505 Y100.875 E1.86290
G1 X100.261 Y100.976 E1.87197
G1 X100.000 Y101.010 E1.88104
G1 X99.739 Y100.976 E1.89011
G1 X99.495 Y100.875 E1.89918
G1 X99.286 Y100.714 E1.90825
G1 X99.125 Y100.505 E1.91732
G1 X99.024 Y100.261 E1.92638
G1 X98.990 Y100.000 E1.93545
G1 X99.024 Y99.739 E1.94452
G1 X99.125 Y99.495 E1.95359
G1 X99.286 Y99.286 E1.96266
G1 X99.495 Y99.125 E1.97173
G1 X99.739 Y99.024 E1.98080
G1 X100.000 Y98.990 E1.98987
G1 X100.134 Y99.008 E1.99451
G1 X100.253 Y98.562 F7800.000
G1 F360
G1 X100.381 Y98.579 E1.99792
G1 X100.736 Y98.726 E2.00806
G1 X101.040 Y98.960 E2.01821
G1 X101.274 Y99.264 E2.02835
G1 X101.421 Y99.619 E2.03849
G1 X101.471 Y100.000 E2.04864
G1 X101.421 Y100.381 E2.05878
G1 X101.274 Y100.736 E2.06892
G1 X101.040 Y101.040 E2.07907
G1 X100.736 Y101.274 E2.08921
G1 X100.381 Y101.421 E2.09935
G1 X100.000 Y101.471 E2.10950
G1 X99.619 Y101.421 E2.11964
G1 X99.264 Y101.274 E2.12979
G1 X98.960 Y101.040 E2.13993
G1 X98.726 Y100.736 E2.15007
G1 X98.579 Y100.381 E2.16022
G1 X98.529 Y100.000 E2.17036
G1 X98.579 Y99.619 E2.18050
G1 X98.726 Y99.264 E2.19065
G1 X98.960 Y98.960 E2.20079
G1 X99.264 Y98.726 E2.21094
G1 X99.619 Y98.579 E2.22108
G1 X100.000 Y98.529 E2.23122
G1 X100.193 Y98.554 E2.23638
G1 X100.302 Y98.681 F7800.000
G1 X100.038 Y99.776 F7800.000
G1 F1161.47
G1 X99.925 Y99.729 E2.24139
G1 X99.799 Y99.713 E2.24665
G1 X99.672 Y99.729 E2.25192
G1 X99.555 Y99.778 E2.25718
G1 X99.453 Y99.856 E2.26244
G1 X99.376 Y99.957 E2.26771
G1 X99.327 Y100.075 E2.27297
G1 X99.310 Y100.201 E2.27824
G1 X99.327 Y100.328 E2.28350
G1 X99.373 Y100.440 E2.28851
G1 X100.440 Y99.373 E2.35075
G1 X100.547 Y99.453 E2.35626
G1 X100.624 Y99.555 E2.36152
G1 X100.673 Y99.672 E2.36679
G1 X100.690 Y99.799 E2.37205
G1 X100.673 Y99.925 E2.37731
G1 X100.624 Y100.043 E2.38258
G1 X100.547 Y100.144 E2.38781
G1 X100.144 Y100.547 E2.41135
M106 S255
G1 Z0.850 F7800.000
G1 X100.227 Y98.759 F7800.000
G1 F360
G1 X100.329 Y98.773 E2.41488
G1 X100.635 Y98.900 E2.42629
G1 X100.899 Y99.101 E2.43770
G1 X101.100 Y99.365 E2.44911
G1 X101.227 Y99.671 E2.46052
G1 X101.271 Y100.000 E2.47193
G1 X101.227 Y100.329 E2.48334
G1 X101.100 Y100.635 E2.49475
G1 X100.901 Y100.896 E2.50603
G1 X100.635 Y101.101 E2.51759
G1 X100.329 Y101.227 E2.52898
G1 X100.000 Y101.271 E2.54039
G1 X99.671 Y101.227 E2.55180
G1 X99.365 Y101.100 E2.56321
G1 X99.101 Y100.899 E2.57462
G1 X98.900 Y100.635 E2.58603
G1 X98.773 Y100.329 E2.59744
G1 X98.729 Y100.000 E2.60885
G1 X98.773 Y99.671 E2.62026
G1 X98.900 Y99.365 E2.63167
G1 X99.101 Y99.101 E2.64308
G1 X99.365 Y98.900 E2.65449
G1 X99.671 Y98.773 E2.66590
G1 X100.000 Y98.729 E2.67731
G1 X100.168 Y98.751 E2.68312
G1 X100.287 Y98.306 F7800.000
G1 F360
G1 X100.448 Y98.327 E2.68742
G1 X100.866 Y98.500 E2.69936
G1 X101.225 Y98.775 E2.71130
G1 X101.500 Y99.134 E2.72324
G1 X101.673 Y99.552 E2.73519
G1 X101.732 Y100.000 E2.74713
G1 X101.673 Y100.448 E2.75907
G1 X101.500 Y100.866 E2.77101
G1 X101.227 Y101.221 E2.78284
G1 X100.866 Y101.500 E2.79489
G1 X100.448 Y101.673 E2.80683
G1 X100.000 Y101.732 E2.81877
G1 X99.552 Y101.673 E2.83071
G1 X99.134 Y101.500 E2.84265
G1 X98.775 Y101.225 E2.85459
G1 X98.500 Y100.866 E2.86653
G1 X98.327 Y100.448 E2.87847
G1 X98.268 Y100.000 E2.89041
G1 X98.327 Y99.552 E2.90235
G1 X98.500 Y99.134 E2.91430
G1 X98.775 Y98.775 E2.92624
G1 X99.134 Y98.500 E2.93818
G1 X99.552 Y98.327 E2.95012
G1 X100.000 Y98.268 E2.96206
G1 X100.227 Y98.298 E2.96811
G1 X100.324 Y98.384 F7800.000
G1 X100.329 Y99.270 F7800.000
G1 F1420.41
G1 X100.731 Y99.672 E2.99159
G1 X100.810 Y100.628 F7800.000
G1 F1420.41
G1 X99.372 Y99.190 E3.07551
G1 X99.269 Y99.269 E3.08087
G1 X99.150 Y99.424 E3.08894
G1 X99.075 Y99.605 E3.09701
G1 X99.056 Y99.752 E3.10312
G1 X100.248 Y100.944 E3.17272
G1 X100.007 Y100.925 E3.18271
G1 X99.827 Y100.850 E3.19078
G1 X99.671 Y100.731 E3.19885
G1 X99.552 Y100.576 E3.20693
G1 X99.477 Y100.395 E3.21500
G1 X99.458 Y100.154 E3.22499
G1 Z1.050 F7800.000
G1 X100.256 Y98.541 F7800.000
G1 F360
G1 X100.386 Y98.558 E3.22952
G1 X100.747 Y98.707 E3.24293
G1 X101.056 Y98.944 E3.25633
G1 X101.293 Y99.253 E3.26974
G1 X101.442 Y99.614 E3.28315
G1 X101.493 Y100.000 E3.29655
G1 X101.442 Y100.386 E3.30996
G1 X101.293 Y100.747 E3.32337
G1 X101.056 Y101.056 E3.33678
G1 X100.747 Y101.293 E3.35018
G1 X100.386 Y101.442 E3.36359
G1 X100.000 Y101.493 E3.37700
G1 X99.614 Y101.442 E3.39040
G1 X99.253 Y101.293 E3.40381
G1 X98.944 Y101.056 E3.41722
G1 X98.707 Y100.747 E3.43063
G1 X98.558 Y100.386 E3.44403
G1 X98.507 Y100.000 E3.45744
G1 X98.558 Y99.614 E3.47085
G1 X98.707 Y99.253 E3.48425
G1 X98.944 Y98.944 E3.49766
G1 X99.253 Y98.707 E3.51107
G1 X99.614 Y98.558 E3.52448
G1 X100.000 Y98.507 E3.53788
G1 X100.196 Y98.533 E3.54469
G1 X100.315 Y98.087 F7800.000
G1 F360
G1 X100.506 Y98.112 E3.54976
G1 X100.977 Y98.308 E3.56324
G1 X101.382 Y98.618 E3.57671
G1 X101.692 Y99.023 E3.59019
G1 X101.888 Y99.494 E3.60366
G1 X101.954 Y100.000 E3.61714
G1 X101.888 Y100.506 E3.63061
G1 X101.692 Y100.977 E3.64409
G1 X101.382 Y101.382 E3.65756
G1 X100.977 Y101.692 E3.67104
G1 X100.506 Y101.888 E3.68451
G1 X100.000 Y101.954 E3.69798
G1 X99.494 Y101.888 E3.71146
G1 X99.023 Y101.692 E3.72493
G1 X98.618 Y101.382 E3.73841
G1 X98.308 Y100.977 E3.75188
G1 X98.112 Y100.506 E3.76536
G1 X98.046 Y100.000 E3.77883
G1 X98.112 Y99.494 E3.79231
G1 X98.308 Y99.023 E3.80578
G1 X98.618 Y98.618 E3.81926
G1 X99.023 Y98.308 E3.83273
G1 X99.494 Y98.112 E3.84621
G1 X100.000 Y98.046 E3.85968
G1 X100.256 Y98.080 E3.86650
G1 X100.389 Y98.265 F7800.000
G1 X99.430 Y99.311 F7800.000
G1 F1667.54
G1 X99.313 Y99.360 E3.87173
G1 X99.112 Y99.514 E3.88220
G1 X98.957 Y99.715 E3.89267
G1 X98.909 Y99.832 E3.89790
G1 X99.832 Y98.909 E3.95180
G1 X99.950 Y98.860 E3.95704
G1 X100.201 Y98.827 E3.96751
G1 X100.453 Y98.860 E3.97798
G1 X100.669 Y98.950 E3.98764
G1 X98.950 Y100.669 E4.08798
G1 X99.112 Y100.888 E4.09922
G1 X99.313 Y101.043 E4.10969
G1 X99.413 Y101.084 E4.11414
G1 X101.084 Y99.413 E4.21169
G1 X101.140 Y99.547 E4.21771
G1 X101.173 Y99.799 E4.22818
G1 X101.140 Y100.050 E4.23865
G1 X101.043 Y100.285 E4.24912
G1 X100.889 Y100.485 E4.25955
G1 X100.485 Y100.889 E4.28309
G1 Z1.250 F7800.000
G1 X100.276 Y98.390 F7800.000
G1 F360
G1 X100.426 Y98.410 E4.28831
G1 X100.823 Y98.574 E4.30310
G1 X101.164 Y98.836 E4.31788
G1 X101.426 Y99.177 E4.33267
G1 X101.590 Y99.574 E4.34745
G1 X101.647 Y100.000 E4.36224
G1 X101.590 Y100.426 E4.37703
G1 X101.426 Y100.823 E4.39181
G1 X101.164 Y101.164 E4.40660
G1 X100.823 Y101.426 E4.42138
G1 X100.426 Y101.590 E4.43617
G1 X100.000 Y101.647 E4.45095
G1 X99.574 Y101.590 E4.46574
G1 X99.177 Y101.426 E4.48052
G1 X98.836 Y101.164 E4.49531
G1 X98.574 Y100.823 E4.51009
G1 X98.410 Y100.426 E4.52488
G1 X98.353 Y100.000 E4.53966
G1 X98.410 Y99.574 E4.55445
G1 X98.574 Y99.177 E4.56923
G1 X98.836 Y98.836 E4.58402
G1 X99.177 Y98.574 E4.59880
G1 X99.574 Y98.410 E4.61359
G1 X100.000 Y98.353 E4.62837
G1 X100.216 Y98.382 E4.63587
G1 X100.335 Y97.937 F7800.000
G1 F360
G1 X100.545 Y97.964 E4.64147
G1 X101.054 Y98.175 E4.65600
G1 X101.490 Y98.510 E4.67054
G1 X101.825 Y98.946 E4.68507
G1 X102.036 Y99.455 E4.69960
G1 X102.108 Y100.000 E4.71414
G1 X102.036 Y100.545 E4.72867
G1 X101.825 Y101.054 E4.74320
G1 X101.490 Y101.490 E4.75773
G1 X101.054 Y101.825 E4.77227
G1 X100.545 Y102.036 E4.78680
G1 X100.000 Y102.108 E4.80133
G1 X99.455 Y102.036 E4.81587
G1 X98.946 Y101.825 E4.83040
G1 X98.510 Y101.490 E4.84493
G1 X98.175 Y101.054 E4.85946
G1 X97.964 Y100.545 E4.87400
G1 X97.892 Y100.000 E4.88853
G1 X97.964 Y99.455 E4.90306
G1 X98.175 Y98.946 E4.91760
G1 X98.510 Y98.510 E4.93213
G1 X98.946 Y98.175 E4.94666
G1 X99.455 Y97.964 E4.96119
G1 X100.000 Y97.892 E4.97573
G1 X100.276 Y97.929 E4.98308
G1 X100.416 Y98.132 F7800.000
G1 X100.595 Y99.004 F7800.000
G1 F1820.96
G1 X100.997 Y99.406 E5.00436
G1 X101.288 Y100.492 F7800.000
G1 F1820.96
G1 X99.508 Y98.712 E5.09855
G1 X99.236 Y98.825 E5.10954
G1 X99.003 Y99.003 E5.12053
G1 X100.997 Y100.997 E5.22600
G1 X100.764 Y101.175 E5.23699
G1 X100.492 Y101.288 E5.24798
G1 X98.712 Y99.508 E5.34217
G1 X98.674 Y99.799 E5.35316
G1 X98.712 Y100.090 E5.36415
G1 X98.825 Y100.361 E5.37514
G1 X99.003 Y100.594 E5.38610
G1 X99.405 Y100.996 E5.40739
G1 Z1.450 F7800.000
G1 X100.296 Y98.239 F7800.000
G1 F360
G1 X100.466 Y98.261 E5.41330
G1 X100.900 Y98.441 E5.42946
G1 X101.273 Y98.727 E5.44562
G1 X101.559 Y99.100 E5.46178
G1 X101.739 Y99.534 E5.47795
G1 X101.800 Y100.000 E5.49411
G1 X101.739 Y100.466 E5.51027
G1 X101.559 Y100.900 E5.52644
G1 X101.273 Y101.273 E5.54260
G1 X100.900 Y101.559 E5.55876
G1 X100.466 Y101.739 E5.57493
G1 X100.000 Y101.800 E5.59109
G1 X99.534 Y101.739 E5.60725
G1 X99.100 Y101.559 E5.62342
G1 X98.727 Y101.273 E5.63958
G1 X98.441 Y100.900 E5.65574
G1 X98.261 Y100.466 E5.67191
G1 X98.206 Y100.044 E5.68654
G1 X98.261 Y99.534 E5.70418
G1 X98.441 Y99.100 E5.72035
G1 X98.727 Y98.727 E5.73651
G1 X99.100 Y98.441 E5.75267
G1 X99.534 Y98.261 E5.76884
G1 X100.000 Y98.200 E5.78500
G1 X100.236 Y98.231 E5.79319
G1 X100.355 Y97.786 F7800.000
G1 F360
G1 X100.585 Y97.816 E5.79932
G1 X101.131 Y98.042 E5.81491
G1 X101.599 Y98.401 E5.83050
G1 X101.958 Y98.869 E5.84609
G1 X102.184 Y99.415 E5.86168
G1 X102.261 Y100.000 E5.87727
G1 X102.184 Y100.585 E5.89286
G1 X101.958 Y101.131 E5.90845
G1 X101.599 Y101.599 E5.92405
G1 X101.131 Y101.958 E5.93964
G1 X100.585 Y102.184 E5.95523
G1 X100.000 Y102.261 E5.97082
G1 X99.415 Y102.184 E5.98641
G1 X98.869 Y101.958 E6.00200
G1 X98.401 Y101.599 E6.01759
G1 X98.042 Y101.131 E6.03318
G1 X97.816 Y100.585 E6.04877
G1 X97.753 Y100.104 E6.06160
G1 X97.739 Y100.000 E6.06436
G1 X97.816 Y99.415 E6.07996
G1 X98.042 Y98.869 E6.09555
G1 X98.401 Y98.401 E6.11114
G1 X98.869 Y98.042 E6.12673
G1 X99.415 Y97.816 E6.14232
G1 X100.000 Y97.739 E6.15791
G1 X100.296 Y97.778 E6.16579
G1 X100.410 Y97.900 F7800.000
G1 X99.638 Y98.660 F7800.000
G1 F1994.03
G1 X98.660 Y99.638 E6.22284
G1 X98.566 Y99.865 E6.23299
G1 X98.525 Y100.239 E6.24854
G1 X98.564 Y100.532 E6.26072
G1 X98.587 Y100.588 E6.26324
G1 X100.582 Y98.593 E6.37969
G1 X100.845 Y98.695 E6.39132
G1 X101.128 Y98.925 E6.40637
G1 X98.925 Y101.128 E6.53498
G1 X99.160 Y101.308 E6.54720
G1 X99.491 Y101.439 E6.56191
G1 X101.439 Y99.491 E6.67561
G1 X101.480 Y99.799 E6.68842
G1 X101.436 Y100.130 E6.70219
G1 X101.308 Y100.438 E6.71597
G1 X101.106 Y100.702 E6.72971
G1 X100.702 Y101.106 E6.75325
G1 Z1.650 F7800.000
G1 X100.313 Y98.105 F7800.000
G1 F360
G1 X100.501 Y98.130 E6.75977
G1 X100.968 Y98.323 E6.77716
G1 X101.369 Y98.631 E6.79454
G1 X101.677 Y99.032 E6.81192
G1 X101.870 Y99.499 E6.82930
G1 X101.936 Y100.000 E6.84669
G1 X101.870 Y100.501 E6.86407
G1 X101.677 Y100.968 E6.88145
G1 X101.369 Y101.369 E6.89884
G1 X100.968 Y101.677 E6.91622
G1 X100.501 Y101.870 E6.93360
G1 X100.000 Y101.936 E6.95098
G1 X99.499 Y101.870 E6.96837
G1 X99.032 Y101.677 E6.98575
G1 X98.631 Y101.369 E7.00313
G1 X98.323 Y100.968 E7.02051
G1 X98.130 Y100.501 E7.03790
G1 X98.064 Y100.000 E7.05528
G1 X98.130 Y99.499 E7.07266
G1 X98.323 Y99.032 E7.09004
G1 X98.631 Y98.631 E7.10743
G1 X99.032 Y98.323 E7.12481
G1 X99.499 Y98.130 E7.14219
G1 X100.000 Y98.064 E7.15957
G1 X100.254 Y98.098 E7.16837
G1 X100.373 Y97.652 F7800.000
G1 F360
G1 X100.620 Y97.685 E7.17497
G1 X101.198 Y97.924 E7.19150
