; generated by Slic3r 1.3.0 on 2019-01-23 at 16:19:32

; external perimeters extrusion width = 0.44mm (1.19mm^3/s)
; perimeters extrusion width = 0.56mm (3.10mm^3/s)
; infill extrusion width = 0.50mm (5.48mm^3/s)
; solid infill extrusion width = 0.56mm (3.72mm^3/s)
; top infill extrusion width = 0.56mm (1.55mm^3/s)

M107
M104 S200 ; set temperature
G28 ; home all axes
M150 B180 G210
M150 B180 G210
G92 E0
G1 E6 F1800
; Filament gcode

M109 S200 ; set temperature and wait for it to be reached
G21 ; set units to millimeters
G90 ; use absolute coordinates
M82 ; use absolute distances for extrusion
G92 E0
G1 Z0.250 F6000.000
G1 E-1.20000 F2400.00000
G92 E0
G1 X51.217 Y36.724 F6000.000
G1 E1.20000 F2400.00000
G1 F1560
G1 X53.029 Y35.244 E1.28684
G1 X55.232 Y34.455 E1.37367
G1 X56.421 Y34.352 E1.41796
G1 X80.321 Y34.352 E2.30499
G1 X82.626 Y34.749 E2.39182
G1 X84.666 Y35.895 E2.47866
G1 X86.206 Y37.657 E2.56549
G1 X87.097 Y39.985 E2.65801
G1 X98.502 Y101.319 E4.97342
G1 X98.615 Y102.158 E5.00481
G1 X98.633 Y102.866 E5.03109
G1 X98.599 Y103.475 E5.05375
G1 X98.495 Y104.163 E5.07958
G1 X98.356 Y104.755 E5.10215
G1 X98.133 Y105.418 E5.12811
G1 X97.893 Y105.977 E5.15069
G1 X97.560 Y106.591 E5.17661
G1 X97.225 Y107.101 E5.19925
G1 X96.791 Y107.646 E5.22512
G1 X96.377 Y108.087 E5.24757
G1 X86.214 Y118.004 E5.77459
G1 X84.286 Y119.331 E5.86143
G1 X82.026 Y119.935 E5.94826
G1 X79.694 Y119.749 E6.03510
G1 X77.558 Y118.794 E6.12193
G1 X76.467 Y117.885 E6.17464
G1 X38.544 Y79.022 E8.18994
G1 X37.217 Y77.095 E8.27677
G1 X36.612 Y74.835 E8.36361
G1 X37.061 Y71.689 E8.48153
G1 X50.005 Y38.725 E9.79589
G1 X51.186 Y36.776 E9.88050
G1 X51.604 Y36.961 F6000.000
G1 F1560
G1 X53.380 Y35.560 E9.96446
G1 X56.421 Y34.798 E10.08079
G1 X80.321 Y34.798 E10.96781
G1 X82.548 Y35.195 E11.05177
G1 X84.500 Y36.337 E11.13573
G1 X85.938 Y38.083 E11.21968
G1 X86.658 Y40.066 E11.29798
G1 X98.064 Y101.401 E13.61339
G1 X98.170 Y102.191 E13.64298
G1 X98.187 Y102.860 E13.66781
G1 X98.155 Y103.430 E13.68902
G1 X98.057 Y104.081 E13.71342
G1 X97.926 Y104.635 E13.73454
G1 X97.716 Y105.261 E13.75905
G1 X97.491 Y105.784 E13.78019
G1 X97.176 Y106.363 E13.80467
G1 X96.863 Y106.841 E13.82585
G1 X96.452 Y107.355 E13.85028
G1 X96.065 Y107.768 E13.87128
G1 X85.902 Y117.685 E14.39830
G1 X84.031 Y118.956 E14.48226
G1 X81.836 Y119.503 E14.56622
G1 X79.587 Y119.258 E14.65017
G1 X76.786 Y117.573 E14.77147
G1 X38.863 Y78.711 E16.78677
G1 X37.592 Y76.840 E16.87072
G1 X37.045 Y74.644 E16.95468
G1 X37.476 Y71.852 E17.05954
G1 X50.420 Y38.889 E18.37390
G1 X51.572 Y37.012 E18.45563
G1 E17.25563 F2400.00000
G92 E0
G1 X78.017 Y89.410 F6000.000
G1 E1.20000 F2400.00000
G1 F1560
G1 X54.481 Y65.291 E2.45072
G1 X56.137 Y63.676 E2.53659
G1 X75.609 Y63.676 E3.25928
G1 X78.017 Y66.083 E3.38566
G1 X78.017 Y89.350 E4.24919
G1 X77.571 Y88.314 F6000.000
G1 F1560
G1 X55.112 Y65.299 E5.44265
G1 X56.319 Y64.122 E5.50521
G1 X75.424 Y64.122 E6.21429
G1 X77.571 Y66.268 E6.32695
G1 X77.571 Y88.254 E7.14292
G1 X77.378 Y88.664 F6000.000
G1 E5.94292 F2400.00000
G92 E0
G1 X89.576 Y103.271 F6000.000
G1 E1.20000 F2400.00000
G1 F1560
G1 X53.474 Y66.274 E3.11853
G1 X47.974 Y71.641 E3.40374
G1 X47.951 Y73.501 E3.47277
G1 X47.033 Y72.560 E3.52159
G1 X44.886 Y74.655 E3.63293
G1 X44.457 Y74.216 E3.65568
G1 X57.324 Y61.456 E4.32822
G1 X57.324 Y62.241 E4.35734
G1 X79.017 Y62.241 E5.16243
G1 X79.026 Y41.949 E5.91554
G1 X79.624 Y41.946 E5.93776
G1 X79.624 Y91.057 E7.76050
G1 X91.008 Y102.723 E8.36543
G1 X81.412 Y112.087 E8.86303
G1 X80.988 Y111.652 E8.88557
G1 X83.135 Y109.557 E8.99692
G1 X82.216 Y108.615 E9.04573
G1 X84.076 Y108.638 E9.11476
G1 X89.533 Y103.313 E9.39775
G1 E8.19775 F2400.00000
G92 E0
G1 X60.324 Y53.848 F6000.000
G1 E1.20000 F2400.00000
G1 F1560
G1 X57.117 Y53.848 E1.31904
G1 X57.117 Y48.941 E1.50117
G1 X60.324 Y48.941 E1.62020
G1 X60.324 Y53.788 E1.80011
G1 E0.60011 F2400.00000
G92 E0
G1 X57.771 Y54.295 F6000.000
G1 E1.20000 F2400.00000
G1 F1560
G1 X57.771 Y61.795 E1.47836
G1 X78.570 Y61.795 E2.25033
G1 X78.579 Y41.787 E2.99289
G1 X78.649 Y41.627 E2.99935
G1 X78.750 Y41.544 E3.00422
G1 X78.858 Y41.504 E3.00850
G1 X80.071 Y41.496 E3.05350
G1 X80.071 Y90.876 E4.88618
G1 X91.379 Y102.464 E5.48711
G1 X91.460 Y102.584 E5.49249
G1 X91.489 Y102.701 E5.49697
G1 X91.463 Y102.864 E5.50307
G1 X91.372 Y102.991 E5.50887
G1 X81.404 Y112.718 E6.02578
G1 X79.518 Y110.785 E6.12599
G1 X80.019 Y110.302 E6.15182
G1 X80.858 Y111.155 E6.19620
G1 X82.504 Y109.549 E6.28153
G1 X80.548 Y107.545 E6.38545
G1 X81.121 Y106.986 E6.41514
G1 X82.276 Y108.170 E6.47651
G1 X83.897 Y108.190 E6.53668
G1 X88.945 Y103.263 E6.79847
G1 X53.466 Y66.906 E8.68386
G1 X48.418 Y71.832 E8.94565
G1 X48.398 Y73.453 E9.00582
G1 X49.553 Y74.636 E9.06719
G1 X48.980 Y75.195 E9.09689
G1 X47.025 Y73.191 E9.20081
G1 X45.380 Y74.797 E9.28613
G1 X46.211 Y75.656 E9.33051
G1 X45.716 Y76.145 E9.35634
G1 X43.829 Y74.211 E9.45662
G1 X56.671 Y61.476 E10.12787
G1 X56.671 Y41.495 E10.86946
G1 X57.399 Y41.495 E10.89650
G1 X57.541 Y41.520 E10.90184
G1 X57.644 Y41.581 E10.90630
G1 X57.728 Y41.682 E10.91117
G1 X57.770 Y41.863 E10.91808
G1 X57.771 Y48.495 E11.16420
G1 X60.771 Y48.495 E11.27554
G1 X60.771 Y54.295 E11.49080
G1 X57.831 Y54.295 E11.59992
G1 X57.397 Y54.437 F6000.000
G1 X57.221 Y54.071 F6000.000
G1 F1560
G1 X57.221 Y61.245 E11.95781
G1 X57.154 Y62.861 F6000.000
G1 F1560
G1 X56.704 Y62.861 E11.97462
G1 X56.704 Y62.701 E11.98059
G1 X56.034 Y63.366 E12.01588
G1 X56.070 Y63.403 E12.01779
G1 X56.613 Y63.403 E12.03808
G1 X57.502 Y62.514 E12.08505
G1 X58.137 Y62.514 E12.10880
G1 X57.248 Y63.403 E12.15577
G1 X57.883 Y63.403 E12.17951
G1 X58.773 Y62.514 E12.22649
G1 X59.408 Y62.514 E12.25023
G1 X58.519 Y63.403 E12.29721
G1 X59.154 Y63.403 E12.32095
G1 X60.043 Y62.514 E12.36793
G1 X60.679 Y62.514 E12.39167
G1 X59.790 Y63.403 E12.43865
G1 X60.425 Y63.403 E12.46239
G1 X61.314 Y62.514 E12.50937
G1 X61.950 Y62.514 E12.53311
G1 X61.061 Y63.403 E12.58008
G1 X61.696 Y63.403 E12.60382
G1 X62.585 Y62.514 E12.65080
G1 X63.221 Y62.514 E12.67454
G1 X62.332 Y63.403 E12.72152
G1 X62.967 Y63.403 E12.74526
G1 X63.856 Y62.514 E12.79224
G1 X64.492 Y62.514 E12.81598
G1 X63.602 Y63.403 E12.86296
G1 X64.238 Y63.403 E12.88670
G1 X65.127 Y62.514 E12.93368
G1 X65.762 Y62.514 E12.95742
G1 X64.873 Y63.403 E13.00439
G1 X65.509 Y63.403 E13.02814
G1 X66.398 Y62.514 E13.07511
G1 X67.033 Y62.514 E13.09885
G1 X66.144 Y63.403 E13.14583
G1 X66.780 Y63.403 E13.16957
G1 X67.669 Y62.514 E13.21655
G1 X68.304 Y62.514 E13.24029
G1 X67.415 Y63.403 E13.28727
G1 X68.051 Y63.403 E13.31101
G1 X68.940 Y62.514 E13.35799
G1 X69.575 Y62.514 E13.38173
G1 X68.686 Y63.403 E13.42871
G1 X69.321 Y63.403 E13.45245
G1 X70.211 Y62.514 E13.49942
G1 X70.846 Y62.514 E13.52316
G1 X69.957 Y63.403 E13.57014
G1 X70.592 Y63.403 E13.59388
G1 X71.481 Y62.514 E13.64086
G1 X72.117 Y62.514 E13.66460
G1 X71.228 Y63.403 E13.71158
G1 X71.863 Y63.403 E13.73532
G1 X72.752 Y62.514 E13.78230
G1 X73.388 Y62.514 E13.80604
G1 X72.499 Y63.403 E13.85302
G1 X73.134 Y63.403 E13.87676
G1 X74.023 Y62.514 E13.92373
G1 X74.659 Y62.514 E13.94748
G1 X73.770 Y63.403 E13.99445
G1 X74.405 Y63.403 E14.01819
G1 X75.294 Y62.514 E14.06517
G1 X75.930 Y62.514 E14.08891
G1 X75.040 Y63.403 E14.13589
G1 X75.620 Y63.403 E14.15756
G1 X75.648 Y63.431 E14.15902
G1 X76.565 Y62.514 E14.20747
G1 X77.200 Y62.514 E14.23121
G1 X75.966 Y63.748 E14.29644
G1 X76.284 Y64.066 E14.31323
G1 X77.836 Y62.514 E14.39525
G1 X78.471 Y62.514 E14.41899
G1 X76.601 Y64.384 E14.51780
G1 X76.919 Y64.702 E14.53459
G1 X78.967 Y62.654 E14.64279
G1 X78.967 Y62.737 E14.64590
G1 X79.351 Y62.737 E14.66027
G1 X79.351 Y62.904 E14.66653
G1 X77.237 Y65.019 E14.77827
G1 X77.554 Y65.337 E14.79506
G1 X79.351 Y63.540 E14.89001
G1 X79.351 Y64.175 E14.91375
G1 X77.872 Y65.655 E14.99192
G1 X78.190 Y65.972 E15.00871
G1 X79.351 Y64.811 E15.07008
G1 X79.351 Y65.446 E15.09383
G1 X78.290 Y66.508 E15.14993
G1 X78.290 Y67.143 E15.17367
G1 X79.351 Y66.082 E15.22978
G1 X79.351 Y66.717 E15.25352
G1 X78.290 Y67.779 E15.30962
G1 X78.290 Y68.414 E15.33336
G1 X79.351 Y67.353 E15.38947
G1 X79.351 Y67.988 E15.41321
G1 X78.290 Y69.050 E15.46931
G1 X78.290 Y69.685 E15.49305
G1 X79.351 Y68.623 E15.54916
G1 X79.351 Y69.259 E15.57290
G1 X78.290 Y70.321 E15.62900
G1 X78.290 Y70.956 E15.65274
G1 X79.351 Y69.894 E15.70885
G1 X79.351 Y70.530 E15.73259
G1 X78.290 Y71.592 E15.78869
G1 X78.290 Y72.227 E15.81243
G1 X79.351 Y71.165 E15.86854
G1 X79.351 Y71.801 E15.89228
G1 X78.290 Y72.862 E15.94838
G1 X78.290 Y73.498 E15.97212
G1 X79.351 Y72.436 E16.02823
G1 X79.351 Y73.072 E16.05197
G1 X78.290 Y74.133 E16.10807
G1 X78.290 Y74.769 E16.13181
G1 X79.351 Y73.707 E16.18792
G1 X79.351 Y74.342 E16.21166
G1 X78.290 Y75.404 E16.26776
G1 X78.290 Y76.040 E16.29151
G1 X79.351 Y74.978 E16.34761
G1 X79.351 Y75.613 E16.37135
G1 X78.290 Y76.675 E16.42745
G1 X78.290 Y77.311 E16.45120
G1 X79.351 Y76.249 E16.50730
G1 X79.351 Y76.884 E16.53104
G1 X78.290 Y77.946 E16.58714
G1 X78.290 Y78.581 E16.61089
G1 X79.351 Y77.520 E16.66699
G1 X79.351 Y78.155 E16.69073
G1 X78.290 Y79.217 E16.74684
G1 X78.290 Y79.852 E16.77058
G1 X79.351 Y78.791 E16.82668
G1 X79.351 Y79.426 E16.85042
G1 X78.290 Y80.488 E16.90653
G1 X78.290 Y81.123 E16.93027
G1 X79.351 Y80.061 E16.98637
G1 X79.351 Y80.697 E17.01011
G1 X78.290 Y81.759 E17.06622
G1 X78.290 Y82.394 E17.08996
G1 X79.351 Y81.332 E17.14606
G1 X79.351 Y81.968 E17.16980
G1 X78.290 Y83.030 E17.22591
G1 X78.290 Y83.665 E17.24965
G1 X79.351 Y82.603 E17.30575
G1 X79.351 Y83.239 E17.32949
G1 X78.290 Y84.300 E17.38560
G1 X78.290 Y84.936 E17.40934
G1 X79.351 Y83.874 E17.46544
G1 X79.351 Y84.510 E17.48918
G1 X78.290 Y85.571 E17.54529
G1 X78.290 Y86.207 E17.56903
G1 X79.351 Y85.145 E17.62513
G1 X79.351 Y85.780 E17.64887
G1 X78.290 Y86.842 E17.70498
G1 X78.290 Y87.478 E17.72872
G1 X79.351 Y86.416 E17.78482
G1 X79.351 Y87.051 E17.80857
G1 X78.290 Y88.113 E17.86467
G1 X78.290 Y88.749 E17.88841
G1 X79.351 Y87.687 E17.94451
G1 X79.351 Y88.322 E17.96826
G1 X78.290 Y89.384 E18.02436
G1 X78.290 Y90.019 E18.04810
G1 X79.351 Y88.958 E18.10421
G1 X79.351 Y89.593 E18.12795
G1 X78.290 Y90.655 E18.18405
G1 E16.98405 F2400.00000
G92 E0
G1 X90.197 Y102.894 F6000.000
G1 E1.20000 F2400.00000
G1 F1560
G1 X90.550 Y102.541 E1.21865
G1 X90.236 Y102.220 E1.23544
G1 X89.525 Y102.931 E1.27301
G1 X89.211 Y102.609 E1.28980
G1 X89.922 Y101.898 E1.32737
G1 X89.608 Y101.577 E1.34416
G1 X88.897 Y102.288 E1.38174
G1 X88.584 Y101.966 E1.39853
G1 X89.295 Y101.255 E1.43610
G1 X88.981 Y100.933 E1.45289
G1 X88.270 Y101.645 E1.49046
G1 X87.956 Y101.323 E1.50725
G1 X88.667 Y100.612 E1.54482
G1 X88.353 Y100.290 E1.56161
G1 X87.642 Y101.001 E1.59919
G1 X87.328 Y100.680 E1.61597
G1 X88.039 Y99.969 E1.65355
G1 X87.725 Y99.647 E1.67034
G1 X87.014 Y100.358 E1.70791
G1 X86.701 Y100.037 E1.72470
G1 X87.412 Y99.325 E1.76227
G1 X87.098 Y99.004 E1.77906
G1 X86.387 Y99.715 E1.81664
G1 X86.073 Y99.393 E1.83342
G1 X86.784 Y98.682 E1.87100
G1 X86.470 Y98.361 E1.88779
G1 X85.759 Y99.072 E1.92536
G1 X85.445 Y98.750 E1.94215
G1 X86.156 Y98.039 E1.97972
G1 X85.842 Y97.717 E1.99651
G1 X85.131 Y98.428 E2.03408
G1 X84.818 Y98.107 E2.05087
G1 X85.529 Y97.396 E2.08845
G1 X85.215 Y97.074 E2.10524
G1 X84.504 Y97.785 E2.14281
G1 X84.190 Y97.464 E2.15960
G1 X84.901 Y96.753 E2.19717
G1 X84.587 Y96.431 E2.21396
G1 X83.876 Y97.142 E2.25153
G1 X83.562 Y96.820 E2.26832
G1 X84.273 Y96.109 E2.30590
G1 X83.959 Y95.788 E2.32269
G1 X83.248 Y96.499 E2.36026
G1 X82.935 Y96.177 E2.37705
G1 X83.646 Y95.466 E2.41462
G1 X83.332 Y95.144 E2.43141
G1 X82.621 Y95.856 E2.46898
G1 X82.307 Y95.534 E2.48577
G1 X83.018 Y94.823 E2.52335
G1 X82.704 Y94.501 E2.54013
G1 X81.993 Y95.212 E2.57771
G1 X81.679 Y94.891 E2.59450
G1 X82.390 Y94.180 E2.63207
G1 X82.076 Y93.858 E2.64886
G1 X81.365 Y94.569 E2.68643
G1 X81.052 Y94.248 E2.70322
G1 X81.763 Y93.536 E2.74079
G1 X81.449 Y93.215 E2.75758
G1 X80.738 Y93.926 E2.79516
G1 X80.424 Y93.604 E2.81195
G1 X81.135 Y92.893 E2.84952
G1 X80.821 Y92.572 E2.86631
G1 X80.110 Y93.283 E2.90388
G1 X79.796 Y92.961 E2.92067
G1 X80.507 Y92.250 E2.95824
G1 X80.193 Y91.928 E2.97503
G1 X79.482 Y92.639 E3.01261
G1 X79.168 Y92.318 E3.02940
G1 X79.880 Y91.607 E3.06697
G1 X79.566 Y91.285 E3.08376
G1 X78.855 Y91.996 E3.12133
G1 X78.541 Y91.675 E3.13812
G1 X79.351 Y90.864 E3.18095
G1 X79.351 Y90.229 E3.20469
G1 X78.227 Y91.353 E3.26411
G1 X77.913 Y91.031 E3.28090
G1 X78.624 Y90.320 E3.31847
G1 X78.310 Y89.999 E3.33526
G1 X77.599 Y90.710 E3.37283
G1 X77.285 Y90.388 E3.38962
G1 X77.997 Y89.677 E3.42720
G1 X77.683 Y89.355 E3.44399
G1 X76.972 Y90.067 E3.48156
G1 X76.658 Y89.745 E3.49835
G1 X77.369 Y89.034 E3.53592
G1 X77.055 Y88.712 E3.55271
G1 X76.344 Y89.423 E3.59028
G1 X76.030 Y89.102 E3.60707
G1 X76.741 Y88.391 E3.64465
G1 X76.427 Y88.069 E3.66144
G1 X75.716 Y88.780 E3.69901
G1 X75.402 Y88.459 E3.71580
G1 X76.114 Y87.747 E3.75337
G1 X75.800 Y87.426 E3.77016
G1 X75.089 Y88.137 E3.80773
G1 X74.775 Y87.815 E3.82452
G1 X75.486 Y87.104 E3.86210
G1 X75.172 Y86.783 E3.87888
G1 X74.461 Y87.494 E3.91646
G1 X74.147 Y87.172 E3.93325
G1 X74.858 Y86.461 E3.97082
G1 X74.544 Y86.139 E3.98761
G1 X73.833 Y86.850 E4.02518
G1 X73.519 Y86.529 E4.04197
G1 X74.231 Y85.818 E4.07954
G1 X73.917 Y85.496 E4.09633
G1 X73.206 Y86.207 E4.13391
G1 X72.892 Y85.886 E4.15070
G1 X73.603 Y85.175 E4.18827
G1 X73.289 Y84.853 E4.20506
G1 X72.578 Y85.564 E4.24263
G1 X72.264 Y85.242 E4.25942
G1 X72.975 Y84.531 E4.29699
G1 X72.661 Y84.210 E4.31378
G1 X71.950 Y84.921 E4.35136
G1 X71.636 Y84.599 E4.36815
G1 X72.348 Y83.888 E4.40572
G1 X72.034 Y83.567 E4.42251
G1 X71.323 Y84.278 E4.46008
G1 X71.009 Y83.956 E4.47687
G1 X71.720 Y83.245 E4.51444
G1 X71.406 Y82.923 E4.53123
G1 X70.695 Y83.634 E4.56881
G1 X70.381 Y83.313 E4.58559
G1 X71.092 Y82.602 E4.62317
G1 X70.778 Y82.280 E4.63996
G1 X70.067 Y82.991 E4.67753
G1 X69.753 Y82.670 E4.69432
G1 X70.465 Y81.958 E4.73189
G1 X70.151 Y81.637 E4.74868
G1 X69.440 Y82.348 E4.78626
G1 X69.126 Y82.026 E4.80304
G1 X69.837 Y81.315 E4.84062
G1 X69.523 Y80.994 E4.85741
G1 X68.812 Y81.705 E4.89498
G1 X68.498 Y81.383 E4.91177
G1 X69.209 Y80.672 E4.94934
G1 X68.895 Y80.350 E4.96613
G1 X68.184 Y81.062 E5.00371
G1 X67.870 Y80.740 E5.02049
G1 X68.582 Y80.029 E5.05807
G1 X68.268 Y79.707 E5.07486
G1 X67.557 Y80.418 E5.11243
G1 X67.243 Y80.097 E5.12922
G1 X67.954 Y79.386 E5.16679
G1 X67.640 Y79.064 E5.18358
G1 X66.929 Y79.775 E5.22115
G1 X66.615 Y79.453 E5.23794
G1 X67.326 Y78.742 E5.27552
G1 X67.012 Y78.421 E5.29231
G1 X66.301 Y79.132 E5.32988
G1 X65.987 Y78.810 E5.34667
G1 X66.699 Y78.099 E5.38424
G1 X66.385 Y77.778 E5.40103
G1 X65.674 Y78.489 E5.43860
G1 X65.360 Y78.167 E5.45539
G1 X66.071 Y77.456 E5.49297
G1 X65.757 Y77.134 E5.50976
G1 X65.046 Y77.845 E5.54733
G1 X64.732 Y77.524 E5.56412
G1 X65.443 Y76.813 E5.60169
G1 X65.129 Y76.491 E5.61848
G1 X64.418 Y77.202 E5.65605
G1 X64.104 Y76.881 E5.67284
G1 X64.816 Y76.169 E5.71042
G1 X64.502 Y75.848 E5.72721
G1 X63.791 Y76.559 E5.76478
G1 X63.477 Y76.237 E5.78157
G1 X64.188 Y75.526 E5.81914
G1 X63.874 Y75.205 E5.83593
G1 X63.163 Y75.916 E5.87350
G1 X62.849 Y75.594 E5.89029
G1 X63.560 Y74.883 E5.92787
G1 X63.246 Y74.561 E5.94466
G1 X62.535 Y75.273 E5.98223
G1 X62.221 Y74.951 E5.99902
G1 X62.933 Y74.240 E6.03659
G1 X62.619 Y73.918 E6.05338
G1 X61.908 Y74.629 E6.09095
G1 X61.594 Y74.308 E6.10774
G1 X62.305 Y73.597 E6.14532
G1 X61.991 Y73.275 E6.16210
G1 X61.280 Y73.986 E6.19968
G1 X60.966 Y73.664 E6.21647
G1 X61.677 Y72.953 E6.25404
G1 X61.363 Y72.632 E6.27083
G1 X60.652 Y73.343 E6.30840
G1 X60.338 Y73.021 E6.32519
G1 X61.050 Y72.310 E6.36277
G1 X60.736 Y71.989 E6.37955
G1 X60.025 Y72.700 E6.41713
G1 X59.711 Y72.378 E6.43392
G1 X60.422 Y71.667 E6.47149
G1 X60.108 Y71.345 E6.48828
G1 X59.397 Y72.056 E6.52585
G1 X59.083 Y71.735 E6.54264
G1 X59.794 Y71.024 E6.58022
G1 X59.480 Y70.702 E6.59700
G1 X58.769 Y71.413 E6.63458
G1 X58.455 Y71.092 E6.65137
G1 X59.167 Y70.380 E6.68894
G1 X58.853 Y70.059 E6.70573
G1 X58.142 Y70.770 E6.74330
G1 X57.828 Y70.448 E6.76009
G1 X58.539 Y69.737 E6.79767
G1 X58.225 Y69.416 E6.81445
G1 X57.514 Y70.127 E6.85203
G1 X57.200 Y69.805 E6.86882
