; generated by Slic3r 1.3.1-dev (Build (Unknown revision)) on 2019-01-03 at 18:25:00

; external perimeters extrusion width = 0.55mm (4.37mm^3/s)
; perimeters extrusion width = 0.70mm (11.44mm^3/s)
; infill extrusion width = 0.62mm (13.45mm^3/s)
; solid infill extrusion width = 0.70mm (3.81mm^3/s)
; top infill extrusion width = 0.70mm (2.86mm^3/s)

M107
M104 S200 ; set temperature
G28 ; home all axes
G1 Z5 F5000 ; lift nozzle

; Filament gcode

M109 S200 ; set temperature and wait for it to be reached
G21 ; set units to millimeters
G90 ; use absolute coordinates
M82 ; use absolute distances for extrusion
G92 E0
G92 E0
G1 Z0.350 F7800.000
G1 E-2.00000 F2400.00000
G92 E0
G1 X96.786 Y100.615 F7800.000
G1 E2.00000 F2400.00000
G1 F1144.79
G1 X98.539 Y99.137 E2.07096
G1 X100.691 Y98.345 E2.14192
G1 X101.868 Y98.240 E2.17848
G1 X103.173 Y98.240 E2.21886
G1 X105.432 Y98.637 E2.28982
G1 X107.420 Y99.780 E2.36078
G1 X108.899 Y101.533 E2.43174
G1 X109.692 Y103.685 E2.50271
G1 X109.798 Y104.865 E2.53936
G1 X109.798 Y120.635 E3.02730
G1 X109.401 Y122.894 E3.09826
G1 X108.258 Y124.882 E3.16923
G1 X106.505 Y126.361 E3.24019
G1 X104.353 Y127.154 E3.31115
G1 X103.173 Y127.260 E3.34780
G1 X101.868 Y127.260 E3.38818
G1 X99.609 Y126.863 E3.45914
G1 X97.621 Y125.719 E3.53011
G1 X96.142 Y123.967 E3.60107
G1 X95.349 Y121.814 E3.67203
G1 X95.243 Y120.638 E3.70857
G1 X95.243 Y104.862 E4.19673
G1 X95.641 Y102.603 E4.26769
G1 X96.748 Y100.680 E4.33633
G1 E2.33633 F2400.00000
G92 E0
G1 X102.823 Y120.285 F7800.000
G1 E2.00000 F2400.00000
G1 F1800
G1 X102.218 Y120.285 E2.01872
G1 X102.218 Y105.215 E2.48501
G1 X102.823 Y105.215 E2.50372
G1 X102.823 Y120.210 E2.96768
G1 X102.387 Y120.041 F7800.000
G1 Z0.650 F7800.000
G1 X102.236 Y119.799 F7800.000
G1 F600
G1 X101.761 Y119.799 E2.98051
G1 X101.761 Y105.700 E3.36084
G1 X102.236 Y105.700 E3.37365
G1 X102.236 Y119.724 E3.75196
G1 X102.797 Y120.360 F7800.000
G1 F1800
G1 X101.618 Y120.360 E3.77626

G1 F3600
G1 X101.200 Y120.360 E3.78786
G1 X101.200 Y105.140 E4.21064
G1 X101.618 Y105.140 E4.22224

G1 F1800
G1 X102.797 Y105.140 E4.24653
G1 X102.797 Y120.285 E4.55868
G1 X102.364 Y120.110 F7800.000
G1 Z0.950 F7800.000
G1 X101.627 Y119.799 F7800.000
G1 F600
G1 X101.021 Y119.799 E4.57503
G1 X101.021 Y105.700 E4.95536
G1 X101.627 Y105.700 E4.97171
G1 X101.627 Y119.724 E5.35002
G1 X102.188 Y120.360 F7800.000
G1 F1800
G1 X100.675 Y120.360 E5.38120

G1 F3600
G1 X100.461 Y120.360 E5.38716
G1 X100.461 Y105.140 E5.80994
G1 X100.675 Y105.140 E5.81590

G1 F1800
G1 X102.188 Y105.140 E5.84707
G1 X102.188 Y120.285 E6.15922
G1 X101.747 Y120.124 F7800.000
M106 S255
G1 Z1.250 F7800.000
G1 X100.777 Y119.799 F7800.000
G1 F600
G1 X100.371 Y119.799 E6.17017
G1 X100.371 Y105.700 E6.55051
G1 X100.777 Y105.700 E6.56146
G1 X100.777 Y119.724 E6.93977
G1 X101.337 Y120.360 F7800.000
G1 F1800
G1 X99.936 Y120.360 E6.96867
M106 S255

G1 F3600
G1 X99.810 Y120.360 E6.97215
G1 X99.810 Y105.140 E7.39493
G1 X99.936 Y105.140 E7.39841
M106 S255

G1 F1800
G1 X101.337 Y105.140 E7.42730
G1 X101.337 Y120.285 E7.73945
G1 X100.897 Y120.123 F7800.000
G1 E5.73945 F2400.00000
G92 E0
G1 X101.337 Y105.265 F7800.000
G1 E2.00000 F2400.00000
G1 F1800
G1 X102.495 Y105.265 E2.03371
G1 X102.895 Y105.665 E2.05017
G1 Z1.550 F7800.000
G1 E0.05017 F2400.00000
G92 E0
G1 X100.606 Y120.360 F7800.000
G1 E2.00000 F2400.00000
G1 F600
G1 X99.285 Y120.360 E2.02722
M106 S255

G1 F3600
G1 X99.221 Y120.360 E2.02900
G1 X99.221 Y105.140 E2.45178
G1 X99.285 Y105.140 E2.45356
M106 S255

G1 F600
G1 X100.606 Y105.140 E2.48078
G1 X100.606 Y120.285 E2.79292
G1 X100.173 Y120.110 F7800.000
G1 E0.79292 F2400.00000
G92 E0
G1 X100.606 Y105.265 F7800.000
G1 E2.00000 F2400.00000
G1 F600
G1 X102.413 Y105.265 E2.05454
G1 X102.813 Y105.665 E2.07161
G1 E0.07161 F2400.00000
G92 E0
G1 X102.813 Y120.235 F7800.000
G1 E2.00000 F2400.00000
G1 F600
G1 X100.606 Y120.235 E2.06892
G1 X99.913 Y120.079 F7800.000
G1 F600
G1 X99.913 Y105.420 E2.54159
G1 Z1.850 F7800.000
G1 E0.54159 F2400.00000
G92 E0
G1 X99.961 Y120.360 F7800.000
G1 E2.00000 F2400.00000
G1 F600
G1 X98.696 Y120.360 E2.02607
M106 S255

G1 F3600
G1 X98.696 Y105.140 E2.44885
M106 S255

G1 F600
G1 X99.961 Y105.140 E2.47492
G1 X99.961 Y120.285 E2.78706
G1 X99.528 Y120.110 F7800.000
G1 E0.78706 F2400.00000
G92 E0
G1 X99.961 Y105.265 F7800.000
G1 E2.00000 F2400.00000
G1 F600
G1 X102.732 Y105.265 E2.08651
G1 E0.08651 F2400.00000
G92 E0
G1 X102.732 Y120.235 F7800.000
G1 E2.00000 F2400.00000
G1 F600
G1 X99.961 Y120.235 E2.08652
G1 X99.323 Y120.079 F7800.000
G1 F600
G1 X99.323 Y105.420 E2.49163
G1 Z2.150 F7800.000
G1 E0.49163 F2400.00000
G92 E0
G1 X99.376 Y120.360 F7800.000
G1 E2.00000 F2400.00000
G1 F600
G1 X98.187 Y120.360 E2.02449
G1 X98.187 Y105.140 E2.33818
G1 X99.376 Y105.140 E2.36267
G1 X99.376 Y120.285 E2.67482
G1 X98.943 Y120.110 F7800.000
G1 X99.376 Y120.235 F7800.000
G1 F1130.37
G1 X102.656 Y120.235 E2.77722
G1 E0.77722 F2400.00000
G92 E0
G1 X102.655 Y105.665 F7800.000
G1 E2.00000 F2400.00000
G1 F1130.37
G1 X102.277 Y105.287 E2.01469
G1 F1130.37
G1 X102.255 Y105.265 E2.01566
G1 X99.376 Y105.265 E2.10557
G1 X98.781 Y105.420 F7800.000
G1 F753.583
G1 X98.781 Y120.079 E2.45603
G1 Z2.450 F7800.000
G1 X98.845 Y120.360 F7800.000
G1 F600
G1 X97.729 Y120.360 E2.47901
G1 X97.729 Y105.140 E2.79270
G1 X98.844 Y105.140 E2.81568
G1 X98.845 Y120.285 E3.12783
G1 X98.411 Y120.110 F7800.000
G1 X98.845 Y120.235 F7800.000
G1 F1135.81
G1 X102.580 Y120.235 E3.24446
G1 E1.24446 F2400.00000
G92 E0
G1 X102.580 Y105.265 F7800.000
G1 E2.00000 F2400.00000
G1 F1135.81
G1 X98.844 Y105.265 E2.11664
G1 X98.287 Y105.420 F7800.000
G1 F757.207
G1 X98.287 Y120.079 E2.42150
G1 Z2.750 F7800.000
G1 X98.352 Y120.360 F7800.000
G1 F600
G1 X97.301 Y120.360 E2.44316
G1 X97.301 Y105.140 E2.75685
G1 X98.352 Y105.140 E2.77852
G1 X98.352 Y120.285 E3.09066
G1 X97.919 Y120.110 F7800.000
G1 X98.352 Y120.235 F7800.000
G1 F1144.87
G1 X102.510 Y120.235 E3.22048
G1 E1.22048 F2400.00000
G92 E0
G1 X102.510 Y105.665 F7800.000
G1 E2.00000 F2400.00000
G1 F1144.87
G1 X102.157 Y105.312 E2.01255
G1 F1144.87
G1 X102.110 Y105.265 E2.01451
G1 X98.352 Y105.265 E2.12426
G1 X97.826 Y105.420 F7800.000
G1 F763.243
G1 X97.826 Y120.079 E2.38938
G1 Z3.050 F7800.000
G1 X97.896 Y120.360 F7800.000
G1 F658.594
G1 X96.898 Y120.360 E2.40994
G1 X96.898 Y105.140 E2.72363
G1 X97.896 Y105.140 E2.74419
G1 X97.896 Y120.285 E3.05634
G1 X97.457 Y120.119 F7800.000
G1 X97.896 Y120.235 F7800.000
G1 F1317.19
G1 X101.678 Y120.235 E3.17442
G1 F1317.19
G1 X101.983 Y120.177 E3.18512
G1 X102.021 Y120.006 E3.19117
G1 F1317.19
G1 X102.059 Y119.835 E3.19665
G1 X102.059 Y105.665 E3.63968
G1 X102.040 Y105.579 E3.64242
G1 F1317.19
G1 X101.983 Y105.323 E3.65149
G1 X101.779 Y105.284 E3.65862
G1 F1317.19
G1 X101.678 Y105.265 E3.66185
G1 X97.896 Y105.265 E3.77993
G1 X97.397 Y105.420 F7800.000
G1 F878.126
G1 X97.397 Y120.079 E4.01187
G1 Z3.350 F7800.000
G1 X97.471 Y120.360 F7800.000
G1 F661.555
G1 X96.518 Y120.360 E4.03149
G1 X96.518 Y105.140 E4.34518
G1 X97.471 Y105.140 E4.36481
G1 X97.471 Y120.285 E4.67696
G1 X97.033 Y120.119 F7800.000
G1 X97.471 Y120.235 F7800.000
G1 F1323.11
G1 X101.573 Y120.235 E4.80502
G1 F1323.11
G1 X101.907 Y120.165 E4.81704
G1 X101.952 Y119.945 E4.82496
G1 F1323.11
G1 X101.975 Y119.835 E4.82849
G1 X101.975 Y105.665 E5.27326
G1 F1323.11
G1 X101.907 Y105.335 E5.28512
G1 X101.684 Y105.288 E5.29312
G1 F1323.11
G1 X101.573 Y105.265 E5.29667
G1 X97.471 Y105.265 E5.42474
G1 X96.995 Y105.420 F7800.000
G1 F882.074
G1 X96.995 Y120.079 E5.62844
G1 Z3.650 F7800.000
G1 X97.072 Y120.360 F7800.000
G1 F664.588
G1 X96.160 Y120.360 E5.64722
G1 X96.160 Y105.140 E5.96091
G1 X97.072 Y105.140 E5.97970
G1 X97.072 Y120.285 E6.29184
G1 X96.634 Y120.118 F7800.000
G1 X97.072 Y120.235 F7800.000
G1 F1329.18
G1 X101.507 Y120.235 E6.43032
G1 F1329.18
G1 X101.843 Y120.164 E6.44241
G1 X101.888 Y119.945 E6.45033
G1 F1329.18
G1 X101.910 Y119.835 E6.45386
G1 X101.910 Y105.665 E6.89968
G1 F1329.18
G1 X101.843 Y105.335 E6.91152
G1 X101.619 Y105.288 E6.91956
G1 F1329.18
G1 X101.507 Y105.265 E6.92313
G1 X97.072 Y105.265 E7.06161
G1 X96.616 Y105.420 F7800.000
G1 F886.117
G1 X96.616 Y120.079 E7.23982
G1 Z3.950 F7800.000
G1 X96.695 Y120.360 F7800.000
G1 F667.486
G1 X95.821 Y120.360 E7.25784
G1 X95.821 Y105.140 E7.57153
G1 X96.695 Y105.140 E7.58954
G1 X96.695 Y120.285 E7.90169
G1 X96.258 Y120.118 F7800.000
G1 X96.695 Y120.235 F7800.000
G1 F1334.97
G1 X101.446 Y120.235 E8.05958
G1 X101.558 Y120.211 E8.06340
G1 F1334.97
G1 X101.783 Y120.163 E8.07155
G1 X101.828 Y119.944 E8.07946
G1 F1334.97
G1 X101.850 Y119.835 E8.08299
G1 X101.850 Y105.665 E8.53085
G1 F1334.97
G1 X101.783 Y105.336 E8.54267
G1 X101.558 Y105.288 E8.55079
G1 F1334.97
G1 X101.446 Y105.265 E8.55438
G1 X96.695 Y105.265 E8.70268
G1 X96.258 Y105.420 F7800.000
G1 F889.981
G1 X96.258 Y120.079 E8.85773
G1 Z4.250 F7800.000
G1 X96.340 Y120.360 F7800.000
G1 F670.228
G1 X95.500 Y120.360 E8.87504
G1 X95.500 Y105.140 E9.18873
G1 X96.340 Y105.140 E9.20605
G1 X96.340 Y120.285 E9.51819
G1 X95.903 Y120.118 F7800.000
G1 X96.340 Y120.235 F7800.000
G1 F1340.46
G1 X101.386 Y120.235 E9.68599
G1 X101.499 Y120.211 E9.68983
G1 F1340.46
G1 X101.725 Y120.163 E9.69802
G1 X101.770 Y119.944 E9.70593
G1 F1340.46
G1 X101.792 Y119.835 E9.70946
G1 X101.792 Y105.665 E10.15838
G1 F1340.46
G1 X101.725 Y105.337 E10.17020
G1 X101.499 Y105.289 E10.17835
G1 F1340.46
G1 X101.386 Y105.265 E10.18195
G1 X96.340 Y105.265 E10.33949
G1 X95.920 Y105.420 F7800.000
G1 F893.638
G1 X95.920 Y120.079 E10.47339
G1 Z4.550 F7800.000
G1 X96.004 Y120.360 F7800.000
G1 F672.863
G1 X95.195 Y120.360 E10.49007
G1 X95.195 Y105.140 E10.80376
G1 X96.004 Y105.140 E10.82043
G1 X96.004 Y120.285 E11.13257
G1 X95.567 Y120.117 F7800.000
G1 X96.004 Y120.235 F7800.000
G1 F1345.73
G1 X101.331 Y120.235 E11.30983
G1 X101.445 Y120.210 E11.31370
G1 F1345.73
G1 X101.672 Y120.162 E11.32196
G1 X101.716 Y119.944 E11.32987
G1 F1345.73
G1 X101.738 Y119.835 E11.33341
G1 X101.738 Y105.665 E11.78403
G1 F1345.73
G1 X101.672 Y105.337 E11.79583
G1 X101.445 Y105.289 E11.80404
G1 F1345.73
G1 X101.331 Y105.265 E11.80767
G1 X96.004 Y105.265 E11.97397
G1 X95.600 Y105.420 F7800.000
G1 F897.15
G1 X95.600 Y120.079 E12.08847
G1 Z4.850 F7800.000
G1 X95.686 Y120.360 F7800.000
G1 F675.368
G1 X94.905 Y120.360 E12.10455
G1 X94.905 Y105.140 E12.41824
G1 X95.686 Y105.140 E12.43433
G1 X95.686 Y120.285 E12.74647
G1 X95.248 Y120.117 F7800.000
G1 X95.686 Y120.235 F7800.000
G1 F1350.74
G1 X101.277 Y120.235 E12.93263
G1 X101.391 Y120.210 E12.93651
G1 F1350.74
G1 X101.620 Y120.162 E12.94481
G1 X101.663 Y119.944 E12.95272
G1 F1350.74
G1 X101.685 Y119.835 E12.95631
G1 X101.680 Y105.571 E13.41746
G1 X101.680 Y105.571 F7800.000
G1 F1350.74
G1 X101.620 Y105.338 E13.42598
G1 X101.391 Y105.289 E13.43423
G1 F1350.74
G1 X101.277 Y105.265 E13.43787
G1 X95.686 Y105.265 E13.61245
G1 X95.295 Y105.420 F7800.000
G1 F900.491
G1 X95.295 Y120.079 E13.70906
G1 Z5.150 F7800.000
G1 X95.383 Y120.360 F7800.000
G1 F677.773
G1 X94.630 Y120.360 E13.72460
G1 X94.630 Y105.140 E14.03829
G1 X95.383 Y105.140 E14.05382
G1 X95.383 Y120.285 E14.36596
G1 X94.946 Y120.117 F7800.000
G1 X95.383 Y120.235 F7800.000
G1 F1355.55
G1 X101.228 Y120.235 E14.56067
G1 X101.343 Y120.210 E14.56458
G1 F1355.55
G1 X101.572 Y120.161 E14.57294
G1 X101.615 Y119.943 E14.58084
G1 F1355.55
G1 X101.637 Y119.835 E14.58438
G1 X101.637 Y105.665 E15.03748
G1 F1355.55
G1 X101.572 Y105.339 E15.04925
G1 X101.343 Y105.289 E15.05755
G1 F1355.55
G1 X101.228 Y105.265 E15.06121
G1 X95.383 Y105.265 E15.24370
G1 X95.006 Y105.420 F7800.000
G1 F903.698
G1 X95.006 Y120.079 E15.32375
G1 Z5.450 F7800.000
G1 X95.096 Y120.360 F7800.000
G1 F680.065
G1 X94.367 Y120.360 E15.33878
G1 X94.367 Y105.140 E15.65247
G1 X95.096 Y105.140 E15.66749
G1 X95.096 Y120.285 E15.97963
G1 X94.659 Y120.117 F7800.000
G1 X95.096 Y120.235 F7800.000
G1 F1360.13
G1 X101.180 Y120.235 E16.18242
G1 X101.295 Y120.210 E16.18634
G1 F1360.13
G1 X101.526 Y120.160 E16.19474
G1 X101.569 Y119.943 E16.20264
G1 F1360.13
G1 X101.590 Y119.835 E16.20619
G1 X101.590 Y105.665 E16.66030
G1 F1360.13
G1 X101.526 Y105.339 E16.67206
G1 X101.295 Y105.290 E16.68039
G1 F1360.13
G1 X101.180 Y105.265 E16.68407
G1 X95.096 Y105.265 E16.87404
G1 X94.731 Y105.420 F7800.000
G1 F906.754
G1 X94.731 Y120.079 E16.93870
G1 Z5.750 F7800.000
G1 X94.822 Y120.360 F7800.000
G1 F682.287
G1 X94.116 Y120.360 E16.95325
G1 X94.116 Y105.140 E17.26694
G1 X94.822 Y105.140 E17.28149
G1 X94.822 Y120.285 E17.59363
G1 X94.385 Y120.116 F7800.000
G1 X94.822 Y120.235 F7800.000
G1 F1364.57
G1 X101.137 Y120.235 E17.79080
G1 F1364.57
G1 X101.311 Y120.197 E17.79690
G1 F1364.57
G1 X101.484 Y120.160 E17.80356
G1 X101.505 Y120.051 E17.80771
G1 F1364.57
G1 X101.548 Y119.835 E17.81521
G1 X101.548 Y105.665 E18.29626
G1 X101.527 Y105.556 E18.30000
G1 F1364.57
G1 X101.484 Y105.340 E18.30831
G1 X101.397 Y105.321 E18.31164
G1 F1364.57
G1 X101.224 Y105.283 E18.31773
G1 F1364.57
G1 X101.137 Y105.265 E18.32050
G1 X94.822 Y105.265 E18.51767
G1 X94.469 Y105.420 F7800.000
G1 F909.716
G1 X94.469 Y120.079 E18.56797
G1 Z6.050 F7800.000
G1 X94.561 Y120.360 F7800.000
G1 F684.402
G1 X93.877 Y120.360 E18.58207
G1 X93.877 Y105.140 E18.89576
G1 X94.561 Y105.140 E18.90986
G1 X94.561 Y120.285 E19.22200
G1 X94.125 Y120.116 F7800.000
G1 X94.561 Y120.235 F7800.000
G1 F1368.8
G1 X101.095 Y120.235 E19.42600
G1 F1368.8
G1 X101.269 Y120.197 E19.43212
G1 F1368.8
G1 X101.443 Y120.159 E19.43882
G1 X101.464 Y120.051 E19.44296
G1 F1368.8
G1 X101.507 Y119.835 E19.45046
G1 X101.507 Y105.665 E19.93236
G1 X101.486 Y105.557 E19.93611
G1 F1368.8
G1 X101.443 Y105.340 E19.94440
G1 X101.356 Y105.321 E19.94775
G1 F1368.8
G1 X101.182 Y105.284 E19.95387
G1 F1368.8
G1 X101.095 Y105.265 E19.95665
G1 X94.561 Y105.265 E20.16065
G1 X94.219 Y105.420 F7800.000
G1 F912.536
G1 X94.219 Y120.079 E20.19749
G1 Z6.350 F7800.000
G1 X94.313 Y120.360 F7800.000
G1 F686.461
G1 X93.649 Y120.360 E20.21117
G1 X93.649 Y105.140 E20.52486
G1 X94.313 Y105.140 E20.53855
G1 X94.313 Y120.285 E20.85069
G1 X93.876 Y120.116 F7800.000
G1 X94.313 Y120.235 F7800.000
G1 F1372.92
G1 X101.058 Y120.235 E21.06130
G1 F1372.92
G1 X101.233 Y120.197 E21.06744
G1 F1372.92
G1 X101.407 Y120.159 E21.07416
G1 X101.428 Y120.051 E21.07831
G1 F1372.92
G1 X101.471 Y119.835 E21.08581
G1 X101.471 Y105.665 E21.56849
G1 X101.449 Y105.557 E21.57224
G1 F1372.92
G1 X101.407 Y105.341 E21.58054
G1 X101.320 Y105.322 E21.58390
G1 F1372.92
G1 X101.145 Y105.284 E21.59004
G1 F1372.92
G1 X101.058 Y105.265 E21.59282
G1 X94.313 Y105.265 E21.80343
G1 X93.981 Y105.420 F7800.000
G1 F915.282
G1 X93.981 Y120.079 E21.82763
G1 Z6.650 F7800.000
G1 X94.075 Y120.360 F7800.000
G1 F688.424
G1 X93.430 Y120.360 E21.84092
G1 X93.430 Y105.140 E22.15461
G1 X94.075 Y105.140 E22.16789
G1 X94.075 Y120.285 E22.48004
G1 X93.639 Y120.116 F7800.000
G1 X94.075 Y120.235 F7800.000
G1 F1376.85
G1 X101.022 Y120.235 E22.69693
G1 F1376.85
G1 X101.197 Y120.196 E22.70309
G1 F1376.85
G1 X101.372 Y120.158 E22.70984
G1 X101.393 Y120.050 E22.71399
G1 F1376.85
G1 X101.435 Y119.835 E22.72149
G1 X101.435 Y105.665 E23.20498
G1 X101.414 Y105.557 E23.20873
G1 F1376.85
G1 X101.372 Y105.341 E23.21701
G1 X101.284 Y105.322 E23.22039
G1 F1376.85
G1 X101.110 Y105.284 E23.22656
G1 F1376.85
G1 X101.022 Y105.265 E23.22935
G1 X94.075 Y105.265 E23.44624
G1 X93.753 Y105.420 F7800.000
G1 F917.898
G1 X93.753 Y120.079 E23.45851
G1 Z6.950 F7800.000
G1 X93.848 Y120.360 F7800.000
G1 F600
G1 X93.222 Y120.360 E23.47142
G1 X93.222 Y105.140 E23.78511
G1 X93.848 Y105.140 E23.79803
G1 X93.848 Y120.285 E24.11017
G1 X93.412 Y120.116 F7800.000
G1 X93.848 Y120.235 F7800.000
G1 F1116.81
G1 X100.991 Y120.235 E24.33317
G1 F1116.81
G1 X101.166 Y120.196 E24.33935
G1 F1116.81
G1 X101.342 Y120.158 E24.34612
G1 X101.363 Y120.050 E24.35027
G1 F1116.81
G1 X101.405 Y119.835 E24.35777
G1 X101.405 Y105.665 E24.84185
G1 X101.384 Y105.557 E24.84560
G1 F1116.81
G1 X101.341 Y105.341 E24.85388
G1 X101.254 Y105.322 E24.85727
G1 F1116.81
G1 X101.079 Y105.284 E24.86345
G1 F1116.81
G1 X100.991 Y105.265 E24.86625
G1 X93.848 Y105.265 E25.08925
G1 Z7.250 F7800.000
