; generated by Slic3r 1.3.0 on 2019-01-19 at 15:07:13

; external perimeters extrusion width = 0.44mm (2.18mm^3/s)
; perimeters extrusion width = 0.56mm (5.69mm^3/s)
; infill extrusion width = 0.50mm (7.31mm^3/s)
; solid infill extrusion width = 0.56mm (2.07mm^3/s)
; top infill extrusion width = 0.56mm (1.55mm^3/s)

M107
M104 S200 ; set temperature
G28 ; home all axes
M150 B180 G210
M150 B180 G210
G92 E0
G1 E6 F1800
; Filament gcode

M109 S200 ; set temperature and wait for it to be reached
G21 ; set units to millimeters
G90 ; use absolute coordinates
M82 ; use absolute distances for extrusion
G92 E0
G1 Z0.250 F7800.000
G1 E-2.00000 F2400.00000
G92 E0
G1 X49.243 Y97.653 F7800.000
G1 E2.00000 F2400.00000
G1 F1800
G1 X87.756 Y84.329 E3.89063
G1 X89.863 Y83.975 E3.98978
G1 X113.463 Y83.975 E5.08465
G1 X115.665 Y84.363 E5.18835
G1 X152.333 Y97.686 E6.99828
G1 X154.940 Y99.451 E7.14435
G1 X155.419 Y99.988 E7.17774
G1 X155.997 Y100.739 E7.22169
G1 X156.399 Y101.401 E7.25761
G1 X156.547 Y101.679 E7.27221
G1 X156.948 Y102.563 E7.31727
G1 X157.243 Y103.403 E7.35858
G1 X157.475 Y104.295 E7.40132
G1 X157.604 Y105.033 E7.43609
G1 X157.740 Y106.206 E7.49087
G1 X157.783 Y106.965 E7.52615
G1 X157.781 Y107.519 E7.55185
G1 X157.712 Y108.592 E7.60170
G1 X157.554 Y109.673 E7.65241
G1 X157.447 Y110.192 E7.67696
G1 X157.163 Y111.321 E7.73099
G1 X156.189 Y113.448 E7.83952
G1 X155.636 Y114.237 E7.88421
G1 X154.977 Y115.032 E7.93214
G1 X154.349 Y115.676 E7.97386
G1 X152.511 Y116.995 E8.07881
G1 X149.732 Y117.625 E8.21103
G1 X55.679 Y117.625 E12.57437
G1 X53.452 Y117.228 E12.67931
G1 X51.500 Y116.086 E12.78426
G1 X50.109 Y114.423 E12.88485
G1 X45.779 Y106.989 E13.28394
G1 X45.002 Y104.865 E13.38889
G1 X45.006 Y102.603 E13.49383
G1 X45.791 Y100.481 E13.59878
G1 X47.261 Y98.762 E13.70372
G1 X49.190 Y97.682 E13.80630
G1 E11.80630 F2400.00000
G92 E0
G1 X145.161 Y109.996 F7800.000
G1 E2.00000 F2400.00000
G1 F1800
G1 X144.863 Y109.528 E2.02575
G1 X144.665 Y109.062 E2.04923
G1 X144.542 Y108.548 E2.07375
G1 X144.478 Y107.974 E2.10054
G1 X150.096 Y107.974 E2.36115
G1 X149.982 Y108.753 E2.39769
G1 X149.905 Y109.031 E2.41108
G1 X149.734 Y109.451 E2.43208
G1 X149.393 Y109.996 E2.46193
G1 X145.221 Y109.996 E2.65547
G1 X144.795 Y110.158 F7800.000
G1 X144.129 Y109.996 F7800.000
G1 F1800
G1 X141.168 Y109.996 E2.79285
G1 X141.253 Y109.324 E2.82428
G1 X141.278 Y108.762 E2.85036
G1 X141.278 Y104.928 E3.02824
G1 X144.016 Y104.928 E3.15529
G1 X143.764 Y105.628 E3.18983
G1 X143.625 Y106.166 E3.21560
G1 X143.530 Y106.735 E3.24237
G1 X143.478 Y107.412 E3.27386
G1 X143.498 Y107.897 E3.29636
G1 X143.557 Y108.362 E3.31813
G1 X143.646 Y108.769 E3.33747
G1 X143.768 Y109.156 E3.35629
G1 X144.106 Y109.941 E3.39590
G1 X144.179 Y110.393 F7800.000
G1 E1.39590 F2400.00000
G92 E0
G1 X140.116 Y109.996 F7800.000
G1 E2.00000 F2400.00000
G1 F1800
G1 X136.066 Y109.996 E2.18790
G1 X135.828 Y109.616 E2.20869
G1 X135.620 Y109.128 E2.23330
G1 X135.513 Y108.701 E2.25372
G1 X135.464 Y108.346 E2.27038
G1 X135.447 Y107.957 E2.28841
G1 X135.447 Y104.928 E2.42896
G1 X140.333 Y104.928 E2.65565
G1 X140.328 Y109.114 E2.84987
G1 X140.279 Y109.480 E2.86697
G1 X140.134 Y109.939 E2.88929
G1 X140.085 Y110.395 F7800.000
G1 E0.88929 F2400.00000
G92 E0
G1 X134.502 Y109.996 F7800.000
G1 E2.00000 F2400.00000
G1 F1800
G1 X131.680 Y109.996 E2.13090
G1 X132.041 Y109.106 E2.17544
G1 X132.208 Y108.443 E2.20715
G1 X132.278 Y107.922 E2.23158
G1 X132.301 Y107.373 E2.25707
G1 X132.286 Y106.933 E2.27745
G1 X132.246 Y106.546 E2.29550
G1 X132.159 Y106.070 E2.31796
G1 X132.042 Y105.650 E2.33819
G1 X131.765 Y104.928 E2.37409
G1 X134.502 Y104.928 E2.50107
G1 X134.502 Y109.936 E2.73340
G1 X134.567 Y110.390 F7800.000
G1 E0.73340 F2400.00000
G92 E0
G1 X131.110 Y110.212 F7800.000
G1 E2.00000 F2400.00000
G1 F1800
G1 X131.001 Y110.482 E2.01353
G1 X130.631 Y110.482 E2.03070
G1 X130.900 Y110.098 E2.05249
G1 X131.058 Y110.183 E2.06080
G1 E0.06080 F2400.00000
G92 E0
G1 X134.948 Y110.482 F7800.000
G1 E2.00000 F2400.00000
G1 F1800
G1 X134.948 Y109.235 E2.05786
G1 X135.162 Y109.191 E2.06801
G1 X135.431 Y109.824 E2.09989
G1 X135.844 Y110.482 E2.13596
G1 X135.008 Y110.482 E2.17477
G1 E0.17477 F2400.00000
G92 E0
G1 X125.926 Y110.482 F7800.000
G1 E2.00000 F2400.00000
G1 F1800
G1 X125.554 Y110.482 E2.01728
G1 X125.434 Y110.179 E2.03243
G1 X125.646 Y110.067 E2.04358
G1 X125.893 Y110.432 E2.06406
G1 X126.137 Y109.996 F7800.000
G1 F1800
G1 X125.797 Y109.491 E2.09229
G1 X125.653 Y109.204 E2.10717
G1 X125.522 Y108.870 E2.12382
G1 X125.378 Y108.317 E2.15036
G1 X125.320 Y107.889 E2.17037
G1 X125.297 Y107.375 E2.19427
G1 X125.313 Y106.946 E2.21415
G1 X125.353 Y106.582 E2.23118
G1 X125.428 Y106.199 E2.24925
G1 X125.608 Y105.647 E2.27621
G1 X125.712 Y105.418 E2.28786
G1 X126.003 Y104.928 E2.31432
G1 X130.573 Y104.928 E2.52633
G1 X130.916 Y105.542 E2.55898
G1 X131.126 Y106.141 E2.58842
G1 X131.191 Y106.435 E2.60240
G1 X131.249 Y106.858 E2.62220
G1 X131.272 Y107.373 E2.64609
G1 X131.257 Y107.795 E2.66571
G1 X131.216 Y108.166 E2.68301
G1 X131.142 Y108.544 E2.70089
G1 X131.045 Y108.875 E2.71689
G1 X130.883 Y109.276 E2.73695
G1 X130.734 Y109.558 E2.75174
G1 X130.427 Y109.996 E2.77657
G1 X126.197 Y109.996 E2.97280
G1 X125.773 Y110.161 F7800.000
G1 X124.881 Y109.996 F7800.000
G1 F1800
G1 X115.482 Y109.996 E3.40884
G1 X115.744 Y109.421 E3.43816
G1 X115.888 Y109.010 E3.45833
G1 X115.995 Y108.581 E3.47886
G1 X116.089 Y108.009 E3.50573
G1 X116.133 Y107.491 E3.52988
G1 X116.134 Y107.199 E3.54344
G1 X113.213 Y107.199 E3.67892
G1 X113.213 Y104.928 E3.78427
G1 X114.785 Y104.928 E3.85718
G1 X115.013 Y105.526 E3.88687
G1 X115.924 Y105.526 E3.92911
G1 X115.765 Y104.928 E3.95781
G1 X124.800 Y104.928 E4.37693
G1 X124.527 Y105.650 E4.41275
G1 X124.426 Y106.005 E4.42987
G1 X124.356 Y106.338 E4.44564
G1 X124.291 Y106.826 E4.46850
G1 X124.268 Y107.375 E4.49399
G1 X124.280 Y107.778 E4.51269
G1 X124.318 Y108.168 E4.53087
G1 X124.403 Y108.648 E4.55350
G1 X124.527 Y109.105 E4.57545
G1 X124.859 Y109.940 E4.61714
G1 X124.926 Y110.393 F7800.000
G1 E2.61714 F2400.00000
G92 E0
G1 X115.144 Y107.974 F7800.000
G1 E2.00000 F2400.00000
G1 F1800
G1 X115.030 Y108.753 E2.03655
G1 X114.953 Y109.031 E2.04993
G1 X114.782 Y109.451 E2.07093
G1 X114.441 Y109.996 E2.10079
G1 X110.209 Y109.996 E2.29711
G1 X109.910 Y109.527 E2.32289
G1 X109.554 Y108.672 E2.36589
G1 X113.213 Y108.672 E2.53568
G1 X113.213 Y107.974 E2.56806
G1 X115.084 Y107.974 E2.65483
G1 X115.544 Y107.966 F7800.000
G1 E0.65483 F2400.00000
G92 E0
G1 X112.360 Y107.645 F7800.000
G1 E2.00000 F2400.00000
G1 F1800
G1 X112.360 Y101.364 E2.29137
G1 X112.767 Y101.362 E2.31027
G1 X112.767 Y108.225 E2.62865
G1 X108.911 Y108.225 E2.80755
G1 X108.956 Y107.645 E2.83455
G1 X112.300 Y107.645 E2.98970
G1 X111.913 Y107.199 F7800.000
G1 F1800
G1 X109.546 Y107.199 E3.09952
G1 X109.574 Y106.428 E3.13528
G1 X109.624 Y106.099 E3.15074
G1 X109.702 Y105.779 E3.16603
G1 X109.839 Y105.408 E3.18436
G1 X110.108 Y104.928 E3.20989
G1 X111.913 Y104.928 E3.29366
G1 X111.913 Y107.139 E3.39623
G1 X112.002 Y107.589 F7800.000
G1 E1.39623 F2400.00000
G92 E0
G1 X112.360 Y97.978 F7800.000
G1 E2.00000 F2400.00000
G1 F1800
G1 X112.360 Y91.118 E2.31826
G1 X112.767 Y91.118 E2.33715
G1 X112.767 Y97.980 E2.65548
G1 X112.420 Y97.978 E2.67160
G1 E0.67160 F2400.00000
G92 E0
G1 X109.064 Y104.928 F7800.000
G1 E2.00000 F2400.00000
G1 F1800
G1 X108.812 Y105.628 E2.03454
G1 X108.673 Y106.166 E2.06032
G1 X108.578 Y106.735 E2.08709
G1 X108.514 Y107.572 E2.12599
G1 X95.695 Y107.572 E2.72066
G1 X95.716 Y106.865 E2.75344
G1 X95.763 Y106.463 E2.77224
G1 X95.853 Y106.016 E2.79337
G1 X96.049 Y105.436 E2.82178
G1 X96.318 Y104.928 E2.84847
G1 X100.780 Y104.928 E3.05546
G1 X101.021 Y105.475 E3.08320
G1 X101.140 Y105.951 E3.10595
G1 X102.118 Y105.951 E3.15130
G1 X102.013 Y105.530 E3.17140
G1 X101.812 Y104.928 E3.20086
G1 X109.004 Y104.928 E3.53449
G1 X109.456 Y105.008 F7800.000
G1 E1.53449 F2400.00000
G92 E0
G1 X108.663 Y108.672 F7800.000
G1 E2.00000 F2400.00000
G1 F1800
G1 X108.816 Y109.156 E2.02359
G1 X109.177 Y109.996 E2.06598
G1 X101.879 Y109.996 E2.40456
G1 X102.054 Y109.297 E2.43796
G1 X102.150 Y108.672 E2.46734
G1 X108.603 Y108.672 E2.76671
G1 X109.052 Y108.578 F7800.000
G1 E0.76671 F2400.00000
G92 E0
G1 X101.354 Y110.257 F7800.000
G1 E2.00000 F2400.00000
G1 F1800
G1 X101.297 Y110.482 E2.01076
G1 X100.970 Y110.482 E2.02593
G1 X101.131 Y110.173 E2.04210
G1 X101.298 Y110.236 E2.05037
G1 X100.720 Y109.996 F7800.000
G1 F1800
G1 X96.468 Y109.996 E2.24764
G1 X96.174 Y109.531 E2.27316
G1 X95.812 Y108.672 E2.31640
G1 X101.194 Y108.672 E2.56606
G1 X101.019 Y109.348 E2.59849
G1 X100.921 Y109.608 E2.61136
G1 X100.748 Y109.943 E2.62885
G1 X100.662 Y110.392 F7800.000
G1 E0.62885 F2400.00000
G92 E0
G1 X90.560 Y104.441 F7800.000
G1 E2.00000 F2400.00000
G1 F1800
G1 X90.560 Y91.118 E2.61810
G1 X90.967 Y91.118 E2.63700
G1 X90.967 Y108.225 E3.43065
G1 X90.187 Y108.225 E3.46685
G1 X90.187 Y104.441 E3.64240
G1 X90.500 Y104.441 E3.65692
G1 E1.65692 F2400.00000
G92 E0
G1 X90.856 Y108.672 F7800.000
G1 E2.00000 F2400.00000
G1 F1800
G1 X94.815 Y108.672 E2.18366
G1 X95.000 Y109.301 E2.21410
G1 X95.292 Y109.996 E2.24907
G1 X91.763 Y109.996 E2.41282
G1 X91.458 Y109.677 E2.43326
G1 X91.312 Y109.481 E2.44464
G1 X90.885 Y108.724 E2.48494
G1 X90.784 Y108.278 F7800.000
G1 X90.187 Y108.801 F7800.000
G1 F1800
G1 X90.387 Y108.748 E2.49453
G1 X90.937 Y109.725 E2.54652
G1 X91.117 Y109.966 E2.56050
G1 X91.611 Y110.482 E2.59363
G1 X90.187 Y110.482 E2.65968
G1 X90.187 Y108.861 E2.73491
G1 X91.413 Y107.572 F7800.000
G1 F1800
G1 X91.413 Y104.928 E2.85757
G1 X95.147 Y104.928 E3.03079
G1 X94.923 Y105.535 E3.06081
G1 X94.768 Y106.158 E3.09062
G1 X94.697 Y106.679 E3.11500
G1 X94.662 Y107.572 E3.15644
G1 X91.473 Y107.572 E3.30438
G1 X91.015 Y107.607 F7800.000
G1 E1.30438 F2400.00000
G92 E0
G1 X89.741 Y109.996 F7800.000
G1 E2.00000 F2400.00000
G1 F1800
G1 X87.040 Y109.996 E2.12528
G1 X87.048 Y104.928 E2.36040
G1 X89.741 Y104.928 E2.48532
G1 X89.741 Y109.936 E2.71766
G1 X89.805 Y110.390 F7800.000
G1 E0.71766 F2400.00000
G92 E0
G1 X86.601 Y105.213 F7800.000
G1 E2.00000 F2400.00000
G1 F1800
G1 X86.391 Y105.259 E2.00997
G1 X86.011 Y104.441 E2.05180
G1 X86.602 Y104.441 E2.07923
G1 X86.601 Y105.153 E2.11223
G1 X85.745 Y104.928 F7800.000
G1 F1800
G1 X86.006 Y105.489 E2.14095
G1 X86.090 Y105.843 E2.15782
G1 X86.106 Y107.973 E2.25666
G1 X85.519 Y107.616 E2.28853
G1 X85.085 Y107.474 E2.30974
G1 X83.191 Y107.186 E2.39858
G1 X82.816 Y107.112 E2.41635
G1 X82.528 Y107.029 E2.43024
G1 X82.086 Y106.843 E2.45248
G1 X81.930 Y106.749 E2.46094
G1 X81.678 Y106.545 E2.47597
G1 X81.513 Y106.361 E2.48745
G1 X81.381 Y106.153 E2.49886
G1 X81.253 Y105.767 E2.51773
G1 X81.219 Y105.469 E2.53164
G1 X81.229 Y104.928 E2.55676
G1 X85.685 Y104.928 E2.76346
G1 X86.123 Y104.798 F7800.000
G1 E0.76346 F2400.00000
G92 E0
G1 X86.015 Y109.996 F7800.000
G1 E2.00000 F2400.00000
G1 F1800
G1 X81.676 Y109.996 E2.20131
G1 X81.518 Y109.452 E2.22757
G1 X81.499 Y109.290 E2.23516
G1 X80.540 Y109.290 E2.27968
G1 X80.665 Y109.996 E2.31295
G1 X78.014 Y109.996 E2.43596
G1 X78.276 Y109.421 E2.46528
G1 X78.420 Y109.010 E2.48546
G1 X78.527 Y108.581 E2.50598
G1 X78.621 Y108.001 E2.53325
G1 X78.665 Y107.491 E2.55701
G1 X78.666 Y107.199 E2.57056
G1 X72.078 Y107.199 E2.87617
G1 X72.106 Y106.428 E2.91193
G1 X72.156 Y106.099 E2.92740
G1 X72.234 Y105.779 E2.94268
G1 X72.371 Y105.408 E2.96101
G1 X72.640 Y104.928 E2.98655
G1 X77.317 Y104.928 E3.20353
G1 X77.545 Y105.526 E3.23322
G1 X78.456 Y105.526 E3.27547
G1 X78.297 Y104.928 E3.30416
G1 X80.183 Y104.928 E3.39162
G1 X80.201 Y105.572 E3.42152
G1 X80.275 Y106.003 E3.44179
G1 X80.363 Y106.251 E3.45403
G1 X80.522 Y106.538 E3.46926
G1 X80.626 Y106.680 E3.47740
G1 X80.869 Y106.932 E3.49366
G1 X81.004 Y107.039 E3.50163
G1 X81.435 Y107.289 E3.52478
G1 X81.890 Y107.458 E3.54727
G1 X82.414 Y107.593 E3.57236
G1 X82.956 Y107.705 E3.59805
G1 X84.592 Y107.957 E3.67483
G1 X85.056 Y108.060 E3.69688
G1 X85.437 Y108.198 E3.71572
G1 X85.794 Y108.431 E3.73547
G1 X85.922 Y108.569 E3.74419
G1 X86.043 Y108.790 E3.75592
G1 X86.101 Y109.002 E3.76608
G1 X86.120 Y109.239 E3.77712
G1 X86.110 Y109.472 E3.78793
G1 X86.026 Y109.937 E3.80986
G1 X85.997 Y110.395 F7800.000
G1 E1.80986 F2400.00000
G92 E0
G1 X77.676 Y107.974 F7800.000
G1 E2.00000 F2400.00000
G1 F1800
G1 X77.562 Y108.753 E2.03655
G1 X77.485 Y109.031 E2.04993
G1 X77.314 Y109.451 E2.07093
G1 X76.973 Y109.996 E2.10079
G1 X72.741 Y109.996 E2.29711
G1 X72.443 Y109.528 E2.32285
G1 X72.245 Y109.062 E2.34634
G1 X72.122 Y108.548 E2.37086
G1 X72.058 Y107.974 E2.39765
G1 X77.616 Y107.974 E2.65547
G1 X78.075 Y107.999 F7800.000
G1 E0.65547 F2400.00000
G92 E0
G1 X71.709 Y109.996 F7800.000
G1 E2.00000 F2400.00000
G1 F1800
G1 X71.348 Y109.156 E2.04240
G1 X71.226 Y108.770 E2.06122
G1 X71.137 Y108.362 E2.08056
G1 X71.078 Y107.897 E2.10233
G1 X71.058 Y107.412 E2.12483
G1 X71.110 Y106.735 E2.15632
G1 X71.205 Y106.166 E2.18308
G1 X71.344 Y105.628 E2.20886
G1 X71.596 Y104.928 E2.24340
G1 X52.328 Y104.928 E3.13728
G1 X51.785 Y103.995 E3.18736
G1 X90.113 Y103.995 E4.96553
G1 X90.113 Y90.672 E5.58363
G1 X113.213 Y90.672 E6.65530
G1 X113.213 Y98.725 E7.02891
G1 X112.944 Y98.494 E7.04536
G1 X112.757 Y98.426 E7.05460
G1 X111.913 Y98.423 E7.09373
G1 X111.913 Y91.772 E7.40229
G1 X91.413 Y91.772 E8.35334
G1 X91.413 Y103.995 E8.92041
G1 X111.913 Y103.995 E9.87146
G1 X111.913 Y100.920 E10.01410
G1 X112.765 Y100.916 E10.05359
G1 X112.945 Y100.848 E10.06254
G1 X113.213 Y100.618 E10.07892
G1 X113.213 Y103.995 E10.23557
G1 X149.988 Y103.995 E11.94162
G1 X150.300 Y104.532 E11.97044
G1 X150.466 Y104.532 E11.97814
G1 X150.633 Y104.821 E11.99363
G1 X150.768 Y105.143 E12.00983
G1 X150.891 Y105.526 E12.02849
G1 X149.965 Y105.526 E12.07146
G1 X149.737 Y104.928 E12.10115
G1 X145.060 Y104.928 E12.31814
G1 X144.791 Y105.408 E12.34367
G1 X144.654 Y105.779 E12.36200
G1 X144.576 Y106.099 E12.37729
G1 X144.526 Y106.428 E12.39275
G1 X144.498 Y107.199 E12.42851
G1 X151.086 Y107.199 E12.73412
G1 X151.085 Y107.491 E12.74767
G1 X151.041 Y108.009 E12.77183
G1 X150.947 Y108.581 E12.79870
G1 X150.840 Y109.010 E12.81923
G1 X150.696 Y109.421 E12.83940
G1 X150.498 Y109.856 E12.86160
G1 X150.228 Y110.284 E12.88508
G1 X150.145 Y110.284 E12.88894
G1 X149.614 Y110.929 E12.92767
G1 X55.823 Y110.929 E17.27887
G1 X55.280 Y109.996 E17.32895
G1 X71.649 Y109.996 E18.08838
G1 X72.093 Y109.881 F7800.000
G1 E16.08838 F2400.00000
G92 E0
G1 X113.213 Y99.054 F7800.000
G1 E2.00000 F2400.00000
G1 F1800
G1 X113.213 Y100.289 E2.05731
G1 E0.05731 F2400.00000
G92 E0
G1 X117.893 Y108.144 F7800.000
G1 E2.00000 F2400.00000
G1 F1800
G1 X117.893 Y107.284 E2.03990
G1 X122.306 Y107.284 E2.24463
G1 X122.306 Y108.144 E2.28453
G1 X117.953 Y108.144 E2.48647
G1 X118.070 Y107.785 F7800.000
G1 X118.116 Y107.714 F7800.000
G1 F1800
G1 X122.082 Y107.714 E2.63490
G1 E0.63490 F2400.00000
G92 E0
G1 X125.143 Y105.449 F7800.000
G1 E2.00000 F2400.00000
G1 F1800
G1 X124.940 Y106.054 E2.03388
G1 X124.850 Y106.493 E2.05763
G1 X124.801 Y106.919 E2.08043
G1 X124.783 Y107.378 E2.10479
G1 X124.796 Y107.745 E2.12427
G1 X124.876 Y108.398 E2.15922
G1 X125.013 Y108.943 E2.18903
G1 X125.187 Y109.398 E2.21491
G1 X125.425 Y109.931 E2.24588
G1 X125.306 Y110.462 F7800.000
G1 F1800
G1 X115.135 Y110.462 E2.70343
G1 X115.063 Y110.441 E2.70677
G1 F1800
G1 X114.921 Y110.400 E2.71474
G1 F1800
G1 X114.850 Y110.379 E2.71937
G1 F1800
G1 X114.743 Y110.413 E2.72632
G1 F1800
G1 X114.564 Y110.462 E2.73662
G1 F1800
G1 X110.086 Y110.462 E2.93805
G1 X109.997 Y110.438 E2.94220
G1 F1800
G1 X109.819 Y110.389 E2.95238
G1 F1800
G1 X109.801 Y110.379 E2.95368
G1 F1800
G1 X109.659 Y110.421 E2.96292
G1 F1800
G1 X109.516 Y110.462 E2.97088
G1 F1800
G1 X101.532 Y110.462 E3.33003
G1 X101.332 Y110.011 F7800.000
G1 F1800
G1 X101.496 Y109.484 E3.35808
G1 X101.640 Y108.854 E3.39096
G1 F1800
G1 X101.720 Y108.412 E3.41097
G1 F1800
G1 X101.720 Y108.330 E3.41537
G1 F1800
G1 X101.720 Y108.247 E3.42050
G1 F1800
G1 X101.720 Y108.165 E3.42638
G1 X101.601 Y108.143 E3.43502
G1 F1800
G1 X101.482 Y108.122 E3.44258
G1 X95.466 Y108.122 E3.81788
G1 F1800
