; generated by Slic3r 1.3.0 on 2019-01-13 at 15:10:33

; external perimeters extrusion width = 0.44mm (2.18mm^3/s)
; perimeters extrusion width = 0.56mm (5.69mm^3/s)
; infill extrusion width = 0.50mm (7.31mm^3/s)
; solid infill extrusion width = 0.56mm (2.07mm^3/s)
; top infill extrusion width = 0.56mm (1.55mm^3/s)

M107
M104 S200 ; set temperature
"G28 ; home all axes
M150 B180 G210
M150 B180 G210
G92 E0
G1 E6 F1800"
; Filament gcode

M109 S200 ; set temperature and wait for it to be reached
G21 ; set units to millimeters
G90 ; use absolute coordinates
M82 ; use absolute distances for extrusion
G92 E0
G1 Z0.250 F7800.000
G1 E-2.00000 F2400.00000
G92 E0
G1 X130.361 Y86.236 F7800.000
G1 E2.00000 F2400.00000
G1 F1800
G1 X132.107 Y84.798 E2.10494
G1 X135.268 Y83.970 E2.25657
G1 X158.868 Y83.970 E3.35143
G1 X161.095 Y84.366 E3.45638
G1 X163.048 Y85.508 E3.56132
G1 X164.486 Y87.254 E3.66627
G1 X165.315 Y90.416 E3.81789
G1 X165.315 Y108.916 E4.67615
G1 X164.918 Y111.143 E4.78110
G1 X163.776 Y113.096 E4.88604
G1 X162.030 Y114.534 E4.99099
G1 X158.868 Y115.362 E5.14261
G1 X135.268 Y115.362 E6.23748
G1 X133.041 Y114.965 E6.34242
G1 X131.089 Y113.824 E6.44737
G1 X129.650 Y112.077 E6.55231
G1 X128.822 Y108.916 E6.70393
G1 X128.822 Y90.416 E7.56220
G1 X129.219 Y88.189 E7.66714
G1 X130.330 Y86.288 E7.76930
G1 E5.76930 F2400.00000
G92 E0
G1 X136.372 Y108.220 F7800.000
G1 E2.00000 F2400.00000
G1 F1800
G1 X135.965 Y108.220 E2.01890
G1 X135.965 Y91.112 E2.81255
G1 X136.372 Y91.112 E2.83144
G1 X136.372 Y108.160 E3.62231
G1 E1.62231 F2400.00000
G92 E0
G1 X157.765 Y108.220 F7800.000
G1 E2.00000 F2400.00000
G1 F1800
G1 X157.765 Y101.359 E2.31829
G1 X158.172 Y101.357 E2.33718
G1 X158.172 Y108.220 E2.65557
G1 X157.825 Y108.220 E2.67168
G1 E0.67168 F2400.00000
G92 E0
G1 X157.765 Y97.972 F7800.000
G1 E2.00000 F2400.00000
G1 F1800
G1 X157.765 Y91.112 E2.31826
G1 X158.172 Y91.112 E2.33715
G1 X158.172 Y97.974 E2.65548
G1 X157.825 Y97.973 E2.67160
G1 E0.67160 F2400.00000
G92 E0
G1 X157.318 Y91.766 F7800.000
G1 E2.00000 F2400.00000
G1 F1800
G1 X136.818 Y91.766 E2.95105
G1 X136.818 Y107.566 E3.68405
G1 X157.318 Y107.566 E4.63510
G1 X157.318 Y100.915 E4.94367
G1 X158.169 Y100.910 E4.98316
G1 X158.350 Y100.843 E4.99211
G1 X158.618 Y100.613 E5.00850
G1 X158.618 Y108.666 E5.38210
G1 X135.518 Y108.666 E6.45377
G1 X135.518 Y90.666 E7.28884
G1 X158.618 Y90.666 E8.36051
G1 X158.618 Y98.716 E8.73399
G1 X158.342 Y98.484 E8.75075
G1 X158.161 Y98.420 E8.75965
G1 X157.318 Y98.417 E8.79873
G1 X157.318 Y91.826 E9.10450
G1 X157.302 Y91.366 F7800.000
G1 E7.10450 F2400.00000
G92 E0
G1 X158.618 Y99.043 F7800.000
G1 E2.00000 F2400.00000
G1 F1800
G1 X158.618 Y100.284 E2.05758
G1 E0.05758 F2400.00000
G92 E0
G1 X157.542 Y108.116 F7800.000
G1 E2.00000 F2400.00000
G1 F1800
G1 X136.595 Y108.116 E3.30627
G1 E1.30627 F2400.00000
G92 E0
G1 X136.595 Y91.216 F7800.000
G1 E2.00000 F2400.00000
G1 F1800
G1 X157.542 Y91.216 E3.30627
M104 S170 ; set temperature
G1 Z0.450 F7800.000
G1 X136.391 Y91.093 F7800.000
G1 F900
G1 X136.391 Y108.239 E4.04347
G1 X135.945 Y108.239 E4.06263
G1 X135.945 Y91.093 E4.79983
G1 X136.331 Y91.093 E4.81642
G1 E2.81642 F2400.00000
G92 E0
G1 X157.745 Y101.339 F7800.000
G1 E2.00000 F2400.00000
G1 F900
G1 X158.191 Y101.336 E2.01917
G1 X158.191 Y108.239 E2.31595
G1 X157.745 Y108.239 E2.33512
G1 X157.745 Y101.399 E2.62921
G1 E0.62921 F2400.00000
G92 E0
G1 X157.745 Y97.991 F7800.000
G1 E2.00000 F2400.00000
G1 F900
G1 X157.745 Y91.093 E2.29658
G1 X158.191 Y91.093 E2.31575
G1 X158.191 Y97.993 E2.61240
G1 X157.805 Y97.991 E2.62899
G1 X157.288 Y91.796 F7800.000
G1 F1650
G1 X136.848 Y91.796 E3.30386
G1 X136.848 Y107.536 E3.82356
G1 X157.288 Y107.536 E4.49843
G1 X157.288 Y100.885 E4.71804
G1 X158.172 Y100.879 E4.74720
G1 X158.343 Y100.811 E4.75329
G1 X158.648 Y100.539 E4.76679
G1 X158.648 Y108.696 E5.03609
G1 X135.488 Y108.696 E5.80077
G1 X135.488 Y90.636 E6.39706
G1 X158.648 Y90.636 E7.16174
G1 X158.648 Y98.782 E7.43071
G1 X158.320 Y98.507 E7.44487
G1 X158.148 Y98.449 E7.45086
G1 X157.288 Y98.447 E7.47923
G1 X157.288 Y91.856 E7.69684
G1 X157.271 Y91.396 F7800.000
G1 X158.618 Y99.044 F7800.000
G1 F1650
G1 X158.618 Y100.272 E7.74349
G1 X157.517 Y108.116 F7800.000
G1 F1200
G1 X136.620 Y108.116 E8.89031
G1 X136.620 Y91.216 F7800.000
G1 F1200
G1 X157.517 Y91.216 E10.03713
G1 Z0.650 F7800.000
G1 X136.391 Y91.093 F7800.000
G1 F900
G1 X136.391 Y108.239 E10.77433
G1 X135.945 Y108.239 E10.79349
G1 X135.945 Y91.093 E11.53069
G1 X136.331 Y91.093 E11.54728
G1 E9.54728 F2400.00000
G92 E0
G1 X157.745 Y101.338 F7800.000
G1 E2.00000 F2400.00000
G1 F900
G1 X158.191 Y101.335 E2.01917
G1 X158.191 Y108.239 E2.31600
G1 X157.745 Y108.239 E2.33517
G1 X157.745 Y101.398 E2.62928
G1 E0.62928 F2400.00000
G92 E0
G1 X157.745 Y97.991 F7800.000
G1 E2.00000 F2400.00000
G1 F900
G1 X157.745 Y91.093 E2.29657
G1 X158.191 Y91.093 E2.31574
G1 X158.191 Y97.992 E2.61235
G1 X157.805 Y97.991 E2.62894
G1 X157.288 Y91.796 F7800.000
G1 F1650
G1 X136.848 Y91.796 E3.30382
G1 X136.848 Y107.536 E3.82351
G1 X157.288 Y107.536 E4.49838
G1 X157.288 Y100.884 E4.71800
G1 X158.178 Y100.878 E4.74739
G1 X158.350 Y100.807 E4.75353
G1 X158.648 Y100.532 E4.76691
G1 X158.648 Y108.696 E5.03644
G1 X135.488 Y108.696 E5.80112
G1 X135.488 Y90.636 E6.39742
G1 X158.648 Y90.636 E7.16210
G1 X158.648 Y98.784 E7.43111
G1 X158.314 Y98.503 E7.44552
G1 X158.141 Y98.449 E7.45151
G1 X157.288 Y98.446 E7.47966
G1 X157.288 Y91.856 E7.69726
G1 X157.271 Y91.396 F7800.000
G1 X158.618 Y99.046 F7800.000
G1 F1650
G1 X158.618 Y100.261 E7.74346
G1 X157.517 Y108.116 F7800.000
G1 F1200
G1 X136.620 Y108.116 E8.89028
G1 X136.620 Y91.216 F7800.000
G1 F1200
G1 X157.517 Y91.216 E10.03710
M106 S232.05
G1 Z0.850 F7800.000
G1 X136.391 Y91.093 F7800.000
G1 F900
G1 X136.391 Y108.239 E10.77429
G1 X135.945 Y108.239 E10.79346
G1 X135.945 Y91.093 E11.53065
G1 X136.331 Y91.093 E11.54724
G1 E9.54724 F2400.00000
G92 E0
G1 X157.745 Y101.338 F7800.000
G1 E2.00000 F2400.00000
G1 F900
G1 X158.191 Y101.334 E2.01917
G1 X158.191 Y108.239 E2.31605
G1 X157.745 Y108.239 E2.33521
G1 X157.745 Y101.398 E2.62936
G1 E0.62936 F2400.00000
G92 E0
G1 X157.745 Y97.990 F7800.000
G1 E2.00000 F2400.00000
G1 F900
G1 X157.745 Y91.093 E2.29655
G1 X158.191 Y91.093 E2.31572
G1 X158.191 Y97.991 E2.61231
G1 X157.805 Y97.990 E2.62890
G1 X157.288 Y91.796 F7800.000
G1 F1650
G1 X136.848 Y91.796 E3.30377
G1 X136.848 Y107.536 E3.82346
G1 X157.288 Y107.536 E4.49834
G1 X157.288 Y100.884 E4.71796
G1 X158.185 Y100.877 E4.74758
G1 X158.357 Y100.802 E4.75378
G1 X158.648 Y100.525 E4.76703
G1 X158.648 Y108.696 E5.03680
G1 X135.488 Y108.696 E5.80148
G1 X135.488 Y90.636 E6.39777
G1 X158.648 Y90.636 E7.16245
G1 X158.648 Y98.785 E7.43151
G1 X158.308 Y98.500 E7.44617
G1 X158.134 Y98.448 E7.45217
G1 X157.288 Y98.446 E7.48009
G1 X157.288 Y91.856 E7.69769
G1 X157.271 Y91.396 F7800.000
G1 X158.618 Y99.047 F7800.000
G1 F1650
G1 X158.618 Y100.250 E7.74342
G1 X157.517 Y108.116 F7800.000
G1 F1200
G1 X136.620 Y108.116 E8.89024
G1 X136.620 Y91.216 F7800.000
G1 F1200
G1 X157.517 Y91.216 E10.03707
G1 Z1.050 F7800.000
G1 X136.391 Y91.093 F7800.000
G1 F900
G1 X136.391 Y108.239 E10.77426
G1 X135.945 Y108.239 E10.79343
G1 X135.945 Y91.093 E11.53062
G1 X136.331 Y91.093 E11.54721
G1 E9.54721 F2400.00000
G92 E0
G1 X157.745 Y101.337 F7800.000
G1 E2.00000 F2400.00000
G1 F900
G1 X158.191 Y101.333 E2.01917
G1 X158.191 Y108.239 E2.31609
G1 X157.745 Y108.239 E2.33526
G1 X157.745 Y101.397 E2.62943
G1 E0.62943 F2400.00000
G92 E0
G1 X157.745 Y97.990 F7800.000
G1 E2.00000 F2400.00000
G1 F900
G1 X157.745 Y91.093 E2.29653
G1 X158.191 Y91.093 E2.31570
G1 X158.191 Y97.990 E2.61226
G1 X157.805 Y97.990 E2.62885
G1 X157.288 Y91.796 F7800.000
G1 F1650
G1 X136.848 Y91.796 E3.30372
G1 X136.848 Y107.536 E3.82341
G1 X157.288 Y107.536 E4.49829
G1 X157.288 Y100.884 E4.71792
G1 X158.192 Y100.876 E4.74776
G1 X158.365 Y100.797 E4.75402
G1 X158.648 Y100.518 E4.76715
G1 X158.648 Y108.696 E5.03715
G1 X135.488 Y108.696 E5.80183
G1 X135.488 Y90.636 E6.39812
G1 X158.648 Y90.636 E7.16280
G1 X158.648 Y98.786 E7.43191
G1 X158.302 Y98.496 E7.44682
G1 X158.127 Y98.447 E7.45282
G1 X157.288 Y98.446 E7.48052
G1 X157.288 Y91.856 E7.69811
G1 X157.272 Y91.396 F7800.000
G1 X158.618 Y99.048 F7800.000
G1 F1650
G1 X158.618 Y100.240 E7.74338
G1 X157.517 Y108.116 F7800.000
G1 F1200
G1 X136.620 Y108.116 E8.89021
G1 X136.620 Y91.216 F7800.000
G1 F1200
G1 X157.517 Y91.216 E10.03703
G1 Z1.250 F7800.000
G1 X136.391 Y91.093 F7800.000
G1 F900
G1 X136.391 Y108.239 E10.77422
G1 X135.945 Y108.239 E10.79339
G1 X135.945 Y91.093 E11.53058
G1 X136.331 Y91.093 E11.54717
G1 E9.54717 F2400.00000
G92 E0
G1 X157.745 Y101.337 F7800.000
G1 E2.00000 F2400.00000
G1 F900
G1 X158.191 Y101.332 E2.01917
G1 X158.191 Y108.239 E2.31612
G1 X157.745 Y108.239 E2.33529
G1 X157.745 Y101.397 E2.62947
G1 E0.62947 F2400.00000
G92 E0
G1 X157.745 Y97.990 F7800.000
G1 E2.00000 F2400.00000
G1 F900
G1 X157.745 Y91.093 E2.29652
G1 X158.191 Y91.093 E2.31569
G1 X158.191 Y97.990 E2.61223
G1 X157.805 Y97.990 E2.62882
G1 X157.288 Y91.796 F7800.000
G1 F1650
G1 X136.848 Y91.796 E3.30370
G1 X136.848 Y107.536 E3.82339
G1 X157.288 Y107.536 E4.49826
G1 X157.288 Y100.884 E4.71790
G1 X158.196 Y100.875 E4.74786
G1 X158.369 Y100.795 E4.75415
G1 X158.648 Y100.515 E4.76722
G1 X158.648 Y108.696 E5.03733
G1 X135.488 Y108.696 E5.80201
G1 X135.488 Y90.636 E6.39831
G1 X158.648 Y90.636 E7.16299
G1 X158.648 Y98.787 E7.43212
G1 X158.299 Y98.494 E7.44717
G1 X158.124 Y98.447 E7.45317
G1 X157.288 Y98.446 E7.48075
G1 X157.288 Y91.856 E7.69834
G1 X157.272 Y91.396 F7800.000
G1 X158.618 Y99.049 F7800.000
G1 F1650
G1 X158.618 Y100.234 E7.74336
G1 X157.517 Y108.116 F7800.000
G1 F1200
G1 X136.620 Y108.116 E8.89018
G1 X136.620 Y91.216 F7800.000
G1 F1200
G1 X157.517 Y91.216 E10.03700
G1 Z1.450 F7800.000
G1 X136.391 Y91.093 F7800.000
G1 F900
G1 X136.391 Y108.239 E10.77419
G1 X135.945 Y108.239 E10.79336
G1 X135.945 Y91.093 E11.53056
G1 X136.331 Y91.093 E11.54714
G1 E9.54714 F2400.00000
G92 E0
G1 X157.745 Y101.337 F7800.000
G1 E2.00000 F2400.00000
G1 F900
G1 X158.191 Y101.332 E2.01917
G1 X158.191 Y108.239 E2.31612
G1 X157.745 Y108.239 E2.33529
G1 X157.745 Y101.397 E2.62947
G1 E0.62947 F2400.00000
G92 E0
G1 X157.745 Y97.990 F7800.000
G1 E2.00000 F2400.00000
G1 F900
G1 X157.745 Y91.093 E2.29652
G1 X158.191 Y91.093 E2.31569
G1 X158.191 Y97.990 E2.61223
G1 X157.805 Y97.990 E2.62882
G1 X157.288 Y91.796 F7800.000
G1 F1650
G1 X136.848 Y91.796 E3.30370
G1 X136.848 Y107.536 E3.82339
G1 X157.288 Y107.536 E4.49826
G1 X157.288 Y100.884 E4.71790
G1 X158.196 Y100.875 E4.74786
G1 X158.369 Y100.795 E4.75415
G1 X158.648 Y100.515 E4.76722
G1 X158.648 Y108.696 E5.03733
G1 X135.488 Y108.696 E5.80201
G1 X135.488 Y90.636 E6.39831
G1 X158.648 Y90.636 E7.16299
G1 X158.648 Y98.787 E7.43212
G1 X158.299 Y98.494 E7.44717
G1 X158.124 Y98.447 E7.45317
G1 X157.288 Y98.446 E7.48075
G1 X157.288 Y91.856 E7.69834
G1 X157.272 Y91.396 F7800.000
G1 X158.618 Y99.049 F7800.000
G1 F1650
G1 X158.618 Y100.234 E7.74336
G1 X157.517 Y108.116 F7800.000
G1 F1200
G1 X136.620 Y108.116 E8.89018
G1 X136.620 Y91.216 F7800.000
G1 F1200
G1 X157.517 Y91.216 E10.03700
G1 Z1.650 F7800.000
G1 X136.391 Y91.093 F7800.000
G1 F900
G1 X136.391 Y108.239 E10.77419
G1 X135.945 Y108.239 E10.79336
G1 X135.945 Y91.093 E11.53056
G1 X136.331 Y91.093 E11.54714
G1 E9.54714 F2400.00000
G92 E0
G1 X157.745 Y101.337 F7800.000
G1 E2.00000 F2400.00000
G1 F900
G1 X158.191 Y101.332 E2.01917
G1 X158.191 Y108.239 E2.31612
G1 X157.745 Y108.239 E2.33529
G1 X157.745 Y101.397 E2.62947
G1 E0.62947 F2400.00000
G92 E0
G1 X157.745 Y97.990 F7800.000
G1 E2.00000 F2400.00000
G1 F900
G1 X157.745 Y91.093 E2.29652
G1 X158.191 Y91.093 E2.31569
G1 X158.191 Y97.990 E2.61223
G1 X157.805 Y97.990 E2.62882
G1 X157.288 Y91.796 F7800.000
G1 F1650
G1 X136.848 Y91.796 E3.30370
G1 X136.848 Y107.536 E3.82339
G1 X157.288 Y107.536 E4.49826
G1 X157.288 Y100.884 E4.71790
G1 X158.196 Y100.875 E4.74786
G1 X158.369 Y100.795 E4.75415
G1 X158.648 Y100.515 E4.76722
G1 X158.648 Y108.696 E5.03733
G1 X135.488 Y108.696 E5.80201
G1 X135.488 Y90.636 E6.39831
G1 X158.648 Y90.636 E7.16299
G1 X158.648 Y98.787 E7.43212
G1 X158.299 Y98.494 E7.44717
G1 X158.124 Y98.447 E7.45317
G1 X157.288 Y98.446 E7.48075
G1 X157.288 Y91.856 E7.69834
G1 X157.272 Y91.396 F7800.000
G1 X158.618 Y99.049 F7800.000
G1 F1650
G1 X158.618 Y100.234 E7.74336
G1 X157.517 Y108.116 F7800.000
G1 F1200
G1 X136.620 Y108.116 E8.89018
G1 X136.620 Y91.216 F7800.000
G1 F1200
G1 X157.517 Y91.216 E10.03700
G1 Z1.850 F7800.000
G1 X136.391 Y91.093 F7800.000
G1 F900
G1 X136.391 Y108.239 E10.77419
G1 X135.945 Y108.239 E10.79336
G1 X135.945 Y91.093 E11.53056
G1 X136.331 Y91.093 E11.54714
G1 E9.54714 F2400.00000
G92 E0
G1 X157.745 Y101.343 F7800.000
G1 E2.00000 F2400.00000
G1 F900
G1 X158.191 Y101.343 E2.01917
G1 X158.191 Y108.239 E2.31566
G1 X157.745 Y108.239 E2.33483
G1 X157.745 Y101.403 E2.62874
G1 E0.62874 F2400.00000
G92 E0
G1 X157.745 Y97.990 F7800.000
G1 E2.00000 F2400.00000
G1 F900
G1 X157.745 Y91.093 E2.29652
G1 X158.191 Y91.093 E2.31569
G1 X158.191 Y97.990 E2.61223
G1 X157.805 Y97.990 E2.62882
G1 X157.288 Y91.796 F7800.000
G1 F1650
G1 X136.848 Y91.796 E3.30370
G1 X136.848 Y107.536 E3.82339
G1 X157.288 Y107.536 E4.49826
G1 X157.288 Y100.886 E4.71783
G1 X158.084 Y100.886 E4.74409
G1 X158.259 Y100.861 E4.74993
G1 X158.648 Y100.555 E4.76628
G1 X158.648 Y108.696 E5.03507
G1 X135.488 Y108.696 E5.79975
G1 X135.488 Y90.636 E6.39604
G1 X158.648 Y90.636 E7.16072
G1 X158.648 Y98.787 E7.42985
G1 X158.299 Y98.494 E7.44490
G1 X158.124 Y98.447 E7.45090
G1 X157.288 Y98.446 E7.47848
G1 X157.288 Y91.856 E7.69607
G1 X157.272 Y91.396 F7800.000
G1 X158.618 Y99.049 F7800.000
G1 F1650
G1 X158.618 Y100.299 E7.74357
G1 X157.517 Y108.116 F7800.000
G1 F1200
G1 X136.620 Y108.116 E8.89040
G1 X136.620 Y91.216 F7800.000
G1 F1200
G1 X157.517 Y91.216 E10.03722
G1 Z2.050 F7800.000
G1 X136.391 Y91.093 F7800.000
G1 F900
G1 X136.391 Y108.239 E10.77441
G1 X135.945 Y108.239 E10.79358
G1 X135.945 Y91.093 E11.53077
G1 X136.331 Y91.093 E11.54736
G1 E9.54736 F2400.00000
G92 E0
G1 X157.745 Y101.337 F7800.000
G1 E2.00000 F2400.00000
G1 F900
G1 X158.191 Y101.332 E2.01917
G1 X158.191 Y108.239 E2.31612
G1 X157.745 Y108.239 E2.33529
G1 X157.745 Y101.397 E2.62947
G1 E0.62947 F2400.00000
G92 E0
G1 X157.745 Y97.990 F7800.000
G1 E2.00000 F2400.00000
G1 F900
G1 X157.745 Y91.093 E2.29652
G1 X158.191 Y91.093 E2.31569
G1 X158.191 Y97.990 E2.61223
G1 X157.805 Y97.990 E2.62882
G1 X157.288 Y91.796 F7800.000
G1 F1650
G1 X136.848 Y91.796 E3.30370
G1 X136.848 Y107.536 E3.82339
G1 X157.288 Y107.536 E4.49826
G1 X157.288 Y100.884 E4.71790
G1 X158.196 Y100.875 E4.74786
G1 X158.369 Y100.795 E4.75415
G1 X158.648 Y100.515 E4.76722
G1 X158.648 Y108.696 E5.03733
G1 X135.488 Y108.696 E5.80201
G1 X135.488 Y90.636 E6.39831
G1 X158.648 Y90.636 E7.16299
G1 X158.648 Y98.787 E7.43212
G1 X158.299 Y98.494 E7.44717
G1 X158.124 Y98.447 E7.45317
G1 X157.288 Y98.446 E7.48075
G1 X157.288 Y91.856 E7.69834
G1 X157.272 Y91.396 F7800.000
G1 X158.618 Y99.049 F7800.000
G1 F1650
G1 X158.618 Y100.234 E7.74336
G1 X157.517 Y108.116 F7800.000
G1 F1200
G1 X136.620 Y108.116 E8.89018
G1 X136.620 Y91.216 F7800.000
G1 F1200
G1 X157.517 Y91.216 E10.03700
G1 Z2.250 F7800.000
G1 X136.391 Y91.093 F7800.000
G1 F900
G1 X136.391 Y108.239 E10.77419
G1 X135.945 Y108.239 E10.79336
G1 X135.945 Y91.093 E11.53056
G1 X136.331 Y91.093 E11.54714
G1 E9.54714 F2400.00000
G92 E0
G1 X157.745 Y101.337 F7800.000
G1 E2.00000 F2400.00000
G1 F900
G1 X158.191 Y101.332 E2.01917
G1 X158.191 Y108.239 E2.31612
G1 X157.745 Y108.239 E2.33529
G1 X157.745 Y101.397 E2.62947
G1 E0.62947 F2400.00000
G92 E0
G1 X157.745 Y97.990 F7800.000
G1 E2.00000 F2400.00000
G1 F900
G1 X157.745 Y91.093 E2.29652
G1 X158.191 Y91.093 E2.31569
G1 X158.191 Y97.990 E2.61223
G1 X157.805 Y97.990 E2.62882
G1 X157.288 Y91.796 F7800.000
G1 F1650
G1 X136.848 Y91.796 E3.30370
G1 X136.848 Y107.536 E3.82339
G1 X157.288 Y107.536 E4.49826
G1 X157.288 Y100.884 E4.71790
G1 X158.196 Y100.875 E4.74786
G1 X158.369 Y100.795 E4.75415
G1 X158.648 Y100.515 E4.76722
