; generated by Slic3r 1.3.0 on 2019-03-29 at 11:02:32

; external perimeters extrusion width = 0.44mm (1.19mm^3/s)
; perimeters extrusion width = 0.56mm (3.10mm^3/s)
; infill extrusion width = 0.50mm (5.48mm^3/s)
; solid infill extrusion width = 0.56mm (3.72mm^3/s)
; top infill extrusion width = 0.56mm (1.55mm^3/s)

M107
M104 S200 ; set temperature
G28 ; home all axes
M150 B180 G210
M150 B180 G210
G92 E0
G1 E6 F1800
; Filament gcode

M109 S200 ; set temperature and wait for it to be reached
G21 ; set units to millimeters
G90 ; use absolute coordinates
M82 ; use absolute distances for extrusion
G92 E0
G1 Z0.250 F7800.000
G1 E-1.20000 F2400.00000
G92 E0
G1 X58.842 Y43.742 F7800.000
G1 E1.20000 F2400.00000
G1 F1560
G1 X63.842 Y38.742 E1.46244
G1 X65.697 Y37.448 E1.54639
G1 X68.400 Y36.854 E1.64910
G1 X131.600 Y36.854 E3.99471
G1 X133.827 Y37.251 E4.07867
G1 X136.158 Y38.742 E4.18138
G1 X141.158 Y43.742 E4.44382
G1 X142.452 Y45.597 E4.52777
G1 X143.046 Y48.300 E4.63048
G1 X143.046 Y87.200 E6.07422
G1 X143.013 Y88.061 E6.10621
G1 X142.958 Y88.654 E6.12829
G1 X142.881 Y89.212 E6.14920
G1 X142.771 Y89.797 E6.17129
G1 X142.642 Y90.345 E6.19221
G1 X142.479 Y90.918 E6.21430
G1 X142.277 Y91.519 E6.23783
G1 X120.289 Y154.815 E8.72473
G1 X118.758 Y157.258 E8.83173
G1 X114.758 Y161.258 E9.04168
G1 X112.903 Y162.552 E9.12564
G1 X110.200 Y163.146 E9.22835
G1 X75.800 Y163.146 E10.50507
G1 X73.573 Y162.749 E10.58903
G1 X71.242 Y161.258 E10.69174
G1 X67.242 Y157.258 E10.90169
G1 X65.948 Y155.403 E10.98564
G1 X65.407 Y153.524 E11.05819
G1 X57.033 Y88.587 E13.48823
G1 X56.987 Y88.060 E13.50786
G1 X56.954 Y87.200 E13.53982
G1 X56.954 Y48.300 E14.98356
G1 X57.351 Y46.073 E15.06751
G1 X58.809 Y43.792 E15.16799
G1 E13.96799 F2400.00000
G92 E0
G1 X77.583 Y153.966 F7800.000
G1 E1.20000 F2400.00000
G1 F1560
G1 X77.583 Y153.506 E1.21708
G1 X77.083 Y153.463 E1.23568
G1 X76.690 Y153.357 E1.25079
G1 X76.302 Y153.179 E1.26665
G1 X75.958 Y152.938 E1.28223
G1 X75.662 Y152.642 E1.29775
G1 X75.422 Y152.300 E1.31327
G1 X75.246 Y151.921 E1.32879
G1 X75.137 Y151.517 E1.34431
G1 X75.101 Y151.100 E1.35983
G1 X75.137 Y150.683 E1.37535
G1 X75.246 Y150.279 E1.39088
G1 X75.422 Y149.900 E1.40640
G1 X75.662 Y149.558 E1.42192
G1 X75.958 Y149.262 E1.43744
G1 X76.300 Y149.022 E1.45296
G1 X76.679 Y148.846 E1.46848
G1 X77.083 Y148.737 E1.48400
G1 X77.489 Y148.702 E1.49910
G1 X77.915 Y148.737 E1.51496
G1 X78.321 Y148.846 E1.53055
G1 X78.700 Y149.022 E1.54607
G1 X79.042 Y149.262 E1.56159
G1 X79.338 Y149.558 E1.57711
G1 X79.578 Y149.900 E1.59263
G1 X79.754 Y150.279 E1.60815
G1 X79.863 Y150.683 E1.62367
G1 X79.899 Y151.100 E1.63919
G1 X79.863 Y151.517 E1.65471
G1 X79.754 Y151.921 E1.67023
G1 X79.578 Y152.300 E1.68575
G1 X79.338 Y152.642 E1.70127
G1 X79.050 Y152.930 E1.71640
G1 X77.632 Y153.932 E1.78082
G1 X77.503 Y153.051 F7800.000
G1 F1560
G1 X77.161 Y153.021 E1.79354
G1 X76.842 Y152.936 E1.80579
G1 X76.525 Y152.790 E1.81876
G1 X76.246 Y152.595 E1.83140
G1 X76.005 Y152.354 E1.84402
G1 X75.810 Y152.075 E1.85664
G1 X75.667 Y151.767 E1.86927
G1 X75.579 Y151.439 E1.88189
G1 X75.549 Y151.100 E1.89451
G1 X75.579 Y150.761 E1.90713
G1 X75.667 Y150.433 E1.91975
G1 X75.810 Y150.125 E1.93237
G1 X76.005 Y149.846 E1.94500
G1 X76.246 Y149.605 E1.95762
G1 X76.525 Y149.410 E1.97024
G1 X76.833 Y149.267 E1.98286
G1 X77.161 Y149.179 E1.99548
G1 X77.490 Y149.150 E2.00773
G1 X77.838 Y149.179 E2.02069
G1 X78.167 Y149.267 E2.03334
G1 X78.475 Y149.410 E2.04596
G1 X78.754 Y149.605 E2.05858
G1 X78.995 Y149.846 E2.07121
G1 X79.190 Y150.125 E2.08383
G1 X79.333 Y150.433 E2.09645
G1 X79.421 Y150.761 E2.10907
G1 X79.451 Y151.100 E2.12169
G1 X79.421 Y151.439 E2.13431
G1 X79.333 Y151.767 E2.14693
G1 X79.190 Y152.075 E2.15956
G1 X78.995 Y152.354 E2.17218
G1 X78.761 Y152.588 E2.18444
G1 X78.029 Y153.105 E2.21769
G1 X78.029 Y152.970 E2.22268
G1 X77.839 Y153.021 E2.22999
G1 X77.562 Y153.045 E2.24029
G1 X77.502 Y153.053 F7800.000
G1 E1.04029 F2400.00000
G92 E0
G1 X85.037 Y144.836 F7800.000
G1 E1.20000 F2400.00000
G1 F1560
G1 X84.450 Y144.299 E1.22954
G1 X83.888 Y143.706 E1.25984
G1 X83.335 Y143.039 E1.29201
G1 X82.844 Y142.354 E1.32328
G1 X82.402 Y141.638 E1.35453
G1 X82.011 Y140.892 E1.38578
G1 X81.672 Y140.121 E1.41703
G1 X81.387 Y139.329 E1.44828
G1 X81.158 Y138.519 E1.47953
G1 X80.984 Y137.695 E1.51078
G1 X80.869 Y136.861 E1.54203
G1 X80.811 Y136.021 E1.57327
G1 X80.811 Y135.179 E1.60452
G1 X80.869 Y134.339 E1.63577
G1 X80.984 Y133.505 E1.66702
G1 X81.152 Y132.706 E1.69732
G1 X81.387 Y131.872 E1.72949
G1 X81.672 Y131.079 E1.76077
G1 X82.011 Y130.308 E1.79202
G1 X82.402 Y129.562 E1.82326
G1 X82.844 Y128.846 E1.85451
G1 X83.319 Y128.182 E1.88481
G1 X83.870 Y127.513 E1.91698
G1 X84.450 Y126.901 E1.94826
G1 X85.052 Y126.350 E1.97856
G1 X85.729 Y125.808 E2.01073
G1 X86.422 Y125.329 E2.04200
G1 X87.124 Y124.913 E2.07230
G1 X87.898 Y124.522 E2.10447
G1 X88.675 Y124.196 E2.13575
G1 X89.472 Y123.925 E2.16700
G1 X90.286 Y123.709 E2.19825
G1 X91.113 Y123.550 E2.22949
G1 X91.949 Y123.449 E2.26074
G1 X92.764 Y123.406 E2.29105
G1 X93.631 Y123.420 E2.32321
G1 X94.470 Y123.492 E2.35449
G1 X95.302 Y123.622 E2.38574
G1 X96.123 Y123.810 E2.41699
G1 X96.929 Y124.053 E2.44824
G1 X97.716 Y124.352 E2.47948
G1 X98.481 Y124.704 E2.51073
G1 X99.220 Y125.108 E2.54198
G1 X99.929 Y125.562 E2.57323
G1 X100.584 Y126.049 E2.60353
G1 X101.244 Y126.611 E2.63570
G1 X101.845 Y127.202 E2.66698
G1 X102.403 Y127.832 E2.69823
G1 X102.901 Y128.479 E2.72853
G1 X103.383 Y129.200 E2.76069
G1 X103.800 Y129.932 E2.79197
G1 X104.165 Y130.690 E2.82322
G1 X104.468 Y131.449 E2.85352
G1 X104.734 Y132.273 E2.88569
G1 X104.936 Y133.092 E2.91696
G1 X105.081 Y133.921 E2.94821
G1 X105.168 Y134.759 E2.97946
G1 X105.197 Y135.600 E3.01071
G1 X105.168 Y136.441 E3.04196
G1 X105.081 Y137.279 E3.07321
G1 X104.936 Y138.108 E3.10446
G1 X104.735 Y138.926 E3.13571
G1 X104.477 Y139.728 E3.16696
G1 X104.165 Y140.510 E3.19821
G1 X103.800 Y141.268 E3.22945
G1 X103.383 Y142.000 E3.26070
G1 X102.917 Y142.701 E3.29195
G1 X102.403 Y143.368 E3.32320
G1 X101.862 Y143.979 E3.35350
G1 X101.245 Y144.588 E3.38567
G1 X100.605 Y145.136 E3.41695
G1 X99.929 Y145.638 E3.44819
G1 X99.241 Y146.078 E3.47850
G1 X98.482 Y146.496 E3.51066
G1 X97.716 Y146.848 E3.54194
G1 X96.929 Y147.147 E3.57319
G1 X96.123 Y147.390 E3.60444
G1 X95.302 Y147.578 E3.63569
G1 X94.470 Y147.708 E3.66694
G1 X93.631 Y147.780 E3.69818
G1 X92.789 Y147.795 E3.72943
G1 X91.949 Y147.751 E3.76068
G1 X91.113 Y147.650 E3.79193
G1 X90.286 Y147.491 E3.82318
G1 X89.472 Y147.275 E3.85443
G1 X88.699 Y147.012 E3.88473
G1 X87.899 Y146.679 E3.91690
G1 X87.146 Y146.300 E3.94817
G1 X86.422 Y145.871 E3.97942
G1 X85.729 Y145.393 E4.01067
G1 X85.082 Y144.876 E4.04141
G1 X85.339 Y144.508 F7800.000
G1 F1560
G1 X84.763 Y143.980 E4.07037
G1 X84.222 Y143.410 E4.09955
G1 X83.688 Y142.767 E4.13057
G1 X83.216 Y142.107 E4.16068
G1 X82.790 Y141.416 E4.19079
G1 X82.413 Y140.698 E4.22089
G1 X82.087 Y139.956 E4.25100
G1 X81.812 Y139.192 E4.28110
G1 X81.591 Y138.412 E4.31121
G1 X81.424 Y137.618 E4.34131
G1 X81.313 Y136.815 E4.37142
G1 X81.257 Y136.006 E4.40152
G1 X81.257 Y135.194 E4.43163
G1 X81.313 Y134.385 E4.46173
G1 X81.424 Y133.582 E4.49184
G1 X81.586 Y132.813 E4.52101
G1 X81.812 Y132.008 E4.55203
G1 X82.087 Y131.244 E4.58215
G1 X82.413 Y130.502 E4.61225
G1 X82.790 Y129.784 E4.64236
G1 X83.216 Y129.093 E4.67246
G1 X83.674 Y128.454 E4.70164
G1 X84.205 Y127.808 E4.73266
G1 X84.763 Y127.220 E4.76277
G1 X85.343 Y126.689 E4.79195
G1 X85.995 Y126.166 E4.82297
G1 X86.663 Y125.705 E4.85309
G1 X87.339 Y125.304 E4.88226
G1 X88.085 Y124.927 E4.91328
G1 X88.833 Y124.613 E4.94340
G1 X89.601 Y124.352 E4.97350
G1 X90.385 Y124.144 E5.00361
G1 X91.182 Y123.991 E5.03371
G1 X91.987 Y123.894 E5.06382
G1 X92.772 Y123.853 E5.09299
G1 X93.608 Y123.866 E5.12401
G1 X94.416 Y123.936 E5.15413
G1 X95.218 Y124.061 E5.18423
G1 X96.008 Y124.242 E5.21434
G1 X96.785 Y124.476 E5.24444
G1 X97.543 Y124.764 E5.27455
G1 X98.280 Y125.103 E5.30465
G1 X98.992 Y125.492 E5.33476
G1 X99.675 Y125.930 E5.36486
G1 X100.306 Y126.398 E5.39404
G1 X100.942 Y126.940 E5.42506
G1 X101.521 Y127.509 E5.45517
G1 X102.059 Y128.116 E5.48528
G1 X102.538 Y128.739 E5.51445
G1 X103.003 Y129.434 E5.54548
G1 X103.404 Y130.139 E5.57559
G1 X103.756 Y130.870 E5.60570
G1 X104.048 Y131.600 E5.63487
G1 X104.305 Y132.396 E5.66589
G1 X104.499 Y133.183 E5.69601
G1 X104.638 Y133.983 E5.72611
G1 X104.722 Y134.789 E5.75622
G1 X104.750 Y135.600 E5.78632
G1 X104.722 Y136.411 E5.81643
G1 X104.638 Y137.217 E5.84653
G1 X104.499 Y138.017 E5.87664
G1 X104.305 Y138.804 E5.90674
G1 X104.057 Y139.576 E5.93685
G1 X103.756 Y140.330 E5.96695
G1 X103.404 Y141.061 E5.99705
G1 X103.003 Y141.765 E6.02716
G1 X102.554 Y142.441 E6.05726
G1 X102.059 Y143.084 E6.08737
G1 X101.538 Y143.672 E6.11654
G1 X100.943 Y144.259 E6.14757
G1 X100.326 Y144.787 E6.17768
G1 X99.675 Y145.270 E6.20779
G1 X99.013 Y145.694 E6.23696
G1 X98.280 Y146.097 E6.26798
G1 X97.543 Y146.436 E6.29810
G1 X96.785 Y146.724 E6.32820
G1 X96.008 Y146.958 E6.35831
G1 X95.218 Y147.139 E6.38841
G1 X94.416 Y147.264 E6.41852
G1 X93.608 Y147.334 E6.44862
G1 X92.797 Y147.348 E6.47873
G1 X91.987 Y147.306 E6.50883
G1 X91.182 Y147.209 E6.53894
G1 X90.385 Y147.056 E6.56904
G1 X89.601 Y146.848 E6.59915
G1 X88.857 Y146.595 E6.62832
G1 X88.086 Y146.273 E6.65934
G1 X87.361 Y145.908 E6.68946
G1 X86.663 Y145.495 E6.71956
G1 X85.995 Y145.034 E6.74967
G1 X85.384 Y144.547 E6.77868
G1 X84.961 Y144.641 F7800.000
G1 E5.57868 F2400.00000
G92 E0
G1 X78.321 Y122.354 F7800.000
G1 E1.20000 F2400.00000
G1 F1560
G1 X77.917 Y122.463 E1.21552
G1 X77.500 Y122.499 E1.23104
G1 X77.083 Y122.463 E1.24656
G1 X76.679 Y122.354 E1.26208
G1 X76.300 Y122.178 E1.27760
G1 X75.958 Y121.938 E1.29312
G1 X75.662 Y121.642 E1.30864
G1 X75.422 Y121.300 E1.32416
G1 X75.246 Y120.921 E1.33968
G1 X75.137 Y120.517 E1.35520
G1 X75.101 Y120.100 E1.37072
G1 X75.137 Y119.683 E1.38624
G1 X75.246 Y119.279 E1.40176
G1 X75.422 Y118.900 E1.41728
G1 X75.662 Y118.558 E1.43280
G1 X75.958 Y118.262 E1.44832
G1 X76.300 Y118.022 E1.46384
G1 X76.679 Y117.846 E1.47936
G1 X77.083 Y117.737 E1.49488
G1 X77.489 Y117.702 E1.50999
G1 X77.915 Y117.737 E1.52585
G1 X78.321 Y117.846 E1.54144
G1 X78.700 Y118.022 E1.55696
G1 X79.042 Y118.262 E1.57248
G1 X79.338 Y118.558 E1.58800
G1 X79.578 Y118.900 E1.60352
G1 X79.754 Y119.279 E1.61904
G1 X79.863 Y119.683 E1.63456
G1 X79.899 Y120.100 E1.65008
G1 X79.863 Y120.517 E1.66560
G1 X79.754 Y120.921 E1.68112
G1 X79.578 Y121.300 E1.69664
G1 X79.338 Y121.642 E1.71216
G1 X79.042 Y121.938 E1.72768
G1 X78.700 Y122.178 E1.74320
G1 X78.375 Y122.329 E1.75649
G1 X78.167 Y121.933 F7800.000
G1 F1560
G1 X77.839 Y122.021 E1.76912
G1 X77.500 Y122.051 E1.78174
G1 X77.161 Y122.021 E1.79436
G1 X76.833 Y121.933 E1.80698
G1 X76.525 Y121.790 E1.81960
G1 X76.246 Y121.595 E1.83222
G1 X76.005 Y121.354 E1.84485
G1 X75.810 Y121.075 E1.85747
G1 X75.667 Y120.767 E1.87009
G1 X75.579 Y120.439 E1.88271
G1 X75.549 Y120.100 E1.89533
G1 X75.579 Y119.761 E1.90795
G1 X75.667 Y119.433 E1.92057
G1 X75.810 Y119.125 E1.93320
G1 X76.005 Y118.846 E1.94582
G1 X76.246 Y118.605 E1.95844
G1 X76.525 Y118.410 E1.97106
G1 X76.833 Y118.267 E1.98368
G1 X77.161 Y118.179 E1.99630
G1 X77.490 Y118.150 E2.00856
G1 X77.838 Y118.179 E2.02152
G1 X78.167 Y118.267 E2.03416
G1 X78.475 Y118.410 E2.04679
G1 X78.754 Y118.605 E2.05941
G1 X78.995 Y118.846 E2.07203
G1 X79.190 Y119.125 E2.08465
G1 X79.333 Y119.433 E2.09727
G1 X79.421 Y119.761 E2.10989
G1 X79.451 Y120.100 E2.12251
G1 X79.421 Y120.439 E2.13514
G1 X79.333 Y120.767 E2.14776
G1 X79.190 Y121.075 E2.16038
G1 X78.995 Y121.354 E2.17300
G1 X78.754 Y121.595 E2.18562
G1 X78.475 Y121.790 E2.19824
G1 X78.222 Y121.908 E2.20864
G1 X78.167 Y121.933 F7800.000
G1 E1.00864 F2400.00000
G92 E0
G1 X106.101 Y120.100 F7800.000
G1 E1.20000 F2400.00000
G1 F1560
G1 X106.137 Y119.683 E1.21552
G1 X106.246 Y119.279 E1.23104
G1 X106.422 Y118.900 E1.24656
G1 X106.662 Y118.558 E1.26208
G1 X106.958 Y118.262 E1.27760
G1 X107.300 Y118.022 E1.29312
G1 X107.679 Y117.846 E1.30864
G1 X108.083 Y117.737 E1.32416
G1 X108.489 Y117.702 E1.33927
G1 X108.915 Y117.737 E1.35513
G1 X109.321 Y117.846 E1.37072
G1 X109.700 Y118.022 E1.38624
G1 X110.042 Y118.262 E1.40176
G1 X110.338 Y118.558 E1.41728
G1 X110.578 Y118.900 E1.43280
G1 X110.754 Y119.279 E1.44832
G1 X110.863 Y119.683 E1.46384
G1 X110.899 Y120.100 E1.47936
G1 X110.863 Y120.517 E1.49488
G1 X110.754 Y120.920 E1.51040
G1 X110.578 Y121.300 E1.52592
G1 X110.338 Y121.642 E1.54144
G1 X110.042 Y121.938 E1.55696
G1 X109.699 Y122.178 E1.57248
G1 X109.321 Y122.354 E1.58800
G1 X108.917 Y122.463 E1.60352
G1 X108.500 Y122.499 E1.61904
G1 X108.083 Y122.463 E1.63456
G1 X107.679 Y122.354 E1.65008
G1 X107.300 Y122.178 E1.66560
G1 X106.958 Y121.938 E1.68112
G1 X106.662 Y121.642 E1.69664
G1 X106.422 Y121.300 E1.71216
G1 X106.250 Y120.931 E1.72727
G1 X106.138 Y120.518 E1.74313
G1 X106.106 Y120.160 E1.75649
G1 X106.549 Y120.100 F7800.000
G1 F1560
G1 X106.579 Y119.761 E1.76911
G1 X106.667 Y119.433 E1.78173
G1 X106.810 Y119.125 E1.79435
G1 X107.005 Y118.846 E1.80698
G1 X107.246 Y118.605 E1.81960
G1 X107.525 Y118.410 E1.83222
G1 X107.833 Y118.267 E1.84484
G1 X108.161 Y118.179 E1.85746
G1 X108.490 Y118.150 E1.86972
G1 X108.838 Y118.179 E1.88268
G1 X109.167 Y118.267 E1.89532
G1 X109.475 Y118.410 E1.90794
G1 X109.754 Y118.605 E1.92056
G1 X109.995 Y118.846 E1.93319
G1 X110.190 Y119.125 E1.94581
G1 X110.333 Y119.433 E1.95843
G1 X110.421 Y119.761 E1.97105
G1 X110.451 Y120.100 E1.98367
G1 X110.421 Y120.439 E1.99629
G1 X110.333 Y120.767 E2.00892
G1 X110.190 Y121.075 E2.02154
G1 X109.995 Y121.354 E2.03416
G1 X109.754 Y121.595 E2.04678
G1 X109.475 Y121.790 E2.05940
G1 X109.167 Y121.933 E2.07202
G1 X108.839 Y122.021 E2.08464
G1 X108.500 Y122.051 E2.09727
G1 X108.161 Y122.021 E2.10989
G1 X107.833 Y121.933 E2.12251
G1 X107.525 Y121.790 E2.13513
G1 X107.246 Y121.595 E2.14775
G1 X107.005 Y121.354 E2.16037
G1 X106.810 Y121.075 E2.17300
G1 X106.671 Y120.776 E2.18525
G1 X106.579 Y120.439 E2.19821
G1 X106.554 Y120.160 E2.20863
G1 X106.549 Y120.100 F7800.000
G1 E1.00863 F2400.00000
G92 E0
G1 X108.747 Y94.163 F7800.000
G1 E1.20000 F2400.00000
G1 F1560
G1 X108.304 Y94.057 E1.21688
G1 X107.910 Y93.893 E1.23274
G1 X107.499 Y93.647 E1.25050
G1 X107.150 Y93.350 E1.26751
G1 X106.855 Y93.004 E1.28439
G1 X106.617 Y92.616 E1.30127
G1 X106.443 Y92.196 E1.31815
G1 X106.337 Y91.753 E1.33503
G1 X106.301 Y91.300 E1.35191
G1 X106.337 Y90.847 E1.36880
G1 X106.443 Y90.404 E1.38568
G1 X106.607 Y90.010 E1.40153
G1 X106.853 Y89.599 E1.41929
G1 X107.150 Y89.250 E1.43631
G1 X107.496 Y88.955 E1.45319
G1 X107.884 Y88.717 E1.47007
G1 X108.304 Y88.543 E1.48695
G1 X108.747 Y88.437 E1.50383
G1 X109.173 Y88.404 E1.51969
G1 X109.650 Y88.436 E1.53745
G1 X110.096 Y88.543 E1.55446
G1 X110.516 Y88.717 E1.57134
G1 X110.904 Y88.955 E1.58822
G1 X111.250 Y89.250 E1.60510
G1 X111.545 Y89.596 E1.62198
G1 X111.783 Y89.984 E1.63886
G1 X111.957 Y90.404 E1.65574
G1 X112.063 Y90.847 E1.67262
G1 X112.099 Y91.300 E1.68951
G1 X112.063 Y91.753 E1.70639
G1 X111.957 Y92.196 E1.72327
G1 X111.793 Y92.590 E1.73913
G1 X111.547 Y93.001 E1.75689
G1 X111.250 Y93.350 E1.77390
G1 X110.904 Y93.645 E1.79078
G1 X110.516 Y93.883 E1.80766
G1 X110.096 Y94.057 E1.82454
G1 X109.653 Y94.163 E1.84142
G1 X109.200 Y94.198 E1.85830
G1 X108.806 Y94.168 E1.87295
G1 X108.817 Y93.721 F7800.000
G1 F1560
G1 X108.443 Y93.631 E1.88723
G1 X108.111 Y93.493 E1.90056
G1 X107.760 Y93.284 E1.91572
G1 X107.467 Y93.033 E1.93004
G1 X107.217 Y92.741 E1.94431
G1 X107.016 Y92.413 E1.95858
G1 X106.869 Y92.057 E1.97286
G1 X106.779 Y91.683 E1.98713
G1 X106.749 Y91.300 E2.00140
G1 X106.779 Y90.917 E2.01567
G1 X106.869 Y90.543 E2.02995
G1 X107.007 Y90.211 E2.04328
G1 X107.216 Y89.860 E2.05844
G1 X107.467 Y89.567 E2.07276
G1 X107.759 Y89.317 E2.08703
G1 X108.087 Y89.116 E2.10130
G1 X108.443 Y88.969 E2.11558
G1 X108.817 Y88.879 E2.12985
G1 X109.175 Y88.851 E2.14318
G1 X109.582 Y88.879 E2.15834
G1 X109.957 Y88.969 E2.17266
G1 X110.313 Y89.116 E2.18693
G1 X110.641 Y89.317 E2.20120
G1 X110.933 Y89.567 E2.21548
G1 X111.183 Y89.859 E2.22975
