; generated by Slic3r 1.3.1-dev (Build (Unknown revision)) on 2018-12-27 at 22:53:26

; external perimeters extrusion width = 0.55mm (4.37mm^3/s)
; perimeters extrusion width = 0.70mm (11.44mm^3/s)
; infill extrusion width = 0.62mm (13.45mm^3/s)
; solid infill extrusion width = 0.70mm (3.81mm^3/s)
; top infill extrusion width = 0.70mm (2.86mm^3/s)

M107
M104 S200 ; set temperature
G28 ; home all axes
G1 Z5 F5000 ; lift nozzle

; Filament gcode

M109 S200 ; set temperature and wait for it to be reached
G21 ; set units to millimeters
G90 ; use absolute coordinates
M82 ; use absolute distances for extrusion
G92 E0
G92 E0
G1 Z0.350 F7800.000
G1 E-2.00000 F2400.00000
G92 E0
G1 X47.827 Y89.492 F7800.000
G1 E2.00000 F2400.00000
G1 F720.737
G1 X49.979 Y88.699 E2.07096
G1 X51.159 Y88.593 E2.10761
G1 X58.659 Y88.593 E2.33967
G1 X60.918 Y88.990 E2.41064
G1 X62.906 Y90.133 E2.48160
G1 X64.385 Y91.886 E2.55256
G1 X65.178 Y94.038 E2.62352
G1 X65.284 Y95.218 E2.66017
G1 X65.284 Y95.568 E2.67100
G1 X64.887 Y97.827 E2.74197
G1 X63.744 Y99.815 E2.81293
G1 X61.991 Y101.294 E2.88389
G1 X59.839 Y102.087 E2.95485
G1 X58.659 Y102.193 E2.99150
G1 X51.159 Y102.193 E3.22356
G1 X48.900 Y101.796 E3.29453
G1 X46.912 Y100.652 E3.36549
G1 X45.433 Y98.900 E3.43645
G1 X44.640 Y96.748 E3.50741
G1 X44.534 Y95.568 E3.54406
G1 X44.534 Y95.218 E3.55489
G1 X44.931 Y92.959 E3.62586
G1 X46.075 Y90.971 E3.69682
G1 X47.770 Y89.540 E3.76546
G1 E1.76546 F2400.00000
G92 E0
G1 X58.659 Y95.393 F7800.000
G1 E2.00000 F2400.00000
G1 F1800
G1 X51.159 Y95.393 E2.10208
G1 Z0.650 F7800.000
G1 E0.10208 F2400.00000
G92 E0
G1 X58.384 Y95.618 F7800.000
G1 E2.00000 F2400.00000
G1 F600
G1 X51.434 Y95.618 E2.14324
G1 X51.434 Y95.168 E2.15252
G1 X58.384 Y95.168 E2.29576
G1 X58.384 Y95.543 E2.30349
G1 X57.884 Y95.607 F7800.000
G1 Z0.950 F7800.000
G1 X58.384 Y95.918 F7800.000
G1 F600
G1 X51.434 Y95.918 E2.44673
G1 X51.434 Y94.868 E2.46837
G1 X58.384 Y94.868 E2.61161
G1 X58.384 Y95.843 E2.63171
G1 X57.885 Y95.893 F7800.000
G1 X58.104 Y95.393 F7800.000
G1 F600
G1 X51.714 Y95.393 E2.74696
M106 S255
G1 Z1.250 F7800.000
G1 X57.823 Y95.657 F7800.000
G1 F600
G1 X51.995 Y95.657 E2.90420
G1 X51.995 Y95.129 E2.91846
G1 X57.823 Y95.129 E3.07570
G1 X57.823 Y95.582 E3.08794
G1 X58.384 Y96.218 F7800.000
G1 F600
G1 X51.434 Y96.218 E3.23118
G1 X51.434 Y94.568 E3.26519
G1 X58.384 Y94.568 E3.40843
G1 X58.384 Y96.143 E3.44089
G1 X57.886 Y96.179 F7800.000
G1 Z1.550 F7800.000
G1 X57.823 Y95.957 F7800.000
G1 F600
G1 X51.995 Y95.957 E3.59813
G1 X51.995 Y94.829 E3.62858
G1 X57.823 Y94.829 E3.78582
G1 X57.823 Y95.882 E3.81425
G1 X58.384 Y96.518 F7800.000
G1 F600
G1 X51.434 Y96.518 E3.95749
G1 X51.434 Y94.268 E4.00386
G1 X58.384 Y94.268 E4.14711
G1 X58.384 Y96.443 E4.19193
G1 X57.887 Y96.466 F7800.000
G1 X57.506 Y95.393 F7800.000
G1 F600
G1 X52.313 Y95.393 E4.28643
G1 Z1.850 F7800.000
G1 X57.188 Y95.622 F7800.000
G1 F600
G1 X52.630 Y95.622 E4.40938
G1 X52.630 Y95.164 E4.42172
G1 X57.188 Y95.164 E4.54467
G1 X57.188 Y95.547 E4.55499
G1 X57.823 Y96.257 F7800.000
G1 F600
G1 X51.995 Y96.257 E4.71223
G1 X51.995 Y94.529 E4.75886
G1 X57.823 Y94.529 E4.91610
G1 X57.823 Y96.182 E4.96072
G1 X58.384 Y96.818 F7800.000
G1 F900
G1 X51.434 Y96.818 E5.10396
G1 X51.434 Y93.968 E5.16270
G1 X58.384 Y93.968 E5.30594
G1 X58.384 Y96.743 E5.36313
G1 X57.888 Y96.753 F7800.000
G1 Z2.150 F7800.000
G1 X57.188 Y95.922 F7800.000
G1 F600
G1 X52.630 Y95.922 E5.48608
G1 X52.630 Y94.864 E5.51461
G1 X57.188 Y94.864 E5.63755
G1 X57.188 Y95.847 E5.66406
G1 X57.823 Y96.557 F7800.000
G1 F600
G1 X51.995 Y96.557 E5.82130
G1 X51.995 Y94.229 E5.88412
G1 X57.823 Y94.229 E6.04136
G1 X57.823 Y96.482 E6.10216
G1 X58.384 Y97.118 F7800.000
G1 F900
G1 X51.434 Y97.118 E6.24540
G1 X51.434 Y93.668 E6.31651
G1 X58.384 Y93.668 E6.45975
G1 X58.384 Y97.043 E6.52931
G1 X57.890 Y97.041 F7800.000
G1 X56.870 Y95.393 F7800.000
G1 F670.73
G1 X52.948 Y95.393 E6.58882
G1 Z2.450 F7800.000
G1 E4.58882 F2400.00000
G92 E0
G1 X57.375 Y95.140 F7800.000
G1 E2.00000 F2400.00000
G1 F692.559
G1 X52.325 Y95.140 E2.10408
G1 X52.325 Y94.467 E2.11794
G1 X57.375 Y94.467 E2.22202
G1 X57.375 Y95.065 E2.23434
G1 X57.606 Y95.583 F7800.000
G1 X57.823 Y95.700 F7800.000
G1 F692.559
G1 X57.823 Y96.857 E2.26555
G1 X51.995 Y96.857 E2.42279
G1 X51.995 Y95.700 E2.45401
G1 X57.748 Y95.700 E2.60923
G1 X58.384 Y97.418 F7800.000
G1 F692.559
G1 X51.434 Y97.418 E2.75247
G1 X51.434 Y93.368 E2.83594
G1 X58.384 Y93.368 E2.97918
G1 X58.384 Y97.343 E3.06111
G1 X57.892 Y97.330 F7800.000
G1 X57.506 Y96.279 F7800.000
G1 F923.412
G1 X52.313 Y96.279 E3.16188
G1 X51.880 Y95.420 F7800.000
G1 F923.412
G1 X51.880 Y94.187 E3.17804
G1 X51.901 Y94.134 E3.17879
G1 F923.412
G1 X51.944 Y94.027 E3.18071
G1 F923.412
G1 X51.987 Y93.921 E3.18302
G1 X52.045 Y93.918 E3.18419
G1 X57.655 Y93.918 E3.29716
G1 X57.812 Y93.940 E3.30034
G1 X57.857 Y94.105 E3.30377
G1 F923.412
G1 X57.880 Y94.187 E3.30516
G1 X57.880 Y95.420 E3.32526
G1 Z2.750 F7800.000
G1 X57.375 Y95.440 F7800.000
G1 F732.159
G1 X52.325 Y95.440 E3.42935
G1 X52.325 Y94.167 E3.45557
G1 X57.375 Y94.167 E3.55965
G1 X57.375 Y95.365 E3.58433
G1 X57.589 Y95.892 F7800.000
G1 X57.823 Y96.000 F7800.000
G1 F732.159
G1 X57.823 Y97.157 E3.61555
G1 X51.995 Y97.157 E3.77279
G1 X51.995 Y96.000 E3.80401
G1 X57.748 Y96.000 E3.95922
G1 X58.384 Y97.718 F7800.000
G1 F732.159
G1 X51.434 Y97.718 E4.10247
G1 X51.434 Y93.068 E4.19830
G1 X58.384 Y93.068 E4.34155
G1 X58.384 Y97.643 E4.43584
G1 X57.894 Y97.620 F7800.000
G1 X57.506 Y96.579 F7800.000
G1 F976.212
G1 X52.313 Y96.579 E4.53660
G1 X51.880 Y95.720 F7800.000
G1 F976.212
G1 X51.880 Y93.887 E4.56063
G1 X51.901 Y93.834 E4.56138
G1 F976.212
G1 X51.944 Y93.727 E4.56330
G1 F976.212
G1 X51.987 Y93.621 E4.56561
G1 X52.045 Y93.618 E4.56678
G1 X57.655 Y93.618 E4.67975
G1 X57.812 Y93.640 E4.68293
G1 X57.857 Y93.805 E4.68637
G1 F976.212
G1 X57.880 Y93.887 E4.68775
G1 X57.880 Y95.720 E4.71764
G1 Z3.050 F7800.000
G1 X57.375 Y95.740 F7800.000
G1 F771.759
G1 X52.325 Y95.740 E4.82172
G1 X52.325 Y93.867 E4.86031
G1 X57.375 Y93.867 E4.96439
G1 X57.375 Y95.665 E5.00144
G1 X57.572 Y96.199 F7800.000
G1 X57.823 Y96.300 F7800.000
G1 F771.759
G1 X57.823 Y97.457 E5.03266
G1 X51.995 Y97.457 E5.18990
G1 X51.995 Y96.300 E5.22111
G1 X57.748 Y96.300 E5.37633
G1 X58.384 Y98.018 F7800.000
G1 F771.759
G1 X51.434 Y98.018 E5.51957
G1 X51.434 Y92.768 E5.62777
G1 X58.384 Y92.768 E5.77102
G1 X58.384 Y97.943 E5.87767
G1 X57.896 Y97.911 F7800.000
G1 X57.506 Y96.879 F7800.000
G1 F1029.01
G1 X52.313 Y96.879 E5.97844
G1 X51.880 Y96.020 F7800.000
G1 F1029.01
G1 X51.880 Y93.587 E6.01033
G1 X51.901 Y93.534 E6.01108
G1 F1029.01
G1 X51.944 Y93.427 E6.01300
G1 F1029.01
G1 X51.987 Y93.321 E6.01531
G1 X52.045 Y93.318 E6.01648
G1 X57.655 Y93.318 E6.12945
G1 X57.812 Y93.340 E6.13263
G1 X57.857 Y93.505 E6.13607
G1 F1029.01
G1 X57.880 Y93.587 E6.13746
G1 X57.880 Y96.020 E6.17712
G1 Z3.350 F7800.000
G1 X57.375 Y96.040 F7800.000
G1 F811.359
G1 X52.325 Y96.040 E6.28120
G1 X52.325 Y93.567 E6.33216
G1 X57.375 Y93.567 E6.43624
G1 X57.375 Y95.965 E6.48565
G1 X57.557 Y96.505 F7800.000
G1 X57.823 Y96.600 F7800.000
G1 F811.359
G1 X57.823 Y97.757 E6.51687
G1 X51.995 Y97.757 E6.67411
G1 X51.995 Y96.600 E6.70533
G1 X57.748 Y96.600 E6.86054
G1 X58.384 Y98.318 F7800.000
G1 F811.359
G1 X51.434 Y98.318 E7.00378
G1 X51.434 Y92.468 E7.12435
G1 X58.384 Y92.468 E7.26760
G1 X58.384 Y98.243 E7.38662
G1 X57.898 Y98.202 F7800.000
G1 X57.506 Y97.179 F7800.000
G1 F1081.81
G1 X52.313 Y97.179 E7.48739
G1 X51.880 Y96.320 F7800.000
G1 F1081.81
G1 X51.880 Y93.287 E7.52714
G1 X51.901 Y93.234 E7.52789
G1 F1081.81
G1 X51.944 Y93.127 E7.52981
G1 F1081.81
G1 X51.987 Y93.021 E7.53212
G1 X52.045 Y93.018 E7.53329
G1 X57.655 Y93.018 E7.64626
G1 X57.812 Y93.040 E7.64944
G1 X57.857 Y93.205 E7.65288
G1 F1081.81
G1 X57.880 Y93.287 E7.65427
G1 X57.880 Y96.320 E7.70371
G1 Z3.650 F7800.000
G1 X57.375 Y96.340 F7800.000
G1 F850.959
G1 X52.325 Y96.340 E7.80779
G1 X52.325 Y93.267 E7.87111
G1 X57.375 Y93.267 E7.97520
G1 X57.375 Y96.265 E8.03698
G1 X57.542 Y96.811 F7800.000
G1 X57.823 Y96.900 F7800.000
G1 F850.959
G1 X57.823 Y98.057 E8.06819
G1 X51.995 Y98.057 E8.22543
G1 X51.995 Y96.900 E8.25665
G1 X57.748 Y96.900 E8.41187
G1 X58.384 Y98.618 F7800.000
G1 F850.959
G1 X51.434 Y98.618 E8.55511
G1 X51.434 Y92.168 E8.68804
G1 X58.384 Y92.168 E8.83129
G1 X58.384 Y98.543 E8.96268
G1 X57.900 Y98.495 F7800.000
G1 X57.506 Y97.479 F7800.000
G1 F1134.61
G1 X52.313 Y97.479 E9.06344
G1 X51.880 Y96.620 F7800.000
G1 F1134.61
G1 X51.880 Y92.987 E9.11106
G1 X51.901 Y92.934 E9.11181
G1 F1134.61
G1 X51.944 Y92.827 E9.11373
G1 F1134.61
G1 X51.987 Y92.721 E9.11604
G1 X52.045 Y92.718 E9.11721
G1 X57.655 Y92.718 E9.23018
G1 X57.812 Y92.740 E9.23336
G1 X57.857 Y92.905 E9.23680
G1 F1134.61
G1 X57.880 Y92.987 E9.23818
G1 X57.880 Y96.620 E9.29741
G1 Z3.950 F7800.000
G1 X57.375 Y96.640 F7800.000
G1 F890.559
G1 X52.325 Y96.640 E9.40149
G1 X52.325 Y92.967 E9.47718
G1 X57.375 Y92.967 E9.58126
G1 X57.375 Y96.565 E9.65541
G1 X57.529 Y97.115 F7800.000
G1 X57.823 Y97.200 F7800.000
G1 F890.559
G1 X57.823 Y98.357 E9.68662
G1 X51.995 Y98.357 E9.84386
G1 X51.995 Y97.200 E9.87508
G1 X57.748 Y97.200 E10.03030
G1 X58.384 Y98.918 F7800.000
G1 F890.559
G1 X51.434 Y98.918 E10.17354
G1 X51.434 Y91.868 E10.31884
G1 X58.384 Y91.868 E10.46208
G1 X58.384 Y98.843 E10.60584
G1 X57.901 Y98.787 F7800.000
G1 X57.506 Y97.779 F7800.000
G1 F1187.41
G1 X52.313 Y97.779 E10.70661
G1 X51.880 Y96.920 F7800.000
G1 F1187.41
G1 X51.880 Y92.687 E10.76209
G1 X51.901 Y92.634 E10.76284
G1 F1187.41
G1 X51.944 Y92.527 E10.76476
G1 F1187.41
G1 X51.987 Y92.421 E10.76707
G1 X52.045 Y92.418 E10.76824
G1 X57.655 Y92.418 E10.88121
G1 X57.812 Y92.440 E10.88439
G1 X57.857 Y92.605 E10.88782
G1 F1187.41
G1 X57.880 Y92.687 E10.88921
G1 X57.880 Y96.920 E10.95822
M106 S252.45
G1 Z4.250 F7800.000
G1 X57.375 Y96.940 F7800.000
G1 F900
G1 X52.325 Y96.940 E11.06230
G1 X52.325 Y92.667 E11.15035
G1 X57.375 Y92.667 E11.25444
G1 X57.375 Y96.865 E11.34095
G1 X57.518 Y97.419 F7800.000
G1 X57.823 Y97.500 F7800.000
G1 F900
G1 X57.823 Y98.657 E11.37216
G1 X51.995 Y98.657 E11.52940
G1 X51.995 Y97.500 E11.56062
G1 X57.748 Y97.500 E11.71584
G1 X58.384 Y99.218 F7800.000
G1 F900
G1 X51.434 Y99.218 E11.85908
G1 X51.434 Y91.568 E12.01675
G1 X58.384 Y91.568 E12.15999
G1 X58.384 Y99.143 E12.31611
G1 X57.903 Y99.081 F7800.000
G1 X57.506 Y98.079 F7800.000
G1 F1200
G1 X52.313 Y98.079 E12.41688
G1 X51.880 Y97.220 F7800.000
G1 F1200
G1 X51.880 Y92.387 E12.48022
G1 X51.901 Y92.334 E12.48097
G1 F1200
G1 X51.944 Y92.227 E12.48290
G1 F1200
G1 X51.987 Y92.121 E12.48521
G1 X52.045 Y92.118 E12.48638
G1 X57.655 Y92.118 E12.59934
G1 X57.812 Y92.140 E12.60253
G1 X57.857 Y92.305 E12.60596
G1 F1200
G1 X57.880 Y92.387 E12.60735
G1 X57.880 Y97.220 E12.68613
G1 Z4.550 F7800.000
G1 X57.375 Y97.240 F7800.000
G1 F900
G1 X52.325 Y97.240 E12.79021
G1 X52.325 Y92.367 E12.89064
G1 X57.375 Y92.367 E12.99472
G1 X57.375 Y97.165 E13.09360
G1 X57.507 Y97.722 F7800.000
G1 X57.823 Y97.800 F7800.000
G1 F900
G1 X57.823 Y98.957 E13.12481
G1 X51.995 Y98.957 E13.28205
G1 X51.995 Y97.800 E13.31327
G1 X57.748 Y97.800 E13.46849
G1 X58.384 Y99.518 F7800.000
G1 F900
G1 X51.434 Y99.518 E13.61173
G1 X51.434 Y91.268 E13.78176
G1 X58.384 Y91.268 E13.92501
G1 X58.384 Y99.443 E14.09350
G1 X57.905 Y99.375 F7800.000
G1 X57.506 Y98.379 F7800.000
G1 F1200
G1 X52.313 Y98.379 E14.19426
G1 X51.880 Y97.520 F7800.000
G1 F1200
G1 X51.880 Y92.087 E14.26547
G1 X51.901 Y92.034 E14.26622
G1 F1200
G1 X51.944 Y91.927 E14.26814
G1 F1200
G1 X51.987 Y91.821 E14.27045
G1 X52.045 Y91.818 E14.27162
G1 X57.655 Y91.818 E14.38459
G1 X57.812 Y91.840 E14.38777
G1 X57.857 Y92.005 E14.39121
G1 F1200
G1 X57.880 Y92.087 E14.39259
G1 X57.880 Y97.520 E14.48116
G1 Z4.850 F7800.000
G1 X57.375 Y97.540 F7800.000
G1 F900
G1 X52.325 Y97.540 E14.58524
G1 X52.325 Y92.067 E14.69803
G1 X57.375 Y92.067 E14.80211
G1 X57.375 Y97.465 E14.91336
G1 X57.498 Y98.024 F7800.000
G1 X57.823 Y98.100 F7800.000
G1 F900
G1 X57.823 Y99.257 E14.94457
G1 X51.995 Y99.257 E15.10181
G1 X51.995 Y98.100 E15.13303
G1 X57.748 Y98.100 E15.28825
G1 X58.384 Y99.818 F7800.000
G1 F900
G1 X51.434 Y99.818 E15.43149
G1 X51.434 Y90.968 E15.61389
G1 X58.384 Y90.968 E15.75713
G1 X58.384 Y99.743 E15.93799
G1 X57.907 Y99.669 F7800.000
G1 X57.506 Y98.679 F7800.000
G1 F1200
G1 X52.313 Y98.679 E16.03875
G1 X51.880 Y97.820 F7800.000
G1 F1200
G1 X51.880 Y91.787 E16.11782
G1 X51.901 Y91.734 E16.11857
G1 F1200
G1 X51.944 Y91.627 E16.12050
G1 F1200
G1 X51.987 Y91.521 E16.12281
G1 X52.045 Y91.518 E16.12398
G1 X57.655 Y91.518 E16.23694
G1 X57.812 Y91.540 E16.24013
G1 X57.857 Y91.705 E16.24356
G1 F1200
G1 X57.880 Y91.787 E16.24495
G1 X57.880 Y97.820 E16.34329
G1 Z5.150 F7800.000
G1 X57.375 Y97.840 F7800.000
G1 F900
G1 X52.325 Y97.840 E16.44738
G1 X52.325 Y91.767 E16.57253
G1 X57.375 Y91.767 E16.67661
G1 X57.375 Y97.765 E16.80022
G1 X57.490 Y98.326 F7800.000
G1 X57.823 Y98.400 F7800.000
G1 F900
G1 X57.823 Y99.557 E16.83144
G1 X51.995 Y99.557 E16.98868
G1 X51.995 Y98.400 E17.01990
G1 X57.748 Y98.400 E17.17511
G1 X58.384 Y100.118 F7800.000
G1 F900
G1 X51.434 Y100.118 E17.31836
G1 X51.434 Y90.668 E17.51312
G1 X58.384 Y90.668 E17.65637
G1 X58.384 Y100.043 E17.84959
G1 X57.908 Y99.964 F7800.000
G1 X57.506 Y98.979 F7800.000
G1 F1200
G1 X52.313 Y98.979 E17.95035
G1 X51.880 Y98.120 F7800.000
G1 F1200
G1 X51.880 Y91.487 E18.03729
G1 X51.901 Y91.434 E18.03804
G1 F1200
G1 X51.944 Y91.327 E18.03996
G1 F1200
G1 X51.987 Y91.221 E18.04227
G1 X52.045 Y91.218 E18.04344
G1 X57.655 Y91.218 E18.15641
G1 X57.812 Y91.240 E18.15959
G1 X57.857 Y91.405 E18.16302
G1 F1200
G1 X57.880 Y91.487 E18.16441
G1 X57.880 Y98.120 E18.27254
M106 S249.9
G1 Z5.450 F7800.000
G1 X57.375 Y98.140 F7800.000
G1 F900
G1 X52.325 Y98.140 E18.37662
G1 X52.325 Y91.467 E18.51414
G1 X57.375 Y91.467 E18.61822
G1 X57.375 Y98.065 E18.75420
G1 X57.482 Y98.628 F7800.000
G1 X57.823 Y98.700 F7800.000
G1 F900
G1 X57.823 Y99.857 E18.78542
G1 X51.995 Y99.857 E18.94266
G1 X51.995 Y98.700 E18.97387
G1 X57.748 Y98.700 E19.12909
G1 X58.384 Y100.418 F7800.000
G1 F900
G1 X51.434 Y100.418 E19.27233
G1 X51.434 Y90.368 E19.47947
G1 X58.384 Y90.368 E19.62271
G1 X58.384 Y100.343 E19.82830
G1 X57.910 Y100.260 F7800.000
G1 X57.506 Y99.279 F7800.000
G1 F1200
G1 X52.313 Y99.279 E19.92906
G1 X51.880 Y98.420 F7800.000
G1 F1200
G1 X51.880 Y91.187 E20.02386
G1 X51.901 Y91.134 E20.02461
G1 F1200
G1 X51.944 Y91.027 E20.02653
G1 F1200
G1 X51.987 Y90.921 E20.02884
G1 X52.045 Y90.918 E20.03001
G1 X57.655 Y90.918 E20.14298
G1 X57.812 Y90.940 E20.14617
G1 X57.857 Y91.105 E20.14960
G1 F1200
G1 X57.880 Y91.187 E20.15099
G1 X57.880 Y98.420 E20.26889
G1 Z5.750 F7800.000
G1 X57.375 Y98.440 F7800.000
G1 F900
G1 X52.325 Y98.440 E20.37297
G1 X52.325 Y91.167 E20.52286
G1 X57.375 Y91.167 E20.62694
G1 X57.375 Y98.365 E20.77529
G1 X57.475 Y98.929 F7800.000
G1 X57.823 Y99.000 F7800.000
G1 F900
G1 X57.823 Y100.157 E20.80650
G1 X51.995 Y100.157 E20.96374
G1 X51.995 Y99.000 E20.99496
G1 X57.748 Y99.000 E21.15018
G1 X58.384 Y100.718 F7800.000
G1 F900
G1 X51.434 Y100.718 E21.29342
G1 X51.434 Y90.068 E21.51292
G1 X58.384 Y90.068 E21.65616
G1 X58.384 Y100.643 E21.87411
G1 X57.911 Y100.556 F7800.000
G1 X57.506 Y99.579 F7800.000
G1 F1200
G1 X52.313 Y99.579 E21.97488
G1 X51.880 Y98.720 F7800.000
G1 F1200
G1 X51.880 Y90.887 E22.07754
G1 X51.901 Y90.834 E22.07829
G1 F1200
G1 X51.944 Y90.727 E22.08021
G1 F1200
G1 X51.987 Y90.621 E22.08253
G1 X52.045 Y90.618 E22.08369
G1 X57.655 Y90.618 E22.19666
G1 X57.812 Y90.640 E22.19985
G1 X57.857 Y90.805 E22.20328
G1 F1200
G1 X57.880 Y90.887 E22.20467
G1 X57.880 Y98.720 E22.33235
G1 Z6.050 F7800.000
G1 X57.375 Y98.740 F7800.000
G1 F900
G1 X52.325 Y98.740 E22.43644
G1 X52.325 Y90.867 E22.59869
G1 X57.375 Y90.867 E22.70277
G1 X57.375 Y98.665 E22.86348
G1 X57.469 Y99.231 F7800.000
G1 X57.823 Y99.300 F7800.000
G1 F900
G1 X57.823 Y100.457 E22.89470
G1 X51.995 Y100.457 E23.05194
G1 X51.995 Y99.300 E23.08315
G1 X57.748 Y99.300 E23.23837
G1 X58.384 Y101.018 F7800.000
G1 F900
G1 X51.434 Y101.018 E23.38161
G1 X51.434 Y89.768 E23.61348
