; generated by Slic3r 1.3.0 on 2019-01-04 at 15:31:54

; external perimeters extrusion width = 0.55mm (4.37mm^3/s)
; perimeters extrusion width = 0.70mm (11.44mm^3/s)
; infill extrusion width = 0.62mm (13.45mm^3/s)
; solid infill extrusion width = 0.70mm (3.81mm^3/s)
; top infill extrusion width = 0.70mm (2.86mm^3/s)

M107
M104 S200 ; set temperature
G28 ; home all axes
G1 Z5 F5000 ; lift nozzle

; Filament gcode

M109 S200 ; set temperature and wait for it to be reached
G21 ; set units to millimeters
G90 ; use absolute coordinates
M82 ; use absolute distances for extrusion
G92 E0
G1 Z0.350 F7800.000
G1 E-2.00000 F2400.00000
G92 E0
G1 X100.153 Y87.866 F7800.000
G1 E2.00000 F2400.00000
G1 F1144.79
G1 X101.907 Y86.387 E2.07096
G1 X104.059 Y85.595 E2.14192
G1 X105.236 Y85.490 E2.17848
G1 X106.541 Y85.490 E2.21886
G1 X108.800 Y85.887 E2.28982
G1 X110.788 Y87.030 E2.36078
G1 X112.267 Y88.783 E2.43174
G1 X113.060 Y90.935 E2.50271
G1 X113.166 Y92.115 E2.53936
G1 X113.166 Y107.885 E3.02730
G1 X112.769 Y110.144 E3.09826
G1 X111.625 Y112.132 E3.16923
G1 X109.873 Y113.611 E3.24019
G1 X107.721 Y114.404 E3.31115
G1 X106.541 Y114.510 E3.34780
G1 X105.236 Y114.510 E3.38818
G1 X102.977 Y114.113 E3.45914
G1 X100.989 Y112.970 E3.53011
G1 X99.510 Y111.217 E3.60107
G1 X98.717 Y109.065 E3.67203
G1 X98.611 Y107.889 E3.70857
G1 X98.611 Y92.112 E4.19673
G1 X99.009 Y89.853 E4.26769
G1 X100.116 Y87.931 E4.33633
G1 E2.33633 F2400.00000
G92 E0
G1 X106.191 Y107.535 F7800.000
G1 E2.00000 F2400.00000
G1 F1800
G1 X105.586 Y107.535 E2.01872
G1 X105.586 Y92.465 E2.48501
G1 X106.190 Y92.465 E2.50372
G1 X106.191 Y107.460 E2.96768
G1 X105.754 Y107.291 F7800.000
G1 Z0.650 F7800.000
G1 X105.604 Y107.049 F7800.000
G1 F600
G1 X105.129 Y107.049 E2.98051
G1 X105.129 Y92.951 E3.36084
G1 X105.603 Y92.951 E3.37365
G1 X105.604 Y106.974 E3.75196
G1 X106.165 Y107.610 F7800.000
G1 F1800
G1 X104.986 Y107.610 E3.77626

G1 F3600
G1 X104.568 Y107.610 E3.78786
G1 X104.568 Y92.390 E4.21064
G1 X104.986 Y92.390 E4.22224

G1 F1800
G1 X106.164 Y92.390 E4.24653
G1 X106.165 Y107.535 E4.55868
G1 X105.732 Y107.360 F7800.000
G1 Z0.950 F7800.000
G1 X104.995 Y107.049 F7800.000
G1 F600
G1 X104.389 Y107.049 E4.57503
G1 X104.389 Y92.951 E4.95536
G1 X104.995 Y92.951 E4.97171
G1 X104.995 Y106.974 E5.35002
G1 X105.556 Y107.610 F7800.000
G1 F1800
G1 X104.043 Y107.610 E5.38120

G1 F3600
G1 X103.828 Y107.610 E5.38716
G1 X103.828 Y92.390 E5.80994
G1 X104.043 Y92.390 E5.81590

G1 F1800
G1 X105.556 Y92.390 E5.84707
G1 X105.556 Y107.535 E6.15922
G1 X105.115 Y107.374 F7800.000
M106 S255
G1 Z1.250 F7800.000
G1 X104.145 Y107.049 F7800.000
G1 F600
G1 X103.739 Y107.049 E6.17017
G1 X103.739 Y92.951 E6.55051
G1 X104.145 Y92.951 E6.56146
G1 X104.145 Y106.974 E6.93977
G1 X104.705 Y107.610 F7800.000
G1 F1800
G1 X103.303 Y107.610 E6.96867
M106 S255

G1 F3600
G1 X103.178 Y107.610 E6.97215
G1 X103.178 Y92.390 E7.39493
G1 X103.303 Y92.390 E7.39841
M106 S255

G1 F1800
G1 X104.705 Y92.390 E7.42730
G1 X104.705 Y107.535 E7.73945
G1 X104.265 Y107.373 F7800.000
G1 Z1.550 F7800.000
G1 X103.973 Y107.610 F7800.000
G1 F1800
G1 X102.653 Y107.610 E7.76666
M106 S255

G1 F3600
G1 X102.589 Y107.610 E7.76845
G1 X102.589 Y92.390 E8.19122
G1 X102.653 Y92.390 E8.19301
M106 S255

G1 F1800
G1 X103.973 Y92.390 E8.22022
G1 X103.973 Y107.535 E8.53237
G1 X103.540 Y107.360 F7800.000
G1 E6.53237 F2400.00000
G92 E0
G1 X104.248 Y92.515 F7800.000
G1 E2.00000 F2400.00000
G1 F1800
G1 X105.781 Y92.515 E2.04624
G1 X106.181 Y92.915 E2.06331
G1 E0.06331 F2400.00000
G92 E0
G1 X106.181 Y107.485 F7800.000
G1 E2.00000 F2400.00000
G1 F1800
G1 X104.248 Y107.485 E2.06033
G1 X103.281 Y107.330 F7800.000
G1 F600
G1 X103.281 Y92.670 E2.53300
G1 Z1.850 F7800.000
G1 E0.53300 F2400.00000
G92 E0
G1 X103.329 Y107.610 F7800.000
G1 E2.00000 F2400.00000
G1 F600
G1 X102.064 Y107.610 E2.02607
M106 S255

G1 F3600
G1 X102.064 Y92.390 E2.44885
M106 S255

G1 F600
G1 X103.328 Y92.390 E2.47492
G1 X103.329 Y107.535 E2.78706
G1 X102.895 Y107.360 F7800.000
G1 E0.78706 F2400.00000
G92 E0
G1 X103.603 Y92.515 F7800.000
G1 E2.00000 F2400.00000
G1 F600
G1 X106.099 Y92.515 E2.07792
G1 E0.07792 F2400.00000
G92 E0
G1 X106.100 Y107.485 F7800.000
G1 E2.00000 F2400.00000
G1 F600
G1 X103.604 Y107.485 E2.07793
G1 X102.690 Y107.330 F7800.000
G1 F600
G1 X102.690 Y92.670 E2.48305
G1 Z2.150 F7800.000
G1 E0.48305 F2400.00000
G92 E0
G1 X102.743 Y107.610 F7800.000
G1 E2.00000 F2400.00000
G1 F600
G1 X101.555 Y107.610 E2.02449
G1 X101.555 Y92.390 E2.33818
G1 X102.743 Y92.390 E2.36267
G1 X102.743 Y107.535 E2.67482
G1 X102.310 Y107.360 F7800.000
G1 X103.018 Y107.485 F7800.000
G1 F1123.77
G1 X106.023 Y107.485 E2.76864
G1 E0.76864 F2400.00000
G92 E0
G1 X106.023 Y92.915 F7800.000
G1 E2.00000 F2400.00000
G1 F1123.77
G1 X105.645 Y92.537 E2.01469
G1 F1123.77
G1 X105.623 Y92.515 E2.01566
G1 X103.018 Y92.515 E2.09698
G1 X102.149 Y92.670 F7800.000
G1 F749.182
G1 X102.149 Y107.330 E2.44745
G1 Z2.450 F7800.000
G1 X102.212 Y107.610 F7800.000
G1 F600
G1 X101.097 Y107.610 E2.47043
G1 X101.097 Y92.390 E2.78412
G1 X102.212 Y92.390 E2.80710
G1 X102.212 Y107.535 E3.11924
G1 X101.779 Y107.360 F7800.000
G1 X102.487 Y107.485 F7800.000
G1 F1129.21
G1 X105.948 Y107.485 E3.22729
G1 E1.22729 F2400.00000
G92 E0
G1 X105.948 Y92.515 F7800.000
G1 E2.00000 F2400.00000
G1 F1129.21
G1 X102.487 Y92.515 E2.10805
G1 X101.655 Y92.670 F7800.000
G1 F752.807
G1 X101.655 Y107.330 E2.41291
G1 Z2.750 F7800.000
G1 X101.720 Y107.610 F7800.000
G1 F600
G1 X100.668 Y107.610 E2.43458
G1 X100.668 Y92.390 E2.74827
G1 X101.720 Y92.390 E2.76993
G1 X101.720 Y107.535 E3.08207
G1 X101.287 Y107.360 F7800.000
G1 X101.995 Y107.485 F7800.000
G1 F1138.26
G1 X105.878 Y107.485 E3.20331
G1 E1.20331 F2400.00000
G92 E0
G1 X105.877 Y92.915 F7800.000
G1 E2.00000 F2400.00000
G1 F1138.26
G1 X105.525 Y92.563 E2.01255
G1 F1138.26
G1 X105.477 Y92.515 E2.01451
G1 X101.995 Y92.515 E2.11622
G1 X101.194 Y92.670 F7800.000
G1 F758.843
G1 X101.194 Y107.330 E2.38134
G1 Z3.050 F7800.000
G1 X101.263 Y107.610 F7800.000
G1 F655.294
G1 X100.266 Y107.610 E2.40191
G1 X100.266 Y92.390 E2.71560
G1 X101.263 Y92.390 E2.73616
G1 X101.263 Y107.535 E3.04831
G1 X100.825 Y107.370 F7800.000
G1 X101.538 Y107.485 F7800.000
G1 F1310.59
G1 X105.046 Y107.485 E3.15780
G1 F1310.59
G1 X105.350 Y107.427 E3.16851
G1 X105.389 Y107.256 E3.17456
G1 F1310.59
G1 X105.427 Y107.085 E3.18004
G1 X105.427 Y92.915 E3.62306
G1 X105.408 Y92.830 E3.62580
G1 F1310.59
G1 X105.350 Y92.573 E3.63487
G1 X105.147 Y92.534 E3.64201
G1 F1310.59
G1 X105.046 Y92.515 E3.64523
G1 X101.538 Y92.515 E3.75473
G1 X100.764 Y92.670 F7800.000
G1 F873.726
G1 X100.764 Y107.330 E3.98666
G1 Z3.350 F7800.000
G1 X100.839 Y107.610 F7800.000
G1 F658.255
G1 X99.886 Y107.610 E4.00629
G1 X99.886 Y92.390 E4.31998
G1 X100.839 Y92.390 E4.33961
G1 X100.839 Y107.535 E4.65175
G1 X100.400 Y107.369 F7800.000
G1 X101.114 Y107.485 F7800.000
G1 F1316.51
G1 X104.940 Y107.485 E4.77123
G1 X105.052 Y107.462 E4.77478
G1 F1316.51
G1 X105.274 Y107.415 E4.78279
G1 X105.342 Y107.085 E4.79464
G1 F1316.51
G1 X105.342 Y92.915 E5.23943
G1 X105.320 Y92.805 E5.24295
G1 F1316.51
G1 X105.274 Y92.585 E5.25087
G1 X104.940 Y92.515 E5.26290
G1 F1316.51
G1 X101.114 Y92.515 E5.38237
G1 X100.362 Y92.670 F7800.000
G1 F877.674
G1 X100.362 Y107.330 E5.58607
G1 Z3.650 F7800.000
G1 X100.439 Y107.610 F7800.000
G1 F661.288
G1 X99.528 Y107.610 E5.60486
G1 X99.528 Y92.390 E5.91855
G1 X100.439 Y92.390 E5.93733
G1 X100.439 Y107.535 E6.24947
G1 X100.001 Y107.369 F7800.000
G1 X100.714 Y107.485 F7800.000
G1 F1322.58
G1 X104.875 Y107.485 E6.37937
G1 X104.987 Y107.462 E6.38294
G1 F1322.58
G1 X105.210 Y107.415 E6.39098
G1 X105.278 Y107.085 E6.40283
G1 F1322.58
G1 X105.278 Y92.915 E6.84864
G1 X105.255 Y92.805 E6.85217
G1 F1322.58
G1 X105.210 Y92.585 E6.86009
G1 X104.875 Y92.515 E6.87218
G1 F1322.58
G1 X100.714 Y92.515 E7.00208
G1 X99.984 Y92.670 F7800.000
G1 F881.717
G1 X99.984 Y107.330 E7.18028
G1 Z3.950 F7800.000
G1 X100.063 Y107.610 F7800.000
G1 F664.186
G1 X99.189 Y107.610 E7.19830
G1 X99.189 Y92.390 E7.51199
G1 X100.063 Y92.390 E7.53001
G1 X100.063 Y107.535 E7.84215
G1 X99.625 Y107.368 F7800.000
G1 X100.338 Y107.485 F7800.000
G1 F1328.37
G1 X104.813 Y107.485 E7.98187
G1 X104.926 Y107.461 E7.98546
G1 F1328.37
G1 X105.151 Y107.414 E7.99358
G1 X105.218 Y107.085 E8.00540
G1 F1328.37
G1 X105.218 Y92.915 E8.45327
G1 X105.196 Y92.805 E8.45680
G1 F1328.37
G1 X105.151 Y92.586 E8.46471
G1 X104.926 Y92.539 E8.47285
G1 F1328.37
G1 X104.813 Y92.515 E8.47668
G1 X100.338 Y92.515 E8.62543
G1 X99.626 Y92.670 F7800.000
G1 F885.581
G1 X99.626 Y107.330 E8.78047
G1 Z4.250 F7800.000
G1 X99.708 Y107.610 F7800.000
G1 F666.929
G1 X98.868 Y107.610 E8.79779
G1 X98.868 Y92.390 E9.11148
G1 X99.708 Y92.390 E9.12880
G1 X99.708 Y107.535 E9.44094
G1 X99.270 Y107.368 F7800.000
G1 X99.983 Y107.485 F7800.000
G1 F1333.86
G1 X104.754 Y107.485 E9.58990
G1 X104.867 Y107.461 E9.59350
G1 F1333.86
G1 X105.093 Y107.413 E9.60165
G1 X105.159 Y107.085 E9.61347
G1 F1333.86
G1 X105.159 Y92.915 E10.06238
G1 X105.138 Y92.782 E10.06664
G1 F1333.86
G1 X105.093 Y92.587 E10.07374
G1 X104.754 Y92.515 E10.08599
G1 F1333.86
G1 X99.983 Y92.515 E10.23494
G1 X99.288 Y92.670 F7800.000
G1 F889.239
G1 X99.288 Y107.330 E10.36884
G1 Z4.550 F7800.000
G1 X99.372 Y107.610 F7800.000
G1 F669.563
G1 X98.563 Y107.610 E10.38552
G1 X98.563 Y92.390 E10.69921
G1 X99.372 Y92.390 E10.71588
G1 X99.372 Y107.535 E11.02802
G1 X98.934 Y107.368 F7800.000
G1 X99.647 Y107.485 F7800.000
G1 F1339.13
G1 X104.699 Y107.485 E11.18574
G1 X104.812 Y107.461 E11.18937
G1 F1339.13
G1 X105.040 Y107.412 E11.19759
G1 X105.105 Y107.085 E11.20938
G1 F1339.13
G1 X105.105 Y92.915 E11.66002
G1 X105.084 Y92.806 E11.66355
G1 F1339.13
G1 X105.040 Y92.588 E11.67146
G1 X104.812 Y92.539 E11.67972
G1 F1339.13
G1 X104.699 Y92.515 E11.68359
G1 X99.647 Y92.515 E11.85170
G1 X98.967 Y92.670 F7800.000
G1 F892.751
G1 X98.967 Y107.330 E11.96620
G1 Z4.850 F7800.000
G1 X99.053 Y107.610 F7800.000
G1 F672.068
G1 X98.273 Y107.610 E11.98228
G1 X98.273 Y92.390 E12.29597
G1 X99.053 Y92.390 E12.31205
G1 X99.053 Y107.535 E12.62419
G1 X98.616 Y107.367 F7800.000
G1 X99.328 Y107.485 F7800.000
G1 F1344.14
G1 X104.645 Y107.485 E12.79018
G1 X104.759 Y107.461 E12.79383
G1 F1344.14
G1 X104.987 Y107.412 E12.80208
G1 X105.053 Y107.085 E12.81386
G1 F1344.14
G1 X105.047 Y92.821 E13.26853
G1 X105.047 Y92.821 F7800.000
G1 F1344.14
G1 X105.007 Y92.666 E13.27400
G1 F1344.14
G1 X104.987 Y92.588 E13.27700
G1 X104.759 Y92.539 E13.28573
G1 F1344.14
G1 X104.645 Y92.515 E13.28962
G1 X99.328 Y92.515 E13.46662
G1 X98.663 Y92.670 F7800.000
G1 F896.091
G1 X98.663 Y107.330 E13.56323
G1 Z5.150 F7800.000
G1 X98.751 Y107.610 F7800.000
G1 F674.473
G1 X97.997 Y107.610 E13.57877
G1 X97.997 Y92.390 E13.89246
G1 X98.751 Y92.390 E13.90799
G1 X98.751 Y107.535 E14.22013
G1 X98.314 Y107.367 F7800.000
G1 X99.026 Y107.485 F7800.000
G1 F1348.95
G1 X104.596 Y107.485 E14.40568
G1 X104.711 Y107.460 E14.40959
G1 F1348.95
G1 X104.940 Y107.411 E14.41795
G1 X104.983 Y107.194 E14.42585
G1 F1348.95
G1 X105.005 Y107.085 E14.42940
G1 X105.005 Y92.915 E14.88249
G1 F1348.95
G1 X104.940 Y92.589 E14.89426
G1 X104.711 Y92.540 E14.90257
G1 F1348.95
G1 X104.596 Y92.515 E14.90623
G1 X99.026 Y92.515 E15.08012
G1 X98.374 Y92.670 F7800.000
G1 F899.298
G1 X98.374 Y107.330 E15.16018
G1 Z5.450 F7800.000
G1 X98.463 Y107.610 F7800.000
G1 F676.765
G1 X97.734 Y107.610 E15.17520
G1 X97.734 Y92.390 E15.48889
G1 X98.463 Y92.390 E15.50392
G1 X98.463 Y107.535 E15.81606
G1 X98.026 Y107.367 F7800.000
G1 X98.738 Y107.485 F7800.000
G1 F1353.53
G1 X104.548 Y107.485 E15.99744
G1 X104.663 Y107.460 E16.00112
G1 F1353.53
G1 X104.893 Y107.411 E16.00946
G1 X104.958 Y107.085 E16.02122
G1 F1353.53
G1 X104.958 Y92.915 E16.47535
G1 X104.936 Y92.806 E16.47890
G1 F1353.53
G1 X104.893 Y92.589 E16.48680
G1 X104.663 Y92.540 E16.49520
G1 F1353.53
G1 X104.548 Y92.515 E16.49912
G1 X98.738 Y92.515 E16.69274
G1 X98.099 Y92.670 F7800.000
G1 F902.354
G1 X98.099 Y107.330 E16.75741
G1 Z5.750 F7800.000
G1 X98.190 Y107.610 F7800.000
G1 F678.987
G1 X97.484 Y107.610 E16.77195
G1 X97.484 Y92.390 E17.08564
G1 X98.190 Y92.390 E17.10019
G1 X98.190 Y107.535 E17.41234
G1 X97.753 Y107.367 F7800.000
G1 X98.465 Y107.485 F7800.000
G1 F1357.97
G1 X104.505 Y107.485 E17.60092
G1 F1357.97
G1 X104.678 Y107.447 E17.60702
G1 F1357.97
G1 X104.851 Y107.410 E17.61368
G1 X104.873 Y107.302 E17.61783
G1 F1357.97
G1 X104.916 Y107.085 E17.62533
G1 X104.916 Y92.915 E18.10637
G1 X104.894 Y92.807 E18.11012
G1 F1357.97
G1 X104.851 Y92.590 E18.11842
G1 X104.765 Y92.571 E18.12176
G1 F1357.97
G1 X104.592 Y92.534 E18.12785
G1 F1357.97
G1 X104.505 Y92.515 E18.13062
G1 X98.465 Y92.515 E18.31920
G1 X97.837 Y92.670 F7800.000
G1 F905.317
G1 X97.837 Y107.330 E18.36950
G1 Z6.050 F7800.000
G1 X97.929 Y107.610 F7800.000
G1 F681.102
G1 X97.245 Y107.610 E18.38360
G1 X97.245 Y92.390 E18.69729
G1 X97.929 Y92.390 E18.71139
G1 X97.929 Y107.535 E19.02354
G1 X97.492 Y107.367 F7800.000
G1 X98.204 Y107.485 F7800.000
G1 F1362.2
G1 X104.463 Y107.485 E19.21895
G1 X104.550 Y107.466 E19.22173
G1 F1362.2
G1 X104.724 Y107.428 E19.22785
G1 F1362.2
G1 X104.811 Y107.409 E19.23120
G1 X104.853 Y107.193 E19.23949
G1 F1362.2
G1 X104.875 Y107.085 E19.24324
G1 X104.875 Y92.915 E19.72516
G1 X104.832 Y92.699 E19.73266
G1 F1362.2
G1 X104.811 Y92.590 E19.73681
G1 X104.637 Y92.553 E19.74350
G1 F1362.2
G1 X104.463 Y92.515 E19.74962
G1 F1362.2
G1 X98.204 Y92.515 E19.94503
G1 X97.587 Y92.670 F7800.000
G1 F908.136
G1 X97.587 Y107.330 E19.98188
G1 Z6.350 F7800.000
G1 X97.680 Y107.610 F7800.000
G1 F683.162
G1 X97.016 Y107.610 E19.99556
G1 X97.016 Y92.390 E20.30925
G1 X97.680 Y92.390 E20.32293
G1 X97.680 Y107.535 E20.63507
G1 X97.244 Y107.366 F7800.000
G1 X97.955 Y107.485 F7800.000
G1 F1366.32
G1 X104.426 Y107.485 E20.83710
G1 X104.513 Y107.466 E20.83988
G1 F1366.32
G1 X104.687 Y107.428 E20.84603
G1 F1366.32
G1 X104.775 Y107.409 E20.84939
G1 X104.817 Y107.193 E20.85768
G1 F1366.32
G1 X104.838 Y107.085 E20.86143
G1 X104.838 Y92.915 E21.34412
G1 X104.796 Y92.699 E21.35162
G1 F1366.32
G1 X104.775 Y92.591 E21.35576
G1 X104.600 Y92.553 E21.36248
G1 F1366.32
G1 X104.426 Y92.515 E21.36863
G1 F1366.32
G1 X97.955 Y92.515 E21.57065
G1 X97.348 Y92.670 F7800.000
G1 F910.882
G1 X97.348 Y107.330 E21.59485
G1 Z6.650 F7800.000
G1 X97.443 Y107.610 F7800.000
G1 F685.124
G1 X96.798 Y107.610 E21.60814
G1 X96.798 Y92.390 E21.92183
G1 X97.443 Y92.390 E21.93511
G1 X97.443 Y107.535 E22.24726
G1 X97.006 Y107.366 F7800.000
G1 X97.718 Y107.485 F7800.000
G1 F1370.25
G1 X104.390 Y107.485 E22.45556
G1 X104.477 Y107.466 E22.45835
G1 F1370.25
G1 X104.652 Y107.428 E22.46452
G1 F1370.25
G1 X104.740 Y107.409 E22.46790
G1 X104.782 Y107.193 E22.47619
G1 F1370.25
G1 X104.803 Y107.085 E22.47994
G1 X104.803 Y92.915 E22.96344
G1 X104.761 Y92.699 E22.97094
G1 F1370.25
G1 X104.740 Y92.591 E22.97509
G1 X104.565 Y92.553 E22.98184
G1 F1370.25
G1 X104.390 Y92.515 E22.98800
G1 F1370.25
G1 X97.718 Y92.515 E23.19631
G1 X97.120 Y92.670 F7800.000
G1 F913.498
G1 X97.120 Y107.330 E23.20858
G1 Z6.950 F7800.000
G1 X97.216 Y107.610 F7800.000
G1 F600
G1 X96.589 Y107.610 E23.22149
G1 X96.589 Y92.390 E23.53518
G1 X97.216 Y92.390 E23.54810
G1 X97.216 Y107.535 E23.86024
G1 X96.780 Y107.366 F7800.000
G1 X97.491 Y107.485 F7800.000
G1 F1110.21
G1 X104.359 Y107.485 E24.07465
G1 X104.446 Y107.466 E24.07745
G1 F1110.21
G1 X104.622 Y107.427 E24.08364
G1 F1110.21
G1 X104.709 Y107.408 E24.08702
G1 X104.751 Y107.193 E24.09531
G1 F1110.21
G1 X104.772 Y107.085 E24.09906
G1 X104.772 Y92.915 E24.58314
G1 X104.730 Y92.700 E24.59064
G1 F1110.21
G1 X104.709 Y92.592 E24.59478
G1 X104.534 Y92.553 E24.60155
G1 F1110.21
G1 X104.359 Y92.515 E24.60774
G1 F1110.21
G1 X97.491 Y92.515 E24.82215
G1 Z7.250 F7800.000
G1 E22.82215 F2400.00000
G92 E0
G1 X96.999 Y107.610 F7800.000
G1 E2.00000 F2400.00000
G1 F600
G1 X96.390 Y107.610 E2.01256
G1 X96.390 Y92.390 E2.32625
G1 X96.999 Y92.390 E2.33881
G1 X96.999 Y107.535 E2.65095
G1 X96.563 Y107.366 F7800.000
G1 X97.274 Y107.485 F7800.000
G1 F1113.87
G1 X104.328 Y107.485 E2.87118
G1 X104.416 Y107.466 E2.87399
G1 F1113.87
