; generated by Slic3r 1.3.0 on 2019-01-04 at 16:34:00

; external perimeters extrusion width = 0.55mm (4.37mm^3/s)
; perimeters extrusion width = 0.70mm (11.44mm^3/s)
; infill extrusion width = 0.62mm (13.45mm^3/s)
; solid infill extrusion width = 0.70mm (3.81mm^3/s)
; top infill extrusion width = 0.70mm (2.86mm^3/s)

M107
M104 S200 ; set temperature
G28 ; home all axes
G1 Z5 F5000 ; lift nozzle

; Filament gcode

M109 S200 ; set temperature and wait for it to be reached
G21 ; set units to millimeters
G90 ; use absolute coordinates
M82 ; use absolute distances for extrusion
G92 E0
G1 Z0.350 F7800.000
G1 E-2.00000 F2400.00000
G92 E0
G1 X74.041 Y57.338 F7800.000
G1 E2.00000 F2400.00000
G1 F1800
G1 X74.549 Y56.709 E2.02501
G1 X74.930 Y56.280 E2.04276
G1 X75.463 Y55.736 E2.06634
G1 X76.090 Y55.164 E2.09260
G1 X76.680 Y54.686 E2.11610
G1 X77.370 Y54.187 E2.14244
G1 X78.008 Y53.780 E2.16585
G1 X78.753 Y53.363 E2.19226
G1 X79.431 Y53.032 E2.21561
G1 X80.220 Y52.701 E2.24209
G1 X80.929 Y52.450 E2.26536
G1 X81.754 Y52.210 E2.29193
G1 X82.484 Y52.042 E2.31511
G1 X83.333 Y51.897 E2.34176
G1 X84.075 Y51.813 E2.36487
G1 X84.938 Y51.765 E2.39161
G1 X85.681 Y51.767 E2.41462
G1 X86.547 Y51.817 E2.44145
G1 X87.283 Y51.903 E2.46438
G1 X88.139 Y52.052 E2.49126
G1 X88.859 Y52.221 E2.51413
G1 X89.695 Y52.467 E2.54110
G1 X90.388 Y52.715 E2.56389
G1 X91.193 Y53.056 E2.59094
G1 X91.852 Y53.380 E2.61364
G1 X92.615 Y53.811 E2.64076
G1 X93.230 Y54.207 E2.66340
G1 X93.941 Y54.724 E2.69060
G1 X94.505 Y55.185 E2.71315
G1 X95.155 Y55.781 E2.74045
G1 X95.661 Y56.302 E2.76291
G1 X96.192 Y56.911 E2.78791
G1 X96.887 Y57.828 E2.82349
G1 X97.465 Y58.733 E2.85671
G1 X97.973 Y59.678 E2.88991
G1 X98.200 Y60.165 E2.90654
G1 X98.474 Y60.828 E2.92875
G1 X98.656 Y61.332 E2.94534
G1 X98.894 Y62.105 E2.97034
G1 X99.157 Y63.221 E3.00582
G1 X99.320 Y64.294 E3.03942
G1 X99.371 Y64.829 E3.05604
G1 X99.406 Y65.538 E3.07801
G1 X99.411 Y79.350 E3.50535
G1 X99.385 Y79.931 E3.52334
G1 X99.265 Y80.770 E3.54958
G1 X99.221 Y80.966 E3.55578
G1 X98.938 Y81.880 E3.58541
G1 X98.863 Y82.066 E3.59160
G1 X98.434 Y82.921 E3.62122
G1 X97.759 Y83.873 E3.65733
G1 X96.903 Y84.728 E3.69475
G1 X96.035 Y85.351 E3.72781
G1 X95.051 Y85.848 E3.76191
G1 X94.055 Y86.172 E3.79432
G1 X93.805 Y86.229 E3.80226
G1 X92.966 Y86.350 E3.82849
G1 X92.386 Y86.375 E3.84646
G1 X77.776 Y86.362 E4.29849
G1 X76.766 Y86.229 E4.33002
G1 X76.516 Y86.172 E4.33796
G1 X75.520 Y85.848 E4.37037
G1 X74.614 Y85.398 E4.40167
G1 X73.668 Y84.728 E4.43752
G1 X72.807 Y83.867 E4.47523
G1 X72.185 Y83.000 E4.50824
G1 X71.687 Y82.016 E4.54235
G1 X71.363 Y81.019 E4.57479
G1 X71.306 Y80.770 E4.58268
G1 X71.186 Y79.931 E4.60892
G1 X71.161 Y79.350 E4.62691
G1 X71.161 Y65.916 E5.04255
G1 X71.174 Y65.283 E5.06217
G1 X71.261 Y64.214 E5.09533
G1 X71.428 Y63.155 E5.12850
G1 X71.675 Y62.112 E5.16167
G1 X72.000 Y61.091 E5.19483
G1 X72.402 Y60.097 E5.22800
G1 X72.878 Y59.137 E5.26116
G1 X73.425 Y58.215 E5.29433
G1 X73.996 Y57.398 E5.32518
G1 E3.32518 F2400.00000
G92 E0
G1 X89.416 Y68.837 F7800.000
G1 E2.00000 F2400.00000
G1 F1800
G1 X88.930 Y69.420 E2.02347
G1 X88.537 Y69.783 E2.04003
G1 X88.119 Y70.097 E2.05620
G1 X87.671 Y70.366 E2.07237
G1 X87.198 Y70.588 E2.08854
G1 X86.705 Y70.759 E2.10470
G1 X86.194 Y70.880 E2.12094
G1 X85.430 Y70.960 E2.14472
G1 X84.894 Y70.947 E2.16130
G1 X84.376 Y70.879 E2.17747
G1 X83.867 Y70.759 E2.19365
G1 X83.373 Y70.588 E2.20982
G1 X82.900 Y70.366 E2.22599
G1 X82.452 Y70.097 E2.24216
G1 X82.034 Y69.783 E2.25833
G1 X81.650 Y69.428 E2.27450
G1 X81.305 Y69.036 E2.29067
G1 X81.002 Y68.610 E2.30684
G1 X80.745 Y68.155 E2.32301
G1 X80.531 Y67.665 E2.33957
G1 X80.319 Y66.936 E2.36304
G1 X80.236 Y66.407 E2.37960
G1 X80.209 Y65.886 E2.39577
G1 X80.236 Y65.364 E2.41195
G1 X80.319 Y64.835 E2.42851
G1 X80.531 Y64.106 E2.45198
G1 X80.745 Y63.616 E2.46854
G1 X81.002 Y63.161 E2.48471
G1 X81.305 Y62.735 E2.50088
G1 X81.650 Y62.343 E2.51705
G1 X82.034 Y61.988 E2.53322
G1 X82.452 Y61.674 E2.54939
G1 X82.900 Y61.405 E2.56555
G1 X83.375 Y61.182 E2.58179
G1 X84.107 Y60.947 E2.60557
G1 X84.634 Y60.851 E2.62215
G1 X85.155 Y60.811 E2.63832
G1 X85.677 Y60.824 E2.65449
G1 X86.196 Y60.892 E2.67066
G1 X86.704 Y61.012 E2.68683
G1 X87.200 Y61.184 E2.70306
G1 X87.888 Y61.526 E2.72684
G1 X88.332 Y61.825 E2.74343
G1 X88.734 Y62.160 E2.75960
G1 X89.099 Y62.534 E2.77577
G1 X89.423 Y62.944 E2.79194
G1 X89.703 Y63.385 E2.80811
G1 X89.937 Y63.853 E2.82428
G1 X90.121 Y64.342 E2.84045
G1 X90.254 Y64.847 E2.85662
G1 X90.335 Y65.364 E2.87279
G1 X90.362 Y65.886 E2.88896
G1 X90.335 Y66.407 E2.90513
G1 X90.254 Y66.924 E2.92131
G1 X90.121 Y67.429 E2.93748
G1 X89.937 Y67.918 E2.95365
G1 X89.703 Y68.386 E2.96982
G1 X89.456 Y68.774 E2.98406
G1 X88.910 Y68.468 F7800.000
G1 F1800
G1 X88.476 Y68.989 E3.00504
G1 X88.137 Y69.303 E3.01935
G1 X87.770 Y69.578 E3.03353
G1 X87.377 Y69.814 E3.04771
G1 X86.962 Y70.008 E3.06189
G1 X86.530 Y70.159 E3.07606
G1 X86.089 Y70.263 E3.09007
G1 X85.405 Y70.335 E3.11135
G1 X84.942 Y70.323 E3.12567
G1 X84.488 Y70.264 E3.13985
G1 X84.042 Y70.159 E3.15403
G1 X83.609 Y70.008 E3.16821
G1 X83.194 Y69.814 E3.18238
G1 X82.801 Y69.578 E3.19656
G1 X82.435 Y69.303 E3.21074
G1 X82.098 Y68.992 E3.22492
G1 X81.796 Y68.648 E3.23909
G1 X81.530 Y68.274 E3.25327
G1 X81.305 Y67.875 E3.26745
G1 X81.119 Y67.451 E3.28177
G1 X80.930 Y66.800 E3.30274
G1 X80.859 Y66.343 E3.31706
G1 X80.835 Y65.886 E3.33124
G1 X80.859 Y65.428 E3.34542
G1 X80.930 Y64.971 E3.35973
G1 X81.119 Y64.320 E3.38071
G1 X81.305 Y63.896 E3.39503
G1 X81.530 Y63.497 E3.40921
G1 X81.796 Y63.124 E3.42338
G1 X82.098 Y62.779 E3.43756
G1 X82.435 Y62.468 E3.45174
G1 X82.801 Y62.193 E3.46592
G1 X83.194 Y61.957 E3.48009
G1 X83.604 Y61.765 E3.49410
G1 X84.259 Y61.555 E3.51538
G1 X84.714 Y61.472 E3.52970
G1 X85.171 Y61.437 E3.54388
G1 X85.629 Y61.448 E3.55806
G1 X86.083 Y61.507 E3.57224
G1 X86.529 Y61.612 E3.58641
G1 X86.957 Y61.761 E3.60042
G1 X87.573 Y62.067 E3.62170
G1 X87.957 Y62.326 E3.63603
G1 X88.309 Y62.619 E3.65020
G1 X88.629 Y62.948 E3.66438
G1 X88.913 Y63.307 E3.67856
G1 X89.159 Y63.693 E3.69274
G1 X89.364 Y64.103 E3.70691
G1 X89.525 Y64.532 E3.72109
G1 X89.642 Y64.975 E3.73527
G1 X89.712 Y65.428 E3.74945
G1 X89.736 Y65.886 E3.76362
G1 X89.712 Y66.343 E3.77780
G1 X89.642 Y66.796 E3.79198
G1 X89.525 Y67.239 E3.80616
G1 X89.364 Y67.668 E3.82033
G1 X89.159 Y68.078 E3.83451
G1 X88.951 Y68.405 E3.84651
G1 X88.910 Y68.468 F7800.000
G1 X89.955 Y69.167 F7800.000
G1 F1800
G1 X90.222 Y69.305 E3.85580
G1 X90.125 Y69.675 E3.86765
G1 X90.075 Y70.232 E3.88496
G1 X90.155 Y70.960 E3.90762
G1 X90.421 Y71.688 E3.93159
G1 X90.836 Y72.304 E3.95459
G1 X91.188 Y72.650 E3.96986
G1 X79.384 Y72.650 E4.33512
G1 X79.740 Y72.298 E4.35063
G1 X80.153 Y71.682 E4.37358
G1 X80.418 Y70.954 E4.39754
G1 X80.497 Y70.216 E4.42050
G1 X80.445 Y69.670 E4.43747
G1 X80.347 Y69.298 E4.44938
G1 X80.631 Y69.165 E4.45905
G1 X80.815 Y69.424 E4.46887
G1 X81.202 Y69.865 E4.48704
G1 X81.633 Y70.264 E4.50520
G1 X82.103 Y70.616 E4.52336
G1 X82.606 Y70.918 E4.54153
G1 X83.138 Y71.167 E4.55969
G1 X83.692 Y71.360 E4.57786
G1 X84.263 Y71.495 E4.59602
G1 X84.846 Y71.570 E4.61419
G1 X85.454 Y71.586 E4.63303
G1 X86.299 Y71.497 E4.65930
G1 X86.880 Y71.360 E4.67777
G1 X87.434 Y71.167 E4.69592
G1 X87.965 Y70.918 E4.71408
G1 X88.469 Y70.616 E4.73225
G1 X88.938 Y70.264 E4.75041
G1 X89.384 Y69.851 E4.76921
G1 X89.907 Y69.225 E4.79445
G1 E2.79445 F2400.00000
G92 E0
G1 X91.806 Y73.329 F7800.000
G1 E2.00000 F2400.00000
G1 F1800
G1 X91.462 Y73.275 E2.01077
G1 X79.109 Y73.275 E2.39300
G1 X78.764 Y73.330 E2.40380
G1 X78.765 Y72.348 E2.43416
G1 X78.971 Y72.180 E2.44240
G1 X79.256 Y71.898 E2.45482
G1 X79.592 Y71.397 E2.47347
G1 X79.804 Y70.812 E2.49273
G1 X79.869 Y70.212 E2.51138
G1 X79.828 Y69.779 E2.52484
G1 X79.719 Y69.364 E2.53813
G1 X79.339 Y68.570 E2.56535
G1 X79.069 Y67.862 E2.58882
G1 X78.885 Y67.145 E2.61171
G1 X78.808 Y66.662 E2.62684
G1 X78.762 Y65.912 E2.65008
G1 X78.801 Y65.171 E2.67305
G1 X78.924 Y64.439 E2.69602
G1 X79.133 Y63.717 E2.71928
G1 X79.311 Y63.265 E2.73432
G1 X79.527 Y62.819 E2.74964
G1 X79.776 Y62.391 E2.76496
G1 X80.057 Y61.983 E2.78028
G1 X80.368 Y61.598 E2.79560
G1 X80.707 Y61.237 E2.81092
G1 X81.066 Y60.909 E2.82597
G1 X81.665 Y60.459 E2.84914
G1 X82.089 Y60.198 E2.86456
G1 X82.529 Y59.972 E2.87986
G1 X82.985 Y59.780 E2.89518
G1 X83.455 Y59.623 E2.91050
G1 X83.935 Y59.502 E2.92582
G1 X84.423 Y59.418 E2.94115
G1 X84.916 Y59.372 E2.95647
G1 X85.411 Y59.362 E2.97179
G1 X85.906 Y59.391 E2.98711
G1 X86.396 Y59.456 E3.00243
G1 X86.881 Y59.559 E3.01775
G1 X87.356 Y59.698 E3.03307
G1 X87.819 Y59.873 E3.04840
G1 X88.268 Y60.083 E3.06372
G1 X88.700 Y60.326 E3.07904
G1 X89.111 Y60.601 E3.09436
G1 X89.501 Y60.906 E3.10968
G1 X89.867 Y61.240 E3.12500
G1 X90.206 Y61.601 E3.14032
G1 X90.517 Y61.986 E3.15565
G1 X90.797 Y62.394 E3.17097
G1 X91.046 Y62.822 E3.18629
G1 X91.262 Y63.268 E3.20161
G1 X91.440 Y63.720 E3.21664
G1 X91.648 Y64.443 E3.23990
G1 X91.770 Y65.175 E3.26288
G1 X91.809 Y65.917 E3.28586
G1 X91.764 Y66.655 E3.30875
G1 X91.688 Y67.138 E3.32388
G1 X91.505 Y67.855 E3.34676
G1 X91.235 Y68.563 E3.37023
G1 X90.852 Y69.365 E3.39771
G1 X90.743 Y69.783 E3.41108
G1 X90.703 Y70.226 E3.42485
G1 X90.768 Y70.817 E3.44323
G1 X90.982 Y71.402 E3.46251
G1 X91.319 Y71.903 E3.48120
G1 X91.605 Y72.184 E3.49360
G1 X91.805 Y72.347 E3.50160
G1 X91.806 Y73.254 E3.52966
G1 X92.432 Y74.431 F7800.000
G1 F1800
G1 X92.143 Y74.500 E3.53885
G1 X91.997 Y74.207 E3.54896
G1 X91.829 Y74.040 E3.55631
G1 X91.619 Y73.932 E3.56361
G1 X91.413 Y73.900 E3.57005
G1 X79.158 Y73.900 E3.94924
G1 X78.949 Y73.933 E3.95578
G1 X78.717 Y74.057 E3.96391
G1 X78.517 Y74.296 E3.97356
G1 X78.455 Y74.487 E3.97980
G1 X78.139 Y74.437 E3.98971
G1 X78.140 Y72.297 E4.05593
G1 X78.164 Y72.173 E4.05982
G1 X78.247 Y71.996 E4.06588
G1 X78.317 Y71.907 E4.06939
G1 X78.552 Y71.715 E4.07879
G1 X78.772 Y71.497 E4.08836
G1 X79.030 Y71.112 E4.10271
G1 X79.191 Y70.670 E4.11727
G1 X79.241 Y70.208 E4.13162
G1 X79.210 Y69.889 E4.14156
G1 X79.129 Y69.580 E4.15144
G1 X78.764 Y68.817 E4.17761
G1 X78.472 Y68.051 E4.20296
G1 X78.272 Y67.272 E4.22786
G1 X78.186 Y66.730 E4.24483
G1 X78.136 Y65.915 E4.27010
G1 X78.179 Y65.103 E4.29528
G1 X78.314 Y64.300 E4.32045
G1 X78.540 Y63.515 E4.34573
G1 X78.738 Y63.013 E4.36242
G1 X78.975 Y62.525 E4.37921
G1 X79.248 Y62.056 E4.39600
G1 X79.556 Y61.609 E4.41279
G1 X79.897 Y61.187 E4.42958
G1 X80.268 Y60.792 E4.44637
G1 X80.667 Y60.428 E4.46306
G1 X81.312 Y59.942 E4.48806
G1 X81.782 Y59.653 E4.50513
G1 X82.265 Y59.405 E4.52192
G1 X82.765 Y59.195 E4.53871
G1 X83.280 Y59.023 E4.55550
G1 X83.806 Y58.891 E4.57229
G1 X84.341 Y58.799 E4.58908
G1 X84.881 Y58.747 E4.60587
G1 X85.423 Y58.737 E4.62266
G1 X85.965 Y58.768 E4.63945
G1 X86.503 Y58.840 E4.65624
G1 X87.034 Y58.953 E4.67303
G1 X87.555 Y59.105 E4.68982
G1 X88.062 Y59.297 E4.70660
G1 X88.554 Y59.527 E4.72339
G1 X89.027 Y59.793 E4.74018
G1 X89.478 Y60.094 E4.75697
G1 X89.905 Y60.429 E4.77376
G1 X90.306 Y60.795 E4.79055
G1 X90.677 Y61.190 E4.80734
G1 X91.018 Y61.613 E4.82413
G1 X91.326 Y62.060 E4.84092
G1 X91.598 Y62.529 E4.85771
G1 X91.835 Y63.017 E4.87450
G1 X92.032 Y63.519 E4.89119
G1 X92.258 Y64.304 E4.91647
G1 X92.392 Y65.107 E4.94165
G1 X92.435 Y65.919 E4.96683
G1 X92.386 Y66.723 E4.99172
G1 X92.301 Y67.264 E5.00870
G1 X92.101 Y68.044 E5.03359
G1 X91.810 Y68.810 E5.05894
G1 X91.442 Y69.580 E5.08538
G1 X91.361 Y69.891 E5.09529
G1 X91.331 Y70.220 E5.10552
G1 X91.381 Y70.673 E5.11963
G1 X91.543 Y71.116 E5.13422
G1 X91.802 Y71.501 E5.14860
G1 X92.023 Y71.718 E5.15817
G1 X92.254 Y71.907 E5.16740
G1 X92.384 Y72.106 E5.17475
G1 X92.430 Y72.296 E5.18080
G1 X92.432 Y74.356 E5.24456
G1 X92.154 Y74.326 F7800.000
G1 X92.284 Y74.826 F7800.000
G1 F1800
G1 X92.285 Y78.750 E5.42416
G1 X92.264 Y78.853 E5.42896
G1 F1800
G1 X92.222 Y79.058 E5.43944
G1 F1800
G1 X92.201 Y79.161 E5.44512
G1 X91.993 Y79.204 E5.45661
G1 F1800
G1 X91.786 Y79.247 E5.46719
G1 F1800
G1 X91.068 Y79.247 E5.49990
G1 X90.885 Y79.214 E5.50836
G1 F1800
G1 X90.492 Y79.037 E5.52654
G1 F1800
G1 X90.296 Y78.949 E5.53481
G1 E3.53481 F2400.00000
G92 E0
G1 X80.281 Y78.834 F7800.000
G1 E2.00000 F2400.00000
G1 F1800
G1 X80.143 Y78.931 E2.00500
G1 F1800
G1 X79.865 Y79.127 E2.01642
G1 F1800
G1 X79.769 Y79.177 E2.02061
G1 F1800
G1 X79.669 Y79.219 E2.02523
G1 F1800
G1 X79.456 Y79.250 E2.03510
G1 X78.786 Y79.250 E2.06580
G1 F1800
G1 X78.579 Y79.207 E2.07638
G1 F1800
G1 X78.371 Y79.164 E2.08786
G1 X78.350 Y79.060 E2.09361
G1 F1800
G1 X78.307 Y78.853 E2.10421
G1 F1800
G1 X78.286 Y78.749 E2.10907
G1 X78.289 Y74.815 E2.28953
G1 E0.28953 F2400.00000
G92 E0
G1 X80.173 Y72.338 F7800.000
G1 E2.00000 F2400.00000
G1 F1800
G1 X80.295 Y72.097 E2.00063
G1 X80.840 Y70.850 F7800.000
G1 F1800
G1 X81.326 Y70.364 E2.02333
G1 X81.475 Y70.501 E2.03003
G1 X81.850 Y70.783 E2.04553
G1 X80.677 Y71.956 E2.10035
G1 X80.947 Y72.093 E2.11034
G1 X80.858 Y72.268 E2.11682
G1 X81.309 Y72.268 E2.13170
G1 X82.426 Y71.151 E2.18391
G1 X82.812 Y71.348 E2.19821
G1 X82.738 Y71.782 E2.21275
G1 X82.252 Y72.268 E2.23546
G1 X83.145 Y71.931 F7800.000
G1 F1800
G1 X83.732 Y72.019 E2.25343
G1 F1800
G1 X84.145 Y72.067 E2.26403
G1 F1800
G1 X84.482 Y72.089 E2.27176
G1 F1800
G1 X85.461 Y72.118 E2.29170
G1 X85.934 Y72.094 E2.30135
G1 F1800
G1 X86.413 Y72.068 E2.31236
G1 F1800
G1 X86.835 Y72.019 E2.32418
G1 F1800
G1 X87.426 Y71.931 E2.34258
G1 X87.760 Y71.834 F7800.000
G1 F1800
G1 X88.246 Y71.348 E2.36546
G1 X88.502 Y71.228 E2.37488
G1 X89.061 Y70.892 E2.39657
G1 X89.582 Y70.501 E2.41826
G1 X89.731 Y70.364 E2.42499
G1 X89.775 Y70.769 E2.43857
G1 X88.277 Y72.268 E2.50914
G1 X89.227 Y72.268 F7800.000
G1 F1800
G1 X89.713 Y71.782 E2.53202
G1 X90.280 Y72.103 F7800.000
G1 F1800
G1 X90.399 Y72.338 E2.53262
G1 E0.53262 F2400.00000
G92 E0
G1 X90.235 Y68.960 F7800.000
G1 E2.00000 F2400.00000
G1 F1800
G1 X90.590 Y68.227 E2.03050
G1 X90.815 Y67.636 E2.05417
G1 X90.977 Y66.992 E2.07904
G1 X91.050 Y66.503 E2.09756
G1 X91.085 Y65.914 E2.11966
G1 X91.050 Y65.254 E2.14439
G1 X90.940 Y64.603 E2.16910
G1 X90.751 Y63.954 E2.19441
G1 X90.599 Y63.559 E2.21028
G1 X90.342 Y63.048 E2.23168
G1 X89.934 Y62.420 E2.25970
G1 X89.656 Y62.073 E2.27638
G1 X89.356 Y61.758 E2.29266
G1 X88.783 Y61.260 E2.32108
G1 X88.228 Y60.889 E2.34609
G1 X87.504 Y60.527 E2.37637
G1 X87.125 Y60.388 E2.39149
G1 X86.703 Y60.264 E2.40796
G1 X86.305 Y60.176 E2.42325
G1 X85.837 Y60.113 E2.44092
G1 X85.157 Y60.089 E2.46637
G1 X84.519 Y60.136 E2.49034
G1 X83.957 Y60.241 E2.51174
G1 X83.660 Y60.324 E2.52329
G1 X83.135 Y60.501 E2.54403
G1 X82.836 Y60.632 E2.55624
G1 X82.445 Y60.831 E2.57268
G1 X82.073 Y61.057 E2.58900
G1 X81.529 Y61.467 E2.61449
G1 X81.148 Y61.823 E2.63403
G1 X80.916 Y62.076 E2.64686
G1 X80.639 Y62.418 E2.66333
G1 X80.404 Y62.755 E2.67874
G1 X80.168 Y63.161 E2.69629
G1 X79.843 Y63.885 E2.72604
G1 X79.632 Y64.600 E2.75393
G1 X79.522 Y65.250 E2.77864
G1 X79.487 Y65.910 E2.80335
G1 X79.521 Y66.503 E2.82560
G1 X79.595 Y66.998 E2.84435
G1 X79.764 Y67.640 E2.86922
G1 X80.008 Y68.283 E2.89496
G1 X80.345 Y68.954 E2.92307
G1 Z0.650 F7800.000
G1 E0.92307 F2400.00000
G92 E0
G1 X88.856 Y70.165 F7800.000
G1 E2.00000 F2400.00000
G1 F900
G1 X88.397 Y70.509 E2.01548
G1 X87.905 Y70.805 E2.03096
G1 X87.366 Y71.057 E2.04701
G1 X86.541 Y71.318 E2.07034
G1 X85.996 Y71.413 E2.08528
G1 X85.429 Y71.457 E2.10061
G1 X84.856 Y71.442 E2.11609
G1 X84.286 Y71.368 E2.13157
G1 X83.728 Y71.237 E2.14705
G1 X83.186 Y71.048 E2.16253
G1 X82.666 Y70.805 E2.17801
G1 X82.174 Y70.509 E2.19349
G1 X81.715 Y70.165 E2.20897
G1 X81.294 Y69.775 E2.22445
G1 X80.916 Y69.344 E2.23993
G1 X80.583 Y68.877 E2.25540
G1 X80.300 Y68.377 E2.27088
G1 X80.071 Y67.851 E2.28636
G1 X79.897 Y67.306 E2.30181
G1 X79.789 Y66.795 E2.31591
G1 X79.741 Y66.444 E2.32545
G1 X79.712 Y65.886 E2.34054
G1 X79.742 Y65.312 E2.35602
G1 X79.833 Y64.727 E2.37201
G1 X80.063 Y63.937 E2.39420
G1 X80.300 Y63.394 E2.41019
G1 X80.583 Y62.894 E2.42567
G1 X80.916 Y62.427 E2.44115
G1 X81.294 Y61.996 E2.45663
G1 X81.715 Y61.606 E2.47211
G1 X82.174 Y61.262 E2.48759
G1 X82.666 Y60.966 E2.50307
G1 X83.205 Y60.714 E2.51911
G1 X84.030 Y60.453 E2.54245
