; generated by Slic3r 1.3.0 on 2019-02-03 at 12:34:08

; external perimeters extrusion width = 0.44mm (1.19mm^3/s)
; perimeters extrusion width = 0.56mm (3.10mm^3/s)
; infill extrusion width = 0.50mm (5.48mm^3/s)
; solid infill extrusion width = 0.56mm (3.72mm^3/s)
; top infill extrusion width = 0.56mm (1.55mm^3/s)

M107
M104 S200 ; set temperature
G28 ; home all axes
M150 B180 G210
M150 B180 G210
G92 E0
G1 E6 F1800
; Filament gcode

M109 S200 ; set temperature and wait for it to be reached
G21 ; set units to millimeters
G90 ; use absolute coordinates
M82 ; use absolute distances for extrusion
G92 E0
G1 Z0.250 F7800.000
G1 E-1.20000 F2400.00000
G92 E0
G1 X43.168 Y59.524 F7800.000
G1 E1.20000 F2400.00000
G1 F1560
G1 X46.329 Y58.695 E1.32130
G1 X151.400 Y58.695 E5.22091
G1 X153.627 Y59.092 E5.30486
G1 X155.580 Y60.234 E5.38882
G1 X157.018 Y61.980 E5.47277
G1 X157.847 Y65.142 E5.59407
G1 X157.847 Y71.542 E5.83160
G1 X157.450 Y73.769 E5.91556
G1 X156.308 Y75.721 E5.99951
G1 X154.562 Y77.160 E6.08347
G1 X151.400 Y77.988 E6.20477
G1 X46.329 Y77.988 E10.10437
G1 X44.102 Y77.591 E10.18833
G1 X42.150 Y76.449 E10.27228
G1 X40.712 Y74.703 E10.35624
G1 X39.883 Y71.542 E10.47754
G1 X39.883 Y65.142 E10.71507
G1 X40.280 Y62.915 E10.79902
G1 X41.422 Y60.962 E10.88298
G1 X43.122 Y59.562 E10.96471
G1 E9.76471 F2400.00000
G92 E0
G1 X47.026 Y70.845 F7800.000
G1 E1.20000 F2400.00000
G1 F1560
G1 X47.026 Y65.838 E1.38584
G1 X150.704 Y65.838 E5.23376
G1 X150.704 Y70.845 E5.41960
G1 X47.086 Y70.845 E9.26529
G1 X46.579 Y71.292 F7800.000
G1 F1560
G1 X46.579 Y65.392 E9.48427
G1 X151.150 Y65.392 E13.36532
G1 X151.150 Y71.292 E13.58429
G1 X46.639 Y71.292 E17.46311
G1 X46.773 Y70.942 F7800.000
G1 E16.26311 F2400.00000
G92 E0
G1 X47.299 Y66.458 F7800.000
G1 E1.20000 F2400.00000
G1 F1560
G1 X47.646 Y66.111 E1.21826
G1 X48.278 Y66.111 E1.24179
G1 X47.299 Y67.091 E1.29333
G1 X47.299 Y67.723 E1.31685
G1 X48.911 Y66.111 E1.40166
G1 X49.544 Y66.111 E1.42519
G1 X47.299 Y68.356 E1.54326
G1 X47.299 Y68.988 E1.56679
G1 X50.176 Y66.111 E1.71814
G1 X50.809 Y66.111 E1.74166
G1 X47.299 Y69.621 E1.92628
G1 X47.299 Y70.253 E1.94980
G1 X51.441 Y66.111 E2.16769
G1 X52.074 Y66.111 E2.19122
G1 X47.612 Y70.573 E2.42589
G1 X48.244 Y70.573 E2.44942
G1 X52.706 Y66.111 E2.68409
G1 X53.339 Y66.111 E2.70762
G1 X48.877 Y70.573 E2.94229
G1 X49.510 Y70.573 E2.96582
G1 X53.971 Y66.111 E3.20049
G1 X54.604 Y66.111 E3.22402
G1 X50.142 Y70.573 E3.45869
G1 X50.775 Y70.573 E3.48221
G1 X55.236 Y66.111 E3.71689
G1 X55.869 Y66.111 E3.74041
G1 X51.407 Y70.573 E3.97509
G1 X52.040 Y70.573 E3.99861
G1 X56.502 Y66.111 E4.23329
G1 X57.134 Y66.111 E4.25681
G1 X52.672 Y70.573 E4.49149
G1 X53.305 Y70.573 E4.51501
G1 X57.767 Y66.111 E4.74969
G1 X58.399 Y66.111 E4.77321
G1 X53.937 Y70.573 E5.00789
G1 X54.570 Y70.573 E5.03141
G1 X59.032 Y66.111 E5.26609
G1 X59.664 Y66.111 E5.28961
G1 X55.202 Y70.573 E5.52429
G1 X55.835 Y70.573 E5.54781
G1 X60.297 Y66.111 E5.78249
G1 X60.929 Y66.111 E5.80601
G1 X56.468 Y70.573 E6.04069
G1 X57.100 Y70.573 E6.06421
G1 X61.562 Y66.111 E6.29889
G1 X62.194 Y66.111 E6.32241
G1 X57.733 Y70.573 E6.55709
G1 X58.365 Y70.573 E6.58061
G1 X62.827 Y66.111 E6.81529
G1 X63.459 Y66.111 E6.83881
G1 X58.998 Y70.573 E7.07349
G1 X59.630 Y70.573 E7.09701
G1 X64.092 Y66.111 E7.33168
G1 X64.725 Y66.111 E7.35521
G1 X60.263 Y70.573 E7.58988
G1 X60.895 Y70.573 E7.61341
G1 X65.357 Y66.111 E7.84808
G1 X65.990 Y66.111 E7.87161
G1 X61.528 Y70.573 E8.10628
G1 X62.160 Y70.573 E8.12981
G1 X66.622 Y66.111 E8.36448
G1 X67.255 Y66.111 E8.38801
G1 X62.793 Y70.573 E8.62268
G1 X63.425 Y70.573 E8.64621
G1 X67.887 Y66.111 E8.88088
G1 X68.520 Y66.111 E8.90441
G1 X64.058 Y70.573 E9.13908
G1 X64.691 Y70.573 E9.16261
G1 X69.152 Y66.111 E9.39728
G1 X69.785 Y66.111 E9.42081
G1 X65.323 Y70.573 E9.65548
G1 X65.956 Y70.573 E9.67901
G1 X70.417 Y66.111 E9.91368
G1 X71.050 Y66.111 E9.93721
G1 X66.588 Y70.573 E10.17188
G1 X67.221 Y70.573 E10.19541
G1 X71.683 Y66.111 E10.43008
G1 X72.315 Y66.111 E10.45361
G1 X67.853 Y70.573 E10.68828
G1 X68.486 Y70.573 E10.71181
G1 X72.948 Y66.111 E10.94648
G1 X73.580 Y66.111 E10.97001
G1 X69.118 Y70.573 E11.20468
G1 X69.751 Y70.573 E11.22820
G1 X74.213 Y66.111 E11.46288
G1 X74.845 Y66.111 E11.48640
G1 X70.383 Y70.573 E11.72108
G1 X71.016 Y70.573 E11.74460
G1 X75.478 Y66.111 E11.97928
G1 X76.110 Y66.111 E12.00280
G1 X71.649 Y70.573 E12.23748
G1 X72.281 Y70.573 E12.26100
G1 X76.743 Y66.111 E12.49568
G1 X77.375 Y66.111 E12.51920
G1 X72.914 Y70.573 E12.75388
G1 X73.546 Y70.573 E12.77740
G1 X78.008 Y66.111 E13.01208
G1 X78.641 Y66.111 E13.03560
G1 X74.179 Y70.573 E13.27028
G1 X74.811 Y70.573 E13.29380
G1 X79.273 Y66.111 E13.52848
G1 X79.906 Y66.111 E13.55200
G1 X75.444 Y70.573 E13.78668
G1 X76.076 Y70.573 E13.81020
G1 X80.538 Y66.111 E14.04488
G1 X81.171 Y66.111 E14.06840
G1 X76.709 Y70.573 E14.30308
G1 X77.341 Y70.573 E14.32660
G1 X81.803 Y66.111 E14.56128
G1 X82.436 Y66.111 E14.58480
G1 X77.974 Y70.573 E14.81948
G1 X78.606 Y70.573 E14.84300
G1 X83.068 Y66.111 E15.07768
G1 X83.701 Y66.111 E15.10120
G1 X79.239 Y70.573 E15.33587
G1 X79.872 Y70.573 E15.35940
G1 X84.333 Y66.111 E15.59407
G1 X84.966 Y66.111 E15.61760
G1 X80.504 Y70.573 E15.85227
G1 X81.137 Y70.573 E15.87580
G1 X85.598 Y66.111 E16.11047
G1 X86.231 Y66.111 E16.13400
G1 X81.769 Y70.573 E16.36867
G1 X82.402 Y70.573 E16.39220
G1 X86.864 Y66.111 E16.62687
G1 X87.496 Y66.111 E16.65040
G1 X83.034 Y70.573 E16.88507
G1 X83.667 Y70.573 E16.90860
G1 X88.129 Y66.111 E17.14327
G1 X88.761 Y66.111 E17.16680
G1 X84.299 Y70.573 E17.40147
G1 X84.932 Y70.573 E17.42500
G1 X89.394 Y66.111 E17.65967
G1 X90.026 Y66.111 E17.68320
G1 X85.564 Y70.573 E17.91787
G1 X86.197 Y70.573 E17.94140
G1 X90.659 Y66.111 E18.17607
G1 X91.291 Y66.111 E18.19960
G1 X86.830 Y70.573 E18.43427
G1 X87.462 Y70.573 E18.45780
G1 X91.924 Y66.111 E18.69247
G1 X92.556 Y66.111 E18.71600
G1 X88.095 Y70.573 E18.95067
G1 X88.727 Y70.573 E18.97420
G1 X93.189 Y66.111 E19.20887
G1 X93.822 Y66.111 E19.23240
G1 X89.360 Y70.573 E19.46707
G1 X89.992 Y70.573 E19.49059
G1 X94.454 Y66.111 E19.72527
G1 X95.087 Y66.111 E19.74879
G1 X90.625 Y70.573 E19.98347
G1 X91.257 Y70.573 E20.00699
G1 X95.719 Y66.111 E20.24167
G1 X96.352 Y66.111 E20.26519
G1 X91.890 Y70.573 E20.49987
G1 X92.522 Y70.573 E20.52339
G1 X96.984 Y66.111 E20.75807
G1 X97.617 Y66.111 E20.78159
G1 X93.155 Y70.573 E21.01627
G1 X93.788 Y70.573 E21.03979
G1 X98.249 Y66.111 E21.27447
G1 X98.882 Y66.111 E21.29799
G1 X94.420 Y70.573 E21.53267
G1 X95.053 Y70.573 E21.55619
G1 X99.514 Y66.111 E21.79087
G1 X100.147 Y66.111 E21.81439
G1 X95.685 Y70.573 E22.04907
G1 X96.318 Y70.573 E22.07259
G1 X100.780 Y66.111 E22.30727
G1 X101.412 Y66.111 E22.33079
G1 X96.950 Y70.573 E22.56547
G1 X97.583 Y70.573 E22.58899
G1 X102.045 Y66.111 E22.82367
G1 X102.677 Y66.111 E22.84719
G1 X98.215 Y70.573 E23.08187
G1 X98.848 Y70.573 E23.10539
G1 X103.310 Y66.111 E23.34007
G1 X103.942 Y66.111 E23.36359
G1 X99.480 Y70.573 E23.59826
G1 X100.113 Y70.573 E23.62179
G1 X104.575 Y66.111 E23.85646
G1 X105.207 Y66.111 E23.87999
G1 X100.745 Y70.573 E24.11466
G1 X101.378 Y70.573 E24.13819
G1 X105.840 Y66.111 E24.37286
G1 X106.472 Y66.111 E24.39639
G1 X102.011 Y70.573 E24.63106
G1 X102.643 Y70.573 E24.65459
G1 X107.105 Y66.111 E24.88926
G1 X107.737 Y66.111 E24.91279
G1 X103.276 Y70.573 E25.14746
G1 X103.908 Y70.573 E25.17099
G1 X108.370 Y66.111 E25.40566
G1 X109.003 Y66.111 E25.42919
G1 X104.541 Y70.573 E25.66386
G1 X105.173 Y70.573 E25.68739
G1 X109.635 Y66.111 E25.92206
G1 X110.268 Y66.111 E25.94559
G1 X105.806 Y70.573 E26.18026
G1 X106.438 Y70.573 E26.20379
G1 X110.900 Y66.111 E26.43846
G1 X111.533 Y66.111 E26.46199
G1 X107.071 Y70.573 E26.69666
G1 X107.703 Y70.573 E26.72019
G1 X112.165 Y66.111 E26.95486
G1 X112.798 Y66.111 E26.97839
G1 X108.336 Y70.573 E27.21306
G1 X108.969 Y70.573 E27.23659
G1 X113.430 Y66.111 E27.47126
G1 X114.063 Y66.111 E27.49478
G1 X109.601 Y70.573 E27.72946
G1 X110.234 Y70.573 E27.75298
G1 X114.695 Y66.111 E27.98766
G1 X115.328 Y66.111 E28.01118
G1 X110.866 Y70.573 E28.24586
G1 X111.499 Y70.573 E28.26938
G1 X115.961 Y66.111 E28.50406
G1 X116.593 Y66.111 E28.52758
G1 X112.131 Y70.573 E28.76226
G1 X112.764 Y70.573 E28.78578
G1 X117.226 Y66.111 E29.02046
G1 X117.858 Y66.111 E29.04398
G1 X113.396 Y70.573 E29.27866
G1 X114.029 Y70.573 E29.30218
G1 X118.491 Y66.111 E29.53686
G1 X119.123 Y66.111 E29.56038
G1 X114.661 Y70.573 E29.79506
G1 X115.294 Y70.573 E29.81858
G1 X119.756 Y66.111 E30.05326
G1 X120.388 Y66.111 E30.07678
G1 X115.926 Y70.573 E30.31146
G1 X116.559 Y70.573 E30.33498
G1 X121.021 Y66.111 E30.56966
G1 X121.653 Y66.111 E30.59318
G1 X117.192 Y70.573 E30.82786
G1 X117.824 Y70.573 E30.85138
G1 X122.286 Y66.111 E31.08606
G1 X122.918 Y66.111 E31.10958
G1 X118.457 Y70.573 E31.34425
G1 X119.089 Y70.573 E31.36778
G1 X123.551 Y66.111 E31.60245
G1 X124.184 Y66.111 E31.62598
G1 X119.722 Y70.573 E31.86065
G1 X120.354 Y70.573 E31.88418
G1 X124.816 Y66.111 E32.11885
G1 X125.449 Y66.111 E32.14238
G1 X120.987 Y70.573 E32.37705
G1 X121.619 Y70.573 E32.40058
G1 X126.081 Y66.111 E32.63525
G1 X126.714 Y66.111 E32.65878
G1 X122.252 Y70.573 E32.89345
G1 X122.884 Y70.573 E32.91698
G1 X127.346 Y66.111 E33.15165
G1 X127.979 Y66.111 E33.17518
G1 X123.517 Y70.573 E33.40985
G1 X124.150 Y70.573 E33.43338
G1 X128.611 Y66.111 E33.66805
G1 X129.244 Y66.111 E33.69158
G1 X124.782 Y70.573 E33.92625
G1 X125.415 Y70.573 E33.94978
G1 X129.876 Y66.111 E34.18445
G1 X130.509 Y66.111 E34.20798
G1 X126.047 Y70.573 E34.44265
G1 X126.680 Y70.573 E34.46618
G1 X131.142 Y66.111 E34.70085
G1 X131.774 Y66.111 E34.72438
G1 X127.312 Y70.573 E34.95905
G1 X127.945 Y70.573 E34.98258
G1 X132.407 Y66.111 E35.21725
G1 X133.039 Y66.111 E35.24078
G1 X128.577 Y70.573 E35.47545
G1 X129.210 Y70.573 E35.49897
G1 X133.672 Y66.111 E35.73365
G1 X134.304 Y66.111 E35.75717
G1 X129.842 Y70.573 E35.99185
G1 X130.475 Y70.573 E36.01537
G1 X134.937 Y66.111 E36.25005
G1 X135.569 Y66.111 E36.27357
G1 X131.108 Y70.573 E36.50825
G1 X131.740 Y70.573 E36.53177
G1 X136.202 Y66.111 E36.76645
G1 X136.834 Y66.111 E36.78997
G1 X132.373 Y70.573 E37.02465
G1 X133.005 Y70.573 E37.04817
G1 X137.467 Y66.111 E37.28285
G1 X138.100 Y66.111 E37.30637
G1 X133.638 Y70.573 E37.54105
G1 X134.270 Y70.573 E37.56457
G1 X138.732 Y66.111 E37.79925
G1 X139.365 Y66.111 E37.82277
G1 X134.903 Y70.573 E38.05745
G1 X135.535 Y70.573 E38.08097
G1 X139.997 Y66.111 E38.31565
G1 X140.630 Y66.111 E38.33917
G1 X136.168 Y70.573 E38.57385
G1 X136.800 Y70.573 E38.59737
G1 X141.262 Y66.111 E38.83205
G1 X141.895 Y66.111 E38.85557
G1 X137.433 Y70.573 E39.09025
G1 X138.065 Y70.573 E39.11377
G1 X142.527 Y66.111 E39.34845
G1 X143.160 Y66.111 E39.37197
G1 X138.698 Y70.573 E39.60664
G1 X139.331 Y70.573 E39.63017
G1 X143.792 Y66.111 E39.86484
G1 X144.425 Y66.111 E39.88837
G1 X139.963 Y70.573 E40.12304
G1 X140.596 Y70.573 E40.14657
G1 X145.057 Y66.111 E40.38124
G1 X145.690 Y66.111 E40.40477
G1 X141.228 Y70.573 E40.63944
G1 X141.861 Y70.573 E40.66297
G1 X146.323 Y66.111 E40.89764
G1 X146.955 Y66.111 E40.92117
G1 X142.493 Y70.573 E41.15584
G1 X143.126 Y70.573 E41.17937
G1 X147.588 Y66.111 E41.41404
G1 X148.220 Y66.111 E41.43757
G1 X143.758 Y70.573 E41.67224
G1 X144.391 Y70.573 E41.69577
G1 X148.853 Y66.111 E41.93044
G1 X149.485 Y66.111 E41.95397
G1 X145.023 Y70.573 E42.18864
G1 X145.656 Y70.573 E42.21217
G1 X150.118 Y66.111 E42.44684
G1 X150.431 Y66.111 E42.45849
G1 X150.431 Y66.430 E42.47037
G1 X146.289 Y70.573 E42.68825
G1 X146.921 Y70.573 E42.71177
G1 X150.431 Y67.063 E42.89639
G1 X150.431 Y67.695 E42.91991
G1 X147.554 Y70.573 E43.07126
G1 X148.186 Y70.573 E43.09478
G1 X150.431 Y68.328 E43.21286
G1 X150.431 Y68.960 E43.23638
G1 X148.819 Y70.573 E43.32119
G1 X149.451 Y70.573 E43.34471
G1 X150.431 Y69.593 E43.39625
G1 X150.431 Y70.225 E43.41977
G1 X150.084 Y70.573 E43.43804
G1 Z0.450 F7800.000
G1 X47.007 Y70.865 F7800.000
G1 F1800
G1 X47.007 Y65.819 E43.61160
G1 X150.723 Y65.819 E47.17906
G1 X150.723 Y70.865 E47.35262
G1 X47.067 Y70.865 E50.91802
G1 X46.549 Y71.322 F7800.000
G1 F900
G1 X46.549 Y65.362 E51.07545
G1 X151.180 Y65.362 E53.83915
G1 X151.180 Y71.322 E53.99658
G1 X46.609 Y71.322 E56.75869
G1 X46.743 Y70.972 F7800.000
G1 X47.725 Y70.548 F7800.000
G1 F2160
G1 X47.323 Y70.146 E56.77838
G1 X47.323 Y69.410 E56.80385
G1 X48.461 Y70.549 E56.85956
G1 X49.197 Y70.549 E56.88503
G1 X47.323 Y68.675 E56.97675
G1 X47.323 Y67.939 E57.00222
G1 X49.932 Y70.549 E57.12997
G1 X50.668 Y70.549 E57.15543
G1 X47.323 Y67.203 E57.31919
G1 X47.323 Y66.467 E57.34466
G1 X51.404 Y70.549 E57.54444
G1 X52.140 Y70.549 E57.56991
G1 X47.726 Y66.135 E57.78595
G1 X48.462 Y66.135 E57.81142
G1 X52.876 Y70.549 E58.02747
G1 X53.611 Y70.549 E58.05294
G1 X49.198 Y66.135 E58.26898
G1 X49.933 Y66.135 E58.29445
G1 X54.347 Y70.549 E58.51050
G1 X55.083 Y70.549 E58.53597
G1 X50.669 Y66.135 E58.75201
G1 X51.405 Y66.135 E58.77748
G1 X55.819 Y70.549 E58.99353
G1 X56.555 Y70.549 E59.01900
G1 X52.141 Y66.135 E59.23504
G1 X52.877 Y66.135 E59.26051
G1 X57.291 Y70.549 E59.47656
G1 X58.026 Y70.549 E59.50203
G1 X53.612 Y66.135 E59.71807
G1 X54.348 Y66.135 E59.74354
G1 X58.762 Y70.549 E59.95959
G1 X59.498 Y70.549 E59.98506
G1 X55.084 Y66.135 E60.20111
G1 X55.820 Y66.135 E60.22657
G1 X60.234 Y70.549 E60.44262
G1 X60.970 Y70.549 E60.46809
G1 X56.556 Y66.135 E60.68414
G1 X57.292 Y66.135 E60.70960
G1 X61.705 Y70.549 E60.92565
G1 X62.441 Y70.549 E60.95112
G1 X58.027 Y66.135 E61.16717
G1 X58.763 Y66.135 E61.19263
G1 X63.177 Y70.549 E61.40868
G1 X63.913 Y70.549 E61.43415
G1 X59.499 Y66.135 E61.65020
G1 X60.235 Y66.135 E61.67566
G1 X64.649 Y70.549 E61.89171
G1 X65.385 Y70.549 E61.91718
G1 X60.971 Y66.135 E62.13323
G1 X61.706 Y66.135 E62.15869
G1 X66.120 Y70.549 E62.37474
G1 X66.856 Y70.549 E62.40021
G1 X62.442 Y66.135 E62.61626
G1 X63.178 Y66.135 E62.64172
G1 X67.592 Y70.549 E62.85777
G1 X68.328 Y70.549 E62.88324
G1 X63.914 Y66.135 E63.09929
G1 X64.650 Y66.135 E63.12475
G1 X69.064 Y70.549 E63.34080
G1 X69.799 Y70.549 E63.36627
G1 X65.386 Y66.135 E63.58232
G1 X66.121 Y66.135 E63.60778
G1 X70.535 Y70.549 E63.82383
G1 X71.271 Y70.549 E63.84930
G1 X66.857 Y66.135 E64.06535
G1 X67.593 Y66.135 E64.09082
G1 X72.007 Y70.549 E64.30686
G1 X72.743 Y70.549 E64.33233
G1 X68.329 Y66.135 E64.54838
G1 X69.065 Y66.135 E64.57385
G1 X73.479 Y70.549 E64.78989
G1 X74.214 Y70.549 E64.81536
G1 X69.800 Y66.135 E65.03141
G1 X70.536 Y66.135 E65.05688
G1 X74.950 Y70.549 E65.27292
G1 X75.686 Y70.549 E65.29839
G1 X71.272 Y66.135 E65.51444
G1 X72.008 Y66.135 E65.53991
G1 X76.422 Y70.549 E65.75595
G1 X77.158 Y70.549 E65.78142
G1 X72.744 Y66.135 E65.99747
G1 X73.480 Y66.135 E66.02294
G1 X77.894 Y70.549 E66.23898
G1 X78.629 Y70.549 E66.26445
G1 X74.215 Y66.135 E66.48050
G1 X74.951 Y66.135 E66.50597
G1 X79.365 Y70.549 E66.72201
G1 X80.101 Y70.549 E66.74748
G1 X75.687 Y66.135 E66.96353
G1 X76.423 Y66.135 E66.98900
G1 X80.837 Y70.549 E67.20505
G1 X81.573 Y70.549 E67.23051
G1 X77.159 Y66.135 E67.44656
G1 X77.895 Y66.135 E67.47203
G1 X82.308 Y70.549 E67.68808
G1 X83.044 Y70.549 E67.71354
G1 X78.630 Y66.135 E67.92959
G1 X79.366 Y66.135 E67.95506
G1 X83.780 Y70.549 E68.17111
G1 X84.516 Y70.549 E68.19657
G1 X80.102 Y66.135 E68.41262
G1 X80.838 Y66.135 E68.43809
G1 X85.252 Y70.549 E68.65414
G1 X85.988 Y70.549 E68.67960
G1 X81.574 Y66.135 E68.89565
G1 X82.309 Y66.135 E68.92112
G1 X86.723 Y70.549 E69.13717
G1 X87.459 Y70.549 E69.16263
G1 X83.045 Y66.135 E69.37868
G1 X83.781 Y66.135 E69.40415
G1 X88.195 Y70.549 E69.62020
G1 X88.931 Y70.549 E69.64566
G1 X84.517 Y66.135 E69.86171
G1 X85.253 Y66.135 E69.88718
G1 X89.667 Y70.549 E70.10323
G1 X90.402 Y70.549 E70.12869
G1 X85.989 Y66.135 E70.34474
G1 X86.724 Y66.135 E70.37021
G1 X91.138 Y70.549 E70.58626
G1 X91.874 Y70.549 E70.61172
G1 X87.460 Y66.135 E70.82777
G1 X88.196 Y66.135 E70.85324
G1 X92.610 Y70.549 E71.06929
G1 X93.346 Y70.549 E71.09475
G1 X88.932 Y66.135 E71.31080
G1 X89.668 Y66.135 E71.33627
G1 X94.082 Y70.549 E71.55232
G1 X94.817 Y70.549 E71.57778
G1 X90.403 Y66.135 E71.79383
G1 X91.139 Y66.135 E71.81930
G1 X95.553 Y70.549 E72.03535
G1 X96.289 Y70.549 E72.06081
G1 X91.875 Y66.135 E72.27686
