; generated by Slic3r 1.3.0 on 2019-01-04 at 12:35:20

; external perimeters extrusion width = 0.55mm (4.37mm^3/s)
; perimeters extrusion width = 0.70mm (11.44mm^3/s)
; infill extrusion width = 0.62mm (13.45mm^3/s)
; solid infill extrusion width = 0.70mm (3.81mm^3/s)
; top infill extrusion width = 0.70mm (2.86mm^3/s)

M107
M104 S200 ; set temperature
G28 ; home all axes
G1 Z5 F5000 ; lift nozzle

; Filament gcode

M109 S200 ; set temperature and wait for it to be reached
G21 ; set units to millimeters
G90 ; use absolute coordinates
M82 ; use absolute distances for extrusion
G92 E0
G1 Z0.350 F7800.000
G1 E-2.00000 F2400.00000
G92 E0
G1 X92.340 Y96.178 F7800.000
G1 E2.00000 F2400.00000
G1 F951.188
G1 X94.093 Y94.699 E2.07096
G1 X96.245 Y93.906 E2.14192
G1 X97.425 Y93.800 E2.17858
G1 X102.575 Y93.800 E2.33792
G1 X104.834 Y94.197 E2.40889
G1 X106.822 Y95.340 E2.47985
G1 X108.301 Y97.093 E2.55081
G1 X109.094 Y99.245 E2.62177
G1 X109.200 Y100.425 E2.65842
G1 X109.200 Y104.645 E2.78901
G1 X108.803 Y106.904 E2.85997
G1 X107.660 Y108.892 E2.93094
G1 X105.907 Y110.372 E3.00190
G1 X103.755 Y111.164 E3.07286
G1 X102.575 Y111.270 E3.10951
G1 X97.425 Y111.270 E3.26886
G1 X95.166 Y110.873 E3.33982
G1 X93.178 Y109.730 E3.41078
G1 X91.699 Y107.977 E3.48175
G1 X90.906 Y105.825 E3.55271
G1 X90.800 Y104.645 E3.58936
G1 X90.800 Y100.425 E3.71995
G1 X91.197 Y98.166 E3.79091
G1 X92.303 Y96.243 E3.85955
G1 E1.85955 F2400.00000
G92 E0
G1 X100.950 Y101.911 F7800.000
G1 E2.00000 F2400.00000
G1 F1800
G1 X99.050 Y101.911 E2.05879
G1 X99.050 Y104.295 E2.13258
G1 X97.775 Y104.295 E2.17203
G1 X97.775 Y100.775 E2.28096
G1 X102.225 Y100.775 E2.41865
G1 X102.225 Y104.295 E2.52758
G1 X100.950 Y104.295 E2.56703
G1 X100.950 Y101.986 E2.63850
G1 X100.869 Y101.417 F7800.000
G1 X101.338 Y101.365 F7800.000
G1 F951.188
G1 X101.262 Y101.343 E2.64039
G1 X98.738 Y101.343 E2.70050
G1 X98.585 Y101.388 E2.70428
G1 F951.188
G1 X98.433 Y101.433 E2.70877
G1 X98.412 Y101.598 E2.71347
G1 X98.412 Y103.983 E2.78095
G1 E0.78095 F2400.00000
G92 E0
G1 X101.588 Y103.983 F7800.000
G1 E2.00000 F2400.00000
G1 F951.188
G1 X101.588 Y101.598 E2.06790
G1 X101.567 Y101.433 E2.07263
G1 X101.338 Y101.365 E2.07941
G1 Z0.650 F7800.000
G1 X101.436 Y101.425 F7800.000
G1 F600
G1 X98.564 Y101.425 E2.15686
G1 X98.564 Y103.810 E2.22120
G1 X97.936 Y103.810 E2.23816
G1 X97.936 Y100.936 E2.31570
G1 X102.064 Y100.936 E2.42708
G1 X102.064 Y103.810 E2.50462
G1 X101.436 Y103.810 E2.52158
G1 X101.436 Y101.500 E2.58389
G1 X100.875 Y101.986 F7800.000
G1 F600
G1 X99.125 Y101.986 E2.61996
G1 X99.125 Y104.232 E2.66625
G1 X98.986 Y104.370 E2.67030
G1 X97.375 Y104.370 E2.70351
G1 X97.375 Y100.375 E2.78585
G1 X102.625 Y100.375 E2.89406
G1 X102.625 Y104.370 E2.97641
G1 X101.014 Y104.370 E3.00961
G1 X100.875 Y104.232 E3.01366
G1 X100.875 Y102.061 E3.05841
G1 X100.865 Y101.486 F7800.000
G1 Z0.950 F7800.000
G1 X101.436 Y101.425 F7800.000
G1 F600
G1 X98.564 Y101.425 E3.13586
G1 X98.564 Y103.810 E3.20020
G1 X97.836 Y103.810 E3.21986
G1 X97.836 Y100.836 E3.30009
G1 X102.164 Y100.836 E3.41687
G1 X102.164 Y103.810 E3.49710
G1 X101.436 Y103.810 E3.51676
G1 X101.436 Y101.500 E3.57908
G1 X100.875 Y101.986 F7800.000
G1 F600
G1 X99.125 Y101.986 E3.61514
G1 X99.125 Y104.232 E3.66144
G1 X98.986 Y104.370 E3.66549
G1 X97.275 Y104.370 E3.70075
G1 X97.275 Y100.275 E3.78516
G1 X102.725 Y100.275 E3.89749
G1 X102.725 Y104.370 E3.98190
G1 X101.014 Y104.370 E4.01716
G1 X100.875 Y104.232 E4.02121
G1 X100.875 Y102.061 E4.06596
G1 X100.865 Y101.486 F7800.000
G1 X101.800 Y101.153 F7800.000
G1 F742.91
G1 X101.800 Y103.492 E4.06881
G1 E2.06881 F2400.00000
G92 E0
G1 X98.200 Y103.492 F7800.000
G1 E2.00000 F2400.00000
G1 F742.91
G1 X98.200 Y101.153 E2.00285
M106 S255
G1 Z1.250 F7800.000
G1 X101.436 Y101.425 F7800.000
G1 F600
G1 X98.564 Y101.425 E2.08031
G1 X98.564 Y103.810 E2.14465
G1 X97.836 Y103.810 E2.16431
G1 X97.836 Y100.836 E2.24454
G1 X102.164 Y100.836 E2.36132
G1 X102.164 Y103.810 E2.44155
G1 X101.436 Y103.810 E2.46121
G1 X101.436 Y101.500 E2.52353
G1 X100.875 Y101.986 F7800.000
G1 F600
G1 X99.125 Y101.986 E2.55959
G1 X99.125 Y104.232 E2.60589
G1 X98.986 Y104.370 E2.60993
G1 X97.275 Y104.370 E2.64520
G1 X97.275 Y100.275 E2.72961
G1 X102.725 Y100.275 E2.84194
G1 X102.725 Y104.370 E2.92634
G1 X101.014 Y104.370 E2.96161
G1 X100.875 Y104.232 E2.96566
G1 X100.875 Y102.061 E3.01041
G1 X100.865 Y101.486 F7800.000
G1 X101.800 Y101.153 F7800.000
G1 F742.91
G1 X101.800 Y103.492 E3.01326
G1 E1.01326 F2400.00000
G92 E0
G1 X98.200 Y103.492 F7800.000
G1 E2.00000 F2400.00000
G1 F742.91
G1 X98.200 Y101.153 E2.00285
G1 Z1.550 F7800.000
G1 X101.436 Y101.425 F7800.000
G1 F600
G1 X98.564 Y101.425 E2.08031
G1 X98.564 Y103.810 E2.14465
G1 X97.836 Y103.810 E2.16431
G1 X97.836 Y100.836 E2.24454
G1 X102.164 Y100.836 E2.36132
G1 X102.164 Y103.810 E2.44155
G1 X101.436 Y103.810 E2.46121
G1 X101.436 Y101.500 E2.52353
G1 X100.875 Y101.986 F7800.000
G1 F600
G1 X99.125 Y101.986 E2.55959
G1 X99.125 Y104.232 E2.60589
G1 X98.986 Y104.370 E2.60993
G1 X97.275 Y104.370 E2.64520
G1 X97.275 Y100.275 E2.72961
G1 X102.725 Y100.275 E2.84194
G1 X102.725 Y104.370 E2.92634
G1 X101.014 Y104.370 E2.96161
G1 X100.875 Y104.232 E2.96566
G1 X100.875 Y102.061 E3.01041
G1 X100.865 Y101.486 F7800.000
G1 X101.800 Y101.153 F7800.000
G1 F742.91
G1 X101.800 Y103.492 E3.01326
G1 E1.01326 F2400.00000
G92 E0
G1 X98.200 Y103.492 F7800.000
G1 E2.00000 F2400.00000
G1 F742.91
G1 X98.200 Y101.153 E2.00285
G1 Z1.850 F7800.000
G1 X101.436 Y101.425 F7800.000
G1 F600
G1 X98.564 Y101.425 E2.08031
G1 X98.564 Y103.810 E2.14465
G1 X97.836 Y103.810 E2.16431
G1 X97.836 Y100.836 E2.24454
G1 X102.164 Y100.836 E2.36132
G1 X102.164 Y103.810 E2.44155
G1 X101.436 Y103.810 E2.46121
G1 X101.436 Y101.500 E2.52353
G1 X100.875 Y101.986 F7800.000
G1 F600
G1 X99.125 Y101.986 E2.55959
G1 X99.125 Y104.232 E2.60589
G1 X98.986 Y104.370 E2.60993
G1 X97.275 Y104.370 E2.64520
G1 X97.275 Y100.275 E2.72961
G1 X102.725 Y100.275 E2.84194
G1 X102.725 Y104.370 E2.92634
G1 X101.014 Y104.370 E2.96161
G1 X100.875 Y104.232 E2.96566
G1 X100.875 Y102.061 E3.01041
G1 X100.865 Y101.486 F7800.000
G1 X101.800 Y101.153 F7800.000
G1 F742.91
G1 X101.800 Y103.492 E3.01326
G1 E1.01326 F2400.00000
G92 E0
G1 X98.200 Y103.492 F7800.000
G1 E2.00000 F2400.00000
G1 F742.91
G1 X98.200 Y101.153 E2.00285
G1 Z2.150 F7800.000
G1 X101.436 Y101.425 F7800.000
G1 F600
G1 X98.564 Y101.425 E2.08031
G1 X98.564 Y103.810 E2.14465
G1 X97.836 Y103.810 E2.16431
G1 X97.836 Y100.836 E2.24454
G1 X102.164 Y100.836 E2.36132
G1 X102.164 Y103.810 E2.44155
G1 X101.436 Y103.810 E2.46121
G1 X101.436 Y101.500 E2.52353
G1 X100.875 Y101.986 F7800.000
G1 F600
G1 X99.125 Y101.986 E2.55959
G1 X99.125 Y104.232 E2.60589
G1 X98.986 Y104.370 E2.60993
G1 X97.275 Y104.370 E2.64520
G1 X97.275 Y100.275 E2.72961
G1 X102.725 Y100.275 E2.84194
G1 X102.725 Y104.370 E2.92634
G1 X101.014 Y104.370 E2.96161
G1 X100.875 Y104.232 E2.96566
G1 X100.875 Y102.061 E3.01041
G1 X100.865 Y101.486 F7800.000
G1 X101.800 Y101.153 F7800.000
G1 F742.91
G1 X101.800 Y103.492 E3.01326
G1 E1.01326 F2400.00000
G92 E0
G1 X98.200 Y103.492 F7800.000
G1 E2.00000 F2400.00000
G1 F742.91
G1 X98.200 Y101.153 E2.00285
G1 Z2.450 F7800.000
G1 X101.436 Y101.425 F7800.000
G1 F600
G1 X98.564 Y101.425 E2.08031
G1 X98.564 Y103.810 E2.14465
G1 X97.836 Y103.810 E2.16431
G1 X97.836 Y100.836 E2.24454
G1 X102.164 Y100.836 E2.36132
G1 X102.164 Y103.810 E2.44155
G1 X101.436 Y103.810 E2.46121
G1 X101.436 Y101.500 E2.52353
G1 X100.875 Y101.986 F7800.000
G1 F600
G1 X99.125 Y101.986 E2.55959
G1 X99.125 Y104.232 E2.60589
G1 X98.986 Y104.370 E2.60993
G1 X97.275 Y104.370 E2.64520
G1 X97.275 Y100.275 E2.72961
G1 X102.725 Y100.275 E2.84194
G1 X102.725 Y104.370 E2.92634
G1 X101.014 Y104.370 E2.96161
G1 X100.875 Y104.232 E2.96566
G1 X100.875 Y102.061 E3.01041
G1 X100.865 Y101.486 F7800.000
G1 X101.800 Y101.153 F7800.000
G1 F742.91
G1 X101.800 Y103.492 E3.01326
G1 E1.01326 F2400.00000
G92 E0
G1 X98.200 Y103.492 F7800.000
G1 E2.00000 F2400.00000
G1 F742.91
G1 X98.200 Y101.153 E2.00285
G1 Z2.750 F7800.000
G1 X101.436 Y101.425 F7800.000
G1 F600
G1 X98.564 Y101.425 E2.08031
G1 X98.564 Y103.810 E2.14465
G1 X97.836 Y103.810 E2.16431
G1 X97.836 Y100.836 E2.24454
G1 X102.164 Y100.836 E2.36132
G1 X102.164 Y103.810 E2.44155
G1 X101.436 Y103.810 E2.46121
G1 X101.436 Y101.500 E2.52353
G1 X100.875 Y101.986 F7800.000
G1 F600
G1 X99.125 Y101.986 E2.55959
G1 X99.125 Y104.232 E2.60589
G1 X98.986 Y104.370 E2.60993
G1 X97.275 Y104.370 E2.64520
G1 X97.275 Y100.275 E2.72961
G1 X102.725 Y100.275 E2.84194
G1 X102.725 Y104.370 E2.92634
G1 X101.014 Y104.370 E2.96161
G1 X100.875 Y104.232 E2.96566
G1 X100.875 Y102.061 E3.01041
G1 X100.865 Y101.486 F7800.000
G1 X101.800 Y101.153 F7800.000
G1 F742.91
G1 X101.800 Y103.492 E3.01326
G1 E1.01326 F2400.00000
G92 E0
G1 X98.200 Y103.492 F7800.000
G1 E2.00000 F2400.00000
G1 F742.91
G1 X98.200 Y101.153 E2.00285
G1 Z3.050 F7800.000
G1 X101.436 Y101.425 F7800.000
G1 F600
G1 X98.564 Y101.425 E2.08031
G1 X98.564 Y103.810 E2.14465
G1 X97.836 Y103.810 E2.16431
G1 X97.836 Y100.836 E2.24454
G1 X102.164 Y100.836 E2.36132
G1 X102.164 Y103.810 E2.44155
G1 X101.436 Y103.810 E2.46121
G1 X101.436 Y101.500 E2.52353
G1 X100.875 Y101.986 F7800.000
G1 F600
G1 X99.125 Y101.986 E2.55959
G1 X99.125 Y104.232 E2.60589
G1 X98.986 Y104.370 E2.60993
G1 X97.275 Y104.370 E2.64520
G1 X97.275 Y100.275 E2.72961
G1 X102.725 Y100.275 E2.84194
G1 X102.725 Y104.370 E2.92634
G1 X101.014 Y104.370 E2.96161
G1 X100.875 Y104.232 E2.96566
G1 X100.875 Y102.061 E3.01041
G1 X100.865 Y101.486 F7800.000
G1 X101.800 Y101.153 F7800.000
G1 F742.91
G1 X101.800 Y103.492 E3.01326
G1 E1.01326 F2400.00000
G92 E0
G1 X98.200 Y103.492 F7800.000
G1 E2.00000 F2400.00000
G1 F742.91
G1 X98.200 Y101.153 E2.00285
G1 Z3.350 F7800.000
G1 X101.436 Y101.425 F7800.000
G1 F600
G1 X98.564 Y101.425 E2.08031
G1 X98.564 Y103.810 E2.14465
G1 X97.836 Y103.810 E2.16431
G1 X97.836 Y100.836 E2.24454
G1 X102.164 Y100.836 E2.36132
G1 X102.164 Y103.810 E2.44155
G1 X101.436 Y103.810 E2.46121
G1 X101.436 Y101.500 E2.52353
G1 X100.875 Y101.986 F7800.000
G1 F600
G1 X99.125 Y101.986 E2.55959
G1 X99.125 Y104.232 E2.60589
G1 X98.986 Y104.370 E2.60993
G1 X97.275 Y104.370 E2.64520
G1 X97.275 Y100.275 E2.72961
G1 X102.725 Y100.275 E2.84194
G1 X102.725 Y104.370 E2.92634
G1 X101.014 Y104.370 E2.96161
G1 X100.875 Y104.232 E2.96566
G1 X100.875 Y102.061 E3.01041
G1 X100.865 Y101.486 F7800.000
G1 X101.800 Y101.153 F7800.000
G1 F742.91
G1 X101.800 Y103.492 E3.01326
G1 E1.01326 F2400.00000
G92 E0
G1 X98.200 Y103.492 F7800.000
G1 E2.00000 F2400.00000
G1 F742.91
G1 X98.200 Y101.153 E2.00285
G1 Z3.650 F7800.000
G1 X101.436 Y101.425 F7800.000
G1 F600
G1 X98.564 Y101.425 E2.08031
G1 X98.564 Y103.810 E2.14465
G1 X97.836 Y103.810 E2.16431
G1 X97.836 Y100.736 E2.24724
G1 X102.164 Y100.736 E2.36402
G1 X102.164 Y103.810 E2.44695
G1 X101.436 Y103.810 E2.46661
G1 X101.436 Y101.500 E2.52892
G1 X100.875 Y101.986 F7800.000
G1 F600
G1 X99.125 Y101.986 E2.56499
G1 X99.125 Y104.232 E2.61128
G1 X98.986 Y104.370 E2.61533
G1 X97.275 Y104.370 E2.65060
G1 X97.275 Y100.175 E2.73707
G1 X102.725 Y100.175 E2.84939
G1 X102.725 Y104.370 E2.93586
G1 X101.014 Y104.370 E2.97113
G1 X100.875 Y104.232 E2.97518
G1 X100.875 Y102.061 E3.01992
G1 X100.865 Y101.486 F7800.000
G1 X101.800 Y101.053 F7800.000
G1 F751.71
G1 X101.800 Y103.492 E3.02290
G1 E1.02290 F2400.00000
G92 E0
G1 X98.200 Y103.492 F7800.000
G1 E2.00000 F2400.00000
G1 F751.71
G1 X98.200 Y101.053 E2.00298
G1 Z3.950 F7800.000
G1 X101.436 Y101.425 F7800.000
G1 F600
G1 X98.564 Y101.425 E2.08043
G1 X98.564 Y103.810 E2.14477
G1 X97.836 Y103.810 E2.16443
G1 X97.836 Y100.436 E2.25546
G1 X102.164 Y100.436 E2.37223
G1 X102.164 Y103.810 E2.46326
G1 X101.436 Y103.810 E2.48291
G1 X101.436 Y101.500 E2.54523
G1 X100.875 Y101.986 F7800.000
G1 F900
G1 X99.125 Y101.986 E2.58130
G1 X99.125 Y104.232 E2.62759
G1 X98.986 Y104.370 E2.63164
G1 X97.275 Y104.370 E2.66690
G1 X97.275 Y99.875 E2.75956
G1 X102.725 Y99.875 E2.87188
G1 X102.725 Y104.370 E2.96454
G1 X101.014 Y104.370 E2.99980
G1 X100.875 Y104.232 E3.00385
G1 X100.875 Y102.061 E3.04860
G1 X100.865 Y101.486 F7800.000
G1 X101.712 Y100.930 F7800.000
G1 F641.588
G1 X101.623 Y100.753 E3.04962
G1 X101.712 Y100.930 F7800.000
G1 F641.588
G1 X101.800 Y101.107 E3.04986
G1 X101.800 Y103.492 E3.05277
G1 X101.847 Y100.930 F7800.000
G1 F641.588
G1 X98.153 Y100.930 E3.09812
G1 X98.200 Y101.107 F7800.000
G1 F641.588
G1 X98.200 Y103.492 E3.10103
G1 X98.200 Y101.107 F7800.000
G1 F641.588
G1 X98.377 Y100.753 E3.10307
G1 Z4.250 F7800.000
G1 E1.10307 F2400.00000
G92 E0
G1 X100.310 Y96.839 F7800.000
G1 E2.00000 F2400.00000
M106 S255

G1 F3600
G1 X100.000 Y96.859 E2.00863
G1 X99.690 Y96.839 E2.01726
G1 X99.385 Y96.778 E2.02591
G1 X99.084 Y96.675 E2.03473
G1 X98.812 Y96.541 E2.04316
G1 X98.554 Y96.368 E2.05179
G1 X98.320 Y96.163 E2.06042
G1 X98.115 Y95.930 E2.06905
G1 X97.943 Y95.671 E2.07768
G1 X97.805 Y95.393 E2.08632
G1 X97.705 Y95.098 E2.09495
G1 X97.645 Y94.794 E2.10358
G1 X97.624 Y94.484 E2.11221
G1 X97.644 Y94.181 E2.12064
G1 X97.705 Y93.869 E2.12947
G1 X97.808 Y93.568 E2.13831
G1 X97.943 Y93.296 E2.14673
G1 X98.115 Y93.037 E2.15537
G1 X98.320 Y92.804 E2.16400
G1 X98.554 Y92.599 E2.17263
G1 X98.812 Y92.426 E2.18126
G1 X99.091 Y92.289 E2.18989
G1 X99.386 Y92.189 E2.19854
G1 X99.697 Y92.128 E2.20736
G1 X100.000 Y92.108 E2.21579
G1 X100.310 Y92.128 E2.22442
G1 X100.615 Y92.189 E2.23306
G1 X100.916 Y92.292 E2.24188
G1 X101.188 Y92.426 E2.25031
G1 X101.446 Y92.599 E2.25894
G1 X101.680 Y92.804 E2.26758
G1 X101.885 Y93.037 E2.27621
G1 X102.057 Y93.296 E2.28484
G1 X102.195 Y93.574 E2.29347
G1 X102.295 Y93.869 E2.30210
G1 X102.355 Y94.173 E2.31073
G1 X102.376 Y94.484 E2.31937
G1 X102.355 Y94.794 E2.32800
G1 X102.295 Y95.098 E2.33663
G1 X102.195 Y95.393 E2.34526
G1 X102.057 Y95.671 E2.35389
G1 X101.885 Y95.930 E2.36252
G1 X101.680 Y96.163 E2.37116
G1 X101.446 Y96.368 E2.37979
G1 X101.188 Y96.541 E2.38842
G1 X100.909 Y96.678 E2.39705
G1 X100.615 Y96.778 E2.40568
G1 X100.384 Y96.824 E2.41223
M106 S255

G1 E0.41223 F2400.00000
G92 E0
G1 X102.164 Y92.483 F7800.000
G1 E2.00000 F2400.00000
M106 S255

G1 F3600
G1 X101.788 Y92.153 E2.01390
G1 X101.469 Y91.940 E2.02457
G1 X101.131 Y91.773 E2.03502
G1 X100.762 Y91.646 E2.04588
G1 X100.383 Y91.571 E2.05659
G1 X100.000 Y91.546 E2.06726
G1 X99.625 Y91.571 E2.07771
G1 X99.241 Y91.646 E2.08857
G1 X98.876 Y91.770 E2.09928
G1 X98.531 Y91.940 E2.10995
G1 X98.212 Y92.153 E2.12063
G1 X97.836 Y92.483 E2.13453
G1 X97.836 Y90.836 E2.18029
G1 X102.164 Y90.836 E2.30053
G1 X102.164 Y92.408 E2.34421
M106 S255

G1 E0.34421 F2400.00000
G92 E0
G1 X101.529 Y100.789 F7800.000
G1 E2.00000 F2400.00000
G1 F1156.31
G1 X98.471 Y100.789 E2.08248
G1 X98.471 Y99.350 E2.12131
M106 S255

G1 F3600
G1 X98.471 Y97.729 E2.16633
G1 X99.073 Y97.936 E2.18398
G1 X99.533 Y98.027 E2.19704
G1 X100.000 Y98.058 E2.21002
G1 X100.467 Y98.027 E2.22301
G1 X100.925 Y97.936 E2.23600
G1 X101.529 Y97.731 E2.25371
G1 X101.529 Y99.350 E2.29867
M106 S255

G1 F1156.31
G1 X101.529 Y100.714 E2.33548
G1 X101.436 Y101.425 F7800.000
G1 F1156.31
G1 X98.564 Y101.425 E2.41293
G1 X98.564 Y103.810 E2.47727
G1 X97.836 Y103.810 E2.49693
G1 X97.836 Y99.350 E2.61724
M106 S255

G1 F3600
G1 X97.836 Y96.484 E2.69685
G1 X98.212 Y96.814 E2.71075
G1 X98.531 Y97.027 E2.72143
G1 X98.869 Y97.194 E2.73187
G1 X99.238 Y97.321 E2.74273
G1 X99.617 Y97.396 E2.75344
G1 X100.000 Y97.421 E2.76412
G1 X100.383 Y97.396 E2.77479
G1 X100.760 Y97.321 E2.78546
G1 X101.124 Y97.197 E2.79614
G1 X101.469 Y97.027 E2.80681
G1 X101.788 Y96.814 E2.81748
G1 X102.164 Y96.484 E2.83138
G1 X102.164 Y99.350 E2.91099
M106 S255

G1 F1156.31
G1 X102.164 Y103.810 E3.03130
G1 X101.436 Y103.810 E3.05096
G1 X101.436 Y101.500 E3.11328
G1 X100.875 Y101.986 F7800.000
G1 F1800
G1 X99.125 Y101.986 E3.14935
G1 X99.125 Y104.232 E3.19564
G1 X98.986 Y104.370 E3.19969
G1 X97.275 Y104.370 E3.23495
G1 X97.275 Y99.350 E3.33843
M106 S255

G1 F3600
G1 X97.275 Y90.275 E3.59051
G1 X102.725 Y90.275 E3.74190
G1 X102.725 Y99.350 E3.99398
M106 S255

G1 F1800
