; generated by Slic3r 1.3.0 on 2019-01-19 at 10:25:03

; external perimeters extrusion width = 0.44mm (2.18mm^3/s)
; perimeters extrusion width = 0.56mm (5.69mm^3/s)
; infill extrusion width = 0.50mm (7.31mm^3/s)
; solid infill extrusion width = 0.56mm (2.07mm^3/s)
; top infill extrusion width = 0.56mm (1.55mm^3/s)

M107
M104 S200 ; set temperature
G28 ; home all axes
M150 B180 G210
M150 B180 G210
G92 E0
G1 E6 F1800
; Filament gcode

M109 S200 ; set temperature and wait for it to be reached
G21 ; set units to millimeters
G90 ; use absolute coordinates
M82 ; use absolute distances for extrusion
G92 E0
G1 Z0.250 F7800.000
G1 E-2.00000 F2400.00000
G92 E0
G1 X125.891 Y39.680 F7800.000
G1 E2.00000 F2400.00000
G1 F1352.75
G1 X127.034 Y37.728 E2.10494
G1 X128.781 Y36.291 E2.20989
G1 X131.939 Y35.464 E2.36137
G1 X133.096 Y35.464 E2.41504
G1 X135.323 Y35.861 E2.51998
G1 X137.276 Y37.002 E2.62493
G1 X138.714 Y38.749 E2.72987
G1 X139.542 Y41.910 E2.88150
G1 X139.542 Y57.680 E3.61311
G1 X139.146 Y59.907 E3.71805
G1 X138.004 Y61.860 E3.82300
G1 X136.258 Y63.298 E3.92794
G1 X133.096 Y64.126 E4.07956
G1 X131.939 Y64.126 E4.13323
G1 X129.712 Y63.730 E4.23818
G1 X127.760 Y62.588 E4.34312
G1 X126.321 Y60.842 E4.44806
G1 X125.493 Y57.684 E4.59953
G1 X125.493 Y41.907 E5.33145
G1 X125.880 Y39.739 E5.43361
G1 E3.43361 F2400.00000
G92 E0
G1 X132.846 Y57.430 F7800.000
G1 E2.00000 F2400.00000
G1 F1800
G1 X132.189 Y57.430 E2.03047
G1 X132.189 Y42.160 E2.73889
G1 X132.846 Y42.160 E2.76935
G1 X132.846 Y57.370 E3.47498
G1 X132.497 Y57.235 F7800.000
G1 X132.518 Y57.207 F7800.000
G1 F1352.75
G1 X132.518 Y42.383 E3.71655
G1 Z0.450 F7800.000
G1 X132.349 Y57.003 F7800.000
G1 F600
G1 X131.922 Y57.003 E3.73493
G1 X131.922 Y42.587 E4.35474
G1 X132.348 Y42.587 E4.37309
G1 X132.349 Y56.943 E4.99033
G1 X132.806 Y57.460 F7800.000
G1 F1650
G1 X131.739 Y57.460 E5.02555

G1 F3600
G1 X131.465 Y57.460 E5.03990
G1 X131.465 Y42.130 E5.84082
G1 X131.739 Y42.130 E5.85517

G1 F1650
G1 X132.806 Y42.130 E5.89038
G1 X132.806 Y57.400 E6.39456
G1 X132.460 Y57.260 F7800.000
G1 Z0.650 F7800.000
G1 X132.287 Y57.003 F7800.000
G1 F605.746
G1 X131.382 Y57.003 E6.43347
G1 X131.382 Y42.587 E7.05328
G1 X132.287 Y42.587 E7.09218
G1 X132.287 Y56.943 E7.70942
G1 X132.744 Y57.460 F7800.000
G1 F1650
G1 X131.044 Y57.460 E7.76553

G1 F3600
G1 X130.925 Y57.460 E7.77178
G1 X130.925 Y42.130 E8.57270
G1 X131.044 Y42.130 E8.57895

G1 F1650
G1 X132.744 Y42.130 E8.63505
G1 X132.744 Y57.400 E9.13923
G1 X132.390 Y57.273 F7800.000
G1 X131.834 Y56.745 F7800.000
G1 F807.661
G1 X131.834 Y42.846 E9.53788
M106 S255
G1 Z0.850 F7800.000
G1 X131.865 Y57.003 F7800.000
G1 F616.932
G1 X130.889 Y57.003 E9.57985
G1 X130.889 Y42.587 E10.19966
G1 X131.865 Y42.587 E10.24163
G1 X131.865 Y56.943 E10.85887
G1 X132.323 Y57.100 F7800.000
G1 F1650
G1 X132.685 Y57.100 E10.87084
G1 X132.685 Y57.460 E10.88273
G1 X130.505 Y57.460 E10.95473
M106 S255

G1 F3600
G1 X130.432 Y57.460 E10.95851
G1 X130.432 Y42.130 E11.75942
G1 X130.505 Y42.130 E11.76320
M106 S255

G1 F1650
G1 X132.685 Y42.130 E11.83519
G1 X132.685 Y42.490 E11.84707
G1 X132.323 Y42.490 E11.85904
G1 X132.323 Y57.040 E12.33945
G1 X132.320 Y57.463 F7800.000
G1 X131.377 Y56.745 F7800.000
G1 F822.576
G1 X131.377 Y42.846 E12.82036
G1 Z1.050 F7800.000
G1 X131.250 Y57.003 F7800.000
G1 F623.093
G1 X130.436 Y57.003 E12.85537
G1 X130.436 Y42.587 E13.47518
G1 X131.250 Y42.587 E13.51020
G1 X131.250 Y56.943 E14.12743
G1 X131.708 Y57.100 F7800.000
G1 F1650
G1 X132.627 Y57.100 E14.15778
G1 X132.627 Y57.460 E14.16966
G1 X130.012 Y57.460 E14.25599
M106 S255

G1 F3600
G1 X129.979 Y57.460 E14.25772
G1 X129.979 Y42.130 E15.05863
G1 X130.012 Y42.130 E15.06036
M106 S255

G1 F1650
G1 X132.627 Y42.130 E15.14669
G1 X132.626 Y42.490 E15.15857
G1 X131.708 Y42.490 E15.18891
G1 X131.708 Y57.040 E15.66931
G1 X131.699 Y57.500 F7800.000
G1 X130.843 Y56.745 F7800.000
G1 F830.79
G1 X130.843 Y42.846 E15.96327
G1 Z1.250 F7800.000
G1 X130.716 Y57.003 F7800.000
G1 F650.93
G1 X130.016 Y57.003 E15.99339
G1 X130.016 Y42.588 E16.61317
G1 X130.716 Y42.589 E16.64329
G1 X130.716 Y56.943 E17.26046
G1 X131.173 Y57.100 F7800.000
G1 F1650
G1 X132.569 Y57.100 E17.30655
G1 X132.569 Y57.460 E17.31844
G1 X129.559 Y57.460 E17.41781
M106 S255

G1 F3600
G1 X129.559 Y57.036 E17.43998
M106 S255

G1 F1650
G1 X129.559 Y54.030 E17.53921
M106 S255

G1 F3600
G1 X129.559 Y46.102 E17.95345
M106 S255

G1 F1650
G1 X129.559 Y42.651 E18.06740
M106 S255

G1 F3600
G1 X129.559 Y42.130 E18.09457
M106 S255

G1 F1650
G1 X132.569 Y42.133 E18.19395
G1 X132.569 Y42.490 E18.20573
G1 X131.173 Y42.490 E18.25181
G1 X131.173 Y57.040 E18.73222
G1 X131.161 Y57.500 F7800.000
G1 X130.366 Y56.745 F7800.000
G1 F867.907
G1 X130.366 Y42.847 E18.89451
G1 Z1.450 F7800.000
G1 X130.229 Y57.003 F7800.000
G1 F690.543
G1 X129.624 Y57.003 E18.92053
G1 X129.624 Y42.587 E19.54035
G1 X130.229 Y42.587 E19.56637
G1 X130.229 Y56.943 E20.18360
G1 X130.686 Y57.100 F7800.000
G1 F1650
G1 X132.514 Y57.100 E20.24398
G1 X132.514 Y57.460 E20.25586
G1 X129.166 Y57.460 E20.36640
G1 X129.166 Y42.130 E20.87256
G1 X132.514 Y42.130 E20.98308
G1 X132.514 Y42.490 E20.99497
G1 X130.686 Y42.490 E21.05533
G1 X130.686 Y57.040 E21.53574
G1 X130.686 Y57.500 F7800.000
G1 X129.926 Y56.745 F7800.000
G1 F920.724
G1 X129.926 Y42.846 E21.58803
G1 Z1.650 F7800.000
G1 X129.780 Y57.003 F7800.000
G1 F600
G1 X129.255 Y57.003 E21.61059
G1 X129.255 Y42.587 E22.23040
G1 X129.780 Y42.587 E22.25296
G1 X129.780 Y56.943 E22.87019
G1 X130.237 Y57.100 F7800.000
G1 F1650
G1 X132.460 Y57.100 E22.94358
G1 X132.460 Y57.460 E22.95547
G1 X128.798 Y57.460 E23.07637
G1 X128.798 Y42.130 E23.58252
G1 X132.460 Y42.130 E23.70342
G1 X132.459 Y42.490 E23.71530
G1 X130.237 Y42.490 E23.78868
G1 X130.237 Y57.040 E24.26908
G1 X130.217 Y57.500 F7800.000
G1 Z1.850 F7800.000
G1 X129.364 Y57.003 F7800.000
G1 F600
G1 X128.908 Y57.003 E24.28868
G1 X128.908 Y42.587 E24.90850
G1 X129.364 Y42.587 E24.92809
G1 X129.364 Y56.943 E25.54533
G1 X129.821 Y57.100 F7800.000
G1 F1650
G1 X132.407 Y57.100 E25.63071
G1 X132.406 Y57.460 E25.64260
G1 X128.451 Y57.460 E25.77320
G1 X128.451 Y42.130 E26.27936
G1 X132.406 Y42.130 E26.40996
G1 X132.407 Y42.490 E26.42185
G1 X129.821 Y42.490 E26.50723
G1 X129.821 Y57.040 E26.98763
G1 X129.821 Y57.500 F7800.000
G1 Z2.050 F7800.000
G1 X128.975 Y57.003 F7800.000
G1 F600
G1 X128.578 Y57.003 E27.00467
G1 X128.578 Y42.587 E27.62448
G1 X128.975 Y42.587 E27.64152
G1 X128.975 Y56.943 E28.25875
G1 X129.432 Y57.100 F7800.000
G1 F1650
G1 X132.356 Y57.100 E28.35530
G1 X132.356 Y57.460 E28.36718
G1 X128.121 Y57.460 E28.50699
G1 X128.121 Y42.130 E29.01315
G1 X132.356 Y42.130 E29.15295
G1 X132.356 Y42.490 E29.16484
G1 X129.432 Y42.490 E29.26137
G1 X129.432 Y57.040 E29.74177
G1 X129.432 Y57.500 F7800.000
G1 Z2.250 F7800.000
G1 X128.609 Y57.003 F7800.000
G1 F600
G1 X128.265 Y57.003 E29.75658
G1 X128.265 Y42.587 E30.37639
G1 X128.609 Y42.587 E30.39120
G1 X128.609 Y56.943 E31.00843
G1 X129.067 Y57.100 F7800.000
G1 F1650
G1 X132.305 Y57.100 E31.11536
G1 X132.305 Y57.460 E31.12724
G1 X127.808 Y57.460 E31.27573
G1 X127.808 Y42.130 E31.78188
G1 X132.305 Y42.130 E31.93037
G1 X132.305 Y42.490 E31.94225
G1 X129.067 Y42.490 E32.04917
G1 X129.067 Y57.040 E32.52957
G1 X129.067 Y57.500 F7800.000
G1 Z2.450 F7800.000
G1 X128.722 Y57.100 F7800.000
G1 F811.359
G1 X132.256 Y57.100 E32.64627
G1 X132.256 Y57.460 E32.65816
G1 X127.509 Y57.460 E32.81489
G1 X127.509 Y42.130 E33.32105
G1 X132.256 Y42.130 E33.47778
G1 X132.256 Y42.490 E33.48967
G1 X128.722 Y42.490 E33.60637
G1 X128.722 Y57.040 E34.08677
G1 X128.722 Y57.500 F7800.000
G1 X128.115 Y57.232 F7800.000
G1 F600
G1 X128.115 Y42.359 E34.96829
G1 Z2.650 F7800.000
G1 E32.96829 F2400.00000
G92 E0
G1 X128.395 Y57.100 F7800.000
G1 E2.00000 F2400.00000
G1 F823.831
G1 X132.209 Y57.100 E2.12594
G1 X132.209 Y57.460 E2.13783
G1 X127.222 Y57.460 E2.30248
G1 X127.222 Y42.130 E2.80864
G1 X132.209 Y42.130 E2.97328
G1 X132.209 Y42.490 E2.98517
G1 X128.395 Y42.490 E3.11111
G1 X128.395 Y57.040 E3.59151
G1 X128.395 Y57.500 F7800.000
G1 X127.809 Y57.232 F7800.000
G1 F600
G1 X127.809 Y42.359 E4.42299
G1 Z2.850 F7800.000
G1 E2.42299 F2400.00000
G92 E0
G1 X128.084 Y57.100 F7800.000
G1 E2.00000 F2400.00000
G1 F835.661
G1 X132.162 Y57.100 E2.13467
G1 X132.163 Y57.460 E2.14656
G1 X126.947 Y57.460 E2.31875
G1 X126.947 Y42.130 E2.82491
G1 X132.163 Y42.130 E2.99710
G1 X132.162 Y42.490 E3.00899
G1 X128.084 Y42.490 E3.14366
G1 X128.084 Y57.040 E3.62406
G1 X128.084 Y57.500 F7800.000
G1 X127.515 Y57.232 F7800.000
G1 F607.753
G1 X127.515 Y42.359 E4.41088
G1 Z3.050 F7800.000
G1 E2.41088 F2400.00000
G92 E0
G1 X127.786 Y57.100 F7800.000
G1 E2.00000 F2400.00000
G1 F944.763
G1 X127.786 Y42.490 E2.48238
G1 X131.770 Y42.490 E2.61391
G1 X131.770 Y42.910 E2.62778
M106 S255

G1 F3600
G1 X131.770 Y56.680 E3.34719
M106 S255

G1 F944.763
G1 X131.770 Y57.100 E3.36106
G1 X127.846 Y57.100 E3.49061
G1 X127.387 Y57.114 F7800.000
G1 X126.685 Y57.460 F7800.000
G1 F944.763
G1 X126.685 Y42.130 E3.99676
G1 X132.117 Y42.130 E4.17613
G1 X132.117 Y42.910 E4.20189
M106 S255

G1 F3600
G1 X132.117 Y56.680 E4.92130
M106 S255

G1 F944.763
G1 X132.117 Y57.460 E4.94705
G1 X126.745 Y57.460 E5.12444
G1 X126.868 Y57.105 F7800.000
G1 X127.236 Y57.232 F7800.000
G1 F687.1
G1 X127.236 Y42.359 E5.86836
G1 Z3.250 F7800.000
G1 E3.86836 F2400.00000
G92 E0
G1 X127.501 Y57.100 F7800.000
G1 E2.00000 F2400.00000
G1 F858.951
G1 X127.501 Y42.490 E2.48238
G1 X131.711 Y42.490 E2.62137
G1 X131.711 Y57.100 E3.10376
G1 X127.561 Y57.100 E3.24076
G1 X127.138 Y57.267 F7800.000
G1 X126.433 Y57.460 F7800.000
G1 F1574.74
G1 X126.433 Y42.130 E3.74692
G1 X132.075 Y42.130 E3.93319
G1 X132.075 Y57.460 E4.43934
G1 X126.493 Y57.460 E4.62363
G1 X126.502 Y57.066 F7800.000
G1 X126.967 Y57.232 F7800.000
G1 F1145.27
G1 X126.967 Y42.359 E5.32630
G1 Z3.450 F7800.000
G1 E3.32630 F2400.00000
G92 E0
G1 X127.229 Y57.100 F7800.000
G1 E2.00000 F2400.00000
G1 F867.066
G1 X127.229 Y42.490 E2.48238
G1 X131.667 Y42.490 E2.62893
G1 X131.667 Y57.100 E3.11131
G1 X127.289 Y57.100 E3.25587
G1 X126.865 Y57.265 F7800.000
G1 X126.190 Y57.460 F7800.000
G1 F1589.62
G1 X126.190 Y42.130 E3.76203
G1 X132.032 Y42.130 E3.95491
G1 X132.032 Y57.460 E4.46107
G1 X126.250 Y57.460 E4.65198
G1 X126.297 Y57.075 F7800.000
G1 X126.710 Y57.232 F7800.000
G1 F1156.09
G1 X126.710 Y42.359 E5.31843
G1 Z3.650 F7800.000
G1 E3.31843 F2400.00000
G92 E0
G1 X126.970 Y57.100 F7800.000
G1 E2.00000 F2400.00000
G1 F874.789
G1 X126.970 Y42.490 E2.48238
G1 X131.624 Y42.490 E2.63606
G1 X131.624 Y57.100 E3.11844
G1 X127.030 Y57.100 E3.27014
G1 X126.604 Y57.264 F7800.000
G1 X125.955 Y57.460 F7800.000
G1 F1603.78
G1 X125.955 Y42.130 E3.77629
G1 X131.991 Y42.130 E3.97558
G1 X131.991 Y57.460 E4.48174
G1 X126.015 Y57.460 E4.67905
G1 X126.008 Y57.064 F7800.000
G1 X126.462 Y57.232 F7800.000
G1 F1166.39
G1 X126.462 Y42.359 E5.31559
G1 Z3.850 F7800.000
G1 E3.31559 F2400.00000
G92 E0
G1 X126.719 Y57.100 F7800.000
G1 E2.00000 F2400.00000
G1 F882.255
G1 X126.719 Y42.490 E2.48238
G1 X131.583 Y42.490 E2.64298
G1 X131.583 Y57.100 E3.12536
G1 X126.779 Y57.100 E3.28397
G1 X126.353 Y57.262 F7800.000
G1 X125.730 Y57.460 F7800.000
G1 F1617.47
G1 X125.730 Y42.130 E3.79013
G1 X131.952 Y42.130 E3.99557
G1 X131.952 Y57.460 E4.50172
G1 X125.790 Y57.460 E4.70518
G1 X125.805 Y57.067 F7800.000
G1 X126.225 Y57.232 F7800.000
G1 F1176.34
G1 X126.225 Y42.359 E5.31016
G1 Z4.050 F7800.000
G1 E3.31016 F2400.00000
G92 E0
G1 X126.477 Y57.100 F7800.000
G1 E2.00000 F2400.00000
G1 F889.45
G1 X126.477 Y42.490 E2.48238
G1 X131.544 Y42.490 E2.64966
G1 X131.544 Y57.100 E3.13205
G1 X126.537 Y57.100 E3.29735
G1 X126.111 Y57.260 F7800.000
G1 X125.513 Y57.460 F7800.000
G1 F1630.66
G1 X125.513 Y42.130 E3.80350
G1 X131.913 Y42.130 E4.01483
G1 X131.913 Y57.460 E4.52098
G1 X125.573 Y57.460 E4.73033
G1 X125.627 Y57.077 F7800.000
G1 X125.995 Y57.232 F7800.000
G1 F1185.93
G1 X125.995 Y42.359 E5.30440
G1 Z4.250 F7800.000
G1 X126.245 Y57.100 F7800.000
G1 F896.353
G1 X126.245 Y42.490 E5.78679
G1 X131.504 Y42.490 E5.96043
G1 X131.504 Y57.100 E6.44282
G1 X126.305 Y57.100 E6.61448
G1 X125.878 Y57.259 F7800.000
G1 X125.302 Y57.460 F7800.000
G1 F1643.31
G1 X125.302 Y42.130 E7.12064
G1 X131.876 Y42.130 E7.33770
G1 X131.876 Y57.460 E7.84386
G1 X125.362 Y57.460 E8.05894
G1 X125.360 Y57.064 F7800.000
G1 X125.773 Y57.232 F7800.000
G1 F1195.14
G1 X125.773 Y42.359 E8.60686
M106 S252.45
G1 Z4.450 F7800.000
G1 X126.022 Y57.100 F7800.000
G1 F900
G1 X126.022 Y42.490 E9.08924
G1 X131.467 Y42.490 E9.26904
G1 X131.467 Y57.100 E9.75142
G1 X126.082 Y57.100 E9.92924
G1 X125.654 Y57.258 F7800.000
G1 X125.098 Y57.460 F7800.000
G1 F1650
G1 X125.098 Y42.130 E10.43540
G1 X131.841 Y42.130 E10.65801
G1 X131.841 Y57.460 E11.16417
G1 X125.158 Y57.460 E11.38481
G1 X125.180 Y57.068 F7800.000
G1 X125.560 Y57.232 F7800.000
G1 F1200
G1 X125.560 Y42.359 E11.90843
G1 Z4.650 F7800.000
G1 X125.805 Y57.100 F7800.000
G1 F900
G1 X125.805 Y42.490 E12.39081
G1 X131.432 Y42.490 E12.57658
G1 X131.432 Y57.100 E13.05896
G1 X125.865 Y57.100 E13.24275
G1 X125.437 Y57.256 F7800.000
G1 X124.903 Y57.460 F7800.000
G1 F1650
G1 X124.903 Y42.130 E13.74890
G1 X131.806 Y42.130 E13.97683
G1 X131.806 Y57.460 E14.48299
G1 X124.963 Y57.460 E14.70893
G1 X125.024 Y57.079 F7800.000
G1 X125.354 Y57.232 F7800.000
G1 F1200
G1 X125.354 Y42.359 E15.20682
G1 Z4.850 F7800.000
G1 X125.596 Y57.100 F7800.000
G1 F900
G1 X125.596 Y42.490 E15.68920
G1 X131.396 Y42.490 E15.88071
G1 X131.396 Y57.100 E16.36309
G1 X125.656 Y57.100 E16.55262
G1 X125.227 Y57.255 F7800.000
G1 X124.712 Y57.460 F7800.000
G1 F1650
G1 X124.712 Y42.130 E17.05878
G1 X131.773 Y42.130 E17.29191
G1 X131.773 Y57.460 E17.79807
G1 X124.772 Y57.460 E18.02922
G1 X124.774 Y57.065 F7800.000
G1 X125.154 Y57.232 F7800.000
G1 F1200
G1 X125.154 Y42.359 E18.50443
M106 S255
G1 Z5.050 F7800.000
G1 X125.395 Y57.100 F7800.000
G1 F1278.88
G1 X125.395 Y42.490 E18.98681
G1 X131.364 Y42.490 E19.18387
G1 X131.364 Y57.100 E19.66625
G1 X125.455 Y57.100 E19.86132
G1 X125.026 Y57.254 F7800.000
G1 X124.528 Y57.460 F7800.000
G1 F1278.88
G1 X124.528 Y42.130 E20.36748
G1 X131.741 Y42.130 E20.60564
G1 X131.741 Y57.460 E21.11180
G1 X124.588 Y57.460 E21.34799
G1 X124.614 Y57.070 F7800.000
G1 X124.962 Y57.232 F7800.000
G1 F930.096
G1 X124.962 Y42.359 E21.80252
G1 Z5.250 F7800.000
G1 X125.200 Y57.100 F7800.000
G1 F1286.33
G1 X125.200 Y42.490 E22.28490
G1 X131.332 Y42.490 E22.48736
G1 X131.332 Y57.100 E22.96974
G1 X125.260 Y57.100 E23.17022
G1 X124.830 Y57.253 F7800.000
G1 X124.350 Y57.460 F7800.000
G1 F1286.33
G1 X124.350 Y42.130 E23.67638
G1 X131.710 Y42.130 E23.91938
G1 X131.710 Y57.460 E24.42554
G1 X124.410 Y57.460 E24.66657
G1 X124.476 Y57.080 F7800.000
G1 X124.775 Y57.232 F7800.000
G1 F935.512
G1 X124.775 Y42.359 E25.09926
G1 Z5.450 F7800.000
G1 X125.011 Y57.100 F7800.000
G1 F1293.58
G1 X125.011 Y42.490 E25.58164
G1 X131.300 Y42.490 E25.78929
G1 X131.300 Y57.100 E26.27167
G1 X125.071 Y57.100 E26.47734
G1 X124.641 Y57.252 F7800.000
G1 X124.176 Y57.460 F7800.000
G1 F1293.58
G1 X124.176 Y42.130 E26.98349
G1 X131.681 Y42.130 E27.23128
G1 X131.681 Y57.460 E27.73744
G1 X124.236 Y57.460 E27.98324
G1 X124.243 Y57.066 F7800.000
G1 X124.593 Y57.232 F7800.000
G1 F940.783
G1 X124.593 Y42.359 E28.39769
G1 Z5.650 F7800.000
G1 X124.829 Y57.100 F7800.000
G1 F1300.58
G1 X124.829 Y42.490 E28.88007
G1 X131.272 Y42.490 E29.09278
G1 X131.272 Y57.100 E29.57516
G1 X124.889 Y57.100 E29.78590
G1 X124.459 Y57.250 F7800.000
G1 X124.010 Y57.460 F7800.000
G1 F1300.58
G1 X124.010 Y42.130 E30.29205
G1 X131.653 Y42.130 E30.54440
G1 X131.653 Y57.460 E31.05056
G1 X124.070 Y57.460 E31.30093
G1 X124.100 Y57.070 F7800.000
G1 X124.420 Y57.232 F7800.000
G1 F945.873
G1 X124.420 Y42.359 E31.69580
G1 Z5.850 F7800.000
G1 X124.652 Y57.100 F7800.000
G1 F1307.42
G1 X124.652 Y42.490 E32.17819
G1 X131.244 Y42.490 E32.39585
G1 X131.244 Y57.100 E32.87823
G1 X124.712 Y57.100 E33.09391
G1 X124.280 Y57.249 F7800.000
G1 X123.848 Y57.460 F7800.000
G1 F1307.42
G1 X123.848 Y42.130 E33.60007
G1 X131.626 Y42.130 E33.85688
G1 X131.626 Y57.460 E34.36304
