; generated by Slic3r 1.3.0 on 2019-01-15 at 16:18:21

; external perimeters extrusion width = 0.44mm (2.18mm^3/s)
; perimeters extrusion width = 0.56mm (5.69mm^3/s)
; infill extrusion width = 0.50mm (7.31mm^3/s)
; solid infill extrusion width = 0.56mm (2.07mm^3/s)
; top infill extrusion width = 0.56mm (1.55mm^3/s)
; support material extrusion width = 0.44mm (4.76mm^3/s)

M107
M104 S200 ; set temperature
G28 ; home all axes
M150 B180 G210
M150 B180 G210
G92 E0
G1 E6 F1800
; Filament gcode

M109 S200 ; set temperature and wait for it to be reached
G21 ; set units to millimeters
G90 ; use absolute coordinates
M82 ; use absolute distances for extrusion
G92 E0
G1 Z0.250 F7800.000
G1 X40.027 Y60.920 F7800.000
G1 F1800
G1 X40.909 Y60.393 E0.04767
G1 X41.871 Y59.980 E0.09624
G1 X42.277 Y59.842 E0.11614
G1 X43.092 Y59.624 E0.15527
G1 X43.395 Y59.564 E0.16961
G1 X44.302 Y59.449 E0.21200
G1 X45.545 Y59.391 E0.26976
G1 X60.721 Y59.391 E0.97381
G1 X62.048 Y59.430 E1.03539
G1 X62.884 Y59.540 E1.07451
G1 X63.636 Y59.699 E1.11018
G1 X152.317 Y82.257 E5.35534
G1 X152.794 Y82.399 E5.37842
G1 X153.309 Y82.585 E5.40383
G1 X159.227 Y84.988 E5.70015
G1 X161.141 Y86.194 E5.80509
G1 X162.521 Y87.986 E5.91004
G1 X163.248 Y90.961 E6.05209
G1 X163.248 Y97.361 E6.34900
G1 X162.851 Y99.588 E6.45395
G1 X161.878 Y101.334 E6.54668
G1 X134.111 Y136.813 E8.63680
G1 X132.426 Y138.322 E8.74174
G1 X130.324 Y139.156 E8.84669
G1 X129.035 Y139.286 E8.90678
G1 X105.435 Y139.286 E10.00165
G1 X103.208 Y138.889 E10.10659
G1 X102.076 Y138.342 E10.16492
G1 X56.935 Y110.786 E12.61848
G1 X55.916 Y110.015 E12.67775
G1 X47.353 Y102.093 E13.21898
G1 X46.919 Y101.651 E13.24769
G1 X38.021 Y91.670 E13.86804
G1 X37.134 Y90.366 E13.94122
G1 X36.241 Y88.629 E14.03184
G1 X35.652 Y86.940 E14.11479
G1 X35.514 Y85.964 E14.16053
G1 X35.475 Y85.156 E14.19805
G1 X35.475 Y69.073 E14.94421
G1 X35.489 Y68.651 E14.96378
G1 X35.514 Y68.265 E14.98174
G1 X35.624 Y67.429 E15.02085
G1 X35.708 Y67.007 E15.04082
G1 X35.926 Y66.193 E15.07988
G1 X36.064 Y65.787 E15.09979
G1 X36.387 Y65.008 E15.13890
G1 X36.577 Y64.623 E15.15882
G1 X36.998 Y63.893 E15.19792
G1 X37.237 Y63.536 E15.21786
G1 X37.749 Y62.868 E15.25691
G1 X38.021 Y62.559 E15.27600
G1 X39.134 Y61.554 E15.34557
G1 X39.978 Y60.954 E15.39359
G92 E0
G1 X106.131 Y132.144 F7800.000
G1 F1800
G1 X106.131 Y115.036 E0.79365
G1 X106.539 Y115.036 E0.81255
G1 X106.539 Y132.144 E1.60620
G1 X106.191 Y132.144 E1.62231
G92 E0
G1 X127.931 Y132.144 F7800.000
G1 F1800
G1 X127.931 Y125.283 E0.31829
G1 X128.339 Y125.281 E0.33718
G1 X128.339 Y132.144 E0.65557
G1 X127.991 Y132.144 E0.67168
G92 E0
G1 X127.931 Y121.896 F7800.000
G1 F1800
G1 X127.931 Y115.036 E0.31826
G1 X128.339 Y115.036 E0.33715
G1 X128.339 Y121.898 E0.65548
G1 X127.991 Y121.897 E0.67160
G92 E0
G1 X127.485 Y115.690 F7800.000
G1 F1800
G1 X106.985 Y115.690 E0.95105
G1 X106.985 Y131.490 E1.68405
G1 X127.485 Y131.490 E2.63510
G1 X127.485 Y124.839 E2.94367
G1 X128.336 Y124.835 E2.98316
G1 X128.517 Y124.767 E2.99211
G1 X128.785 Y124.537 E3.00850
G1 X128.785 Y132.590 E3.38210
G1 X105.685 Y132.590 E4.45378
G1 X105.685 Y114.590 E5.28884
G1 X128.785 Y114.590 E6.36051
G1 X128.785 Y122.640 E6.73399
G1 X128.508 Y122.408 E6.75076
G1 X128.327 Y122.344 E6.75966
G1 X127.485 Y122.341 E6.79873
G1 X127.485 Y115.750 E7.10450
G1 X127.468 Y115.290 F7800.000
G92 E0
G1 X128.785 Y122.967 F7800.000
G1 F1800
G1 X128.785 Y124.208 E0.05757
G92 E0
G1 X127.708 Y132.040 F7800.000
G1 F1800
G1 X106.762 Y132.040 E1.30626
G92 E0
G1 X106.762 Y115.140 F7800.000
G1 F1800
G1 X127.708 Y115.140 E1.30627
G92 E0
G1 X156.105 Y96.664 F7800.000
G1 F1800
G1 X52.427 Y96.664 E4.80990
G1 X52.427 Y91.657 E5.04220
G1 X156.105 Y91.657 E9.85210
G1 X156.105 Y96.604 E10.08162
G1 X156.552 Y97.111 F7800.000
G1 F1800
G1 X51.981 Y97.111 E14.93293
G1 X51.981 Y91.211 E15.20665
G1 X156.552 Y91.211 E20.05796
G1 X156.552 Y97.051 E20.32889
G1 X156.152 Y97.103 F7800.000
G1 X155.485 Y96.392 F7800.000
G1 F1800
G1 X155.833 Y96.044 E20.35173
G1 X155.833 Y95.412 E20.38113
G1 X154.853 Y96.392 E20.44555
G1 X154.220 Y96.392 E20.47496
G1 X155.833 Y94.779 E20.58097
G1 X155.833 Y94.147 E20.61037
G1 X153.588 Y96.392 E20.75797
G1 X152.955 Y96.392 E20.78737
G1 X155.833 Y93.514 E20.97655
G1 X155.833 Y92.882 E21.00596
G1 X152.323 Y96.392 E21.23673
G1 X151.690 Y96.392 E21.26613
G1 X155.833 Y92.249 E21.53849
G1 X155.833 Y91.930 E21.55333
G1 X155.519 Y91.930 E21.56790
G1 X151.057 Y96.392 E21.86124
G1 X150.425 Y96.392 E21.89064
G1 X154.887 Y91.930 E22.18399
G1 X154.254 Y91.930 E22.21339
G1 X149.792 Y96.392 E22.50674
G1 X149.160 Y96.392 E22.53614
G1 X153.622 Y91.930 E22.82949
G1 X152.989 Y91.930 E22.85889
G1 X148.527 Y96.392 E23.15224
G1 X147.895 Y96.392 E23.18164
G1 X152.357 Y91.930 E23.47498
G1 X151.724 Y91.930 E23.50439
G1 X147.262 Y96.392 E23.79773
G1 X146.630 Y96.392 E23.82714
G1 X151.092 Y91.930 E24.12048
G1 X150.459 Y91.930 E24.14989
G1 X145.997 Y96.392 E24.44323
G1 X145.365 Y96.392 E24.47264
G1 X149.826 Y91.930 E24.76598
G1 X149.194 Y91.930 E24.79539
G1 X144.732 Y96.392 E25.08873
G1 X144.100 Y96.392 E25.11814
G1 X148.561 Y91.930 E25.41148
G1 X147.929 Y91.930 E25.44089
G1 X143.467 Y96.392 E25.73423
G1 X142.834 Y96.392 E25.76364
G1 X147.296 Y91.930 E26.05698
G1 X146.664 Y91.930 E26.08639
G1 X142.202 Y96.392 E26.37973
G1 X141.569 Y96.392 E26.40914
G1 X146.031 Y91.930 E26.70248
G1 X145.399 Y91.930 E26.73188
G1 X140.937 Y96.392 E27.02523
G1 X140.304 Y96.392 E27.05463
G1 X144.766 Y91.930 E27.34798
G1 X144.134 Y91.930 E27.37738
G1 X139.672 Y96.392 E27.67073
G1 X139.039 Y96.392 E27.70013
G1 X143.501 Y91.930 E27.99348
G1 X142.868 Y91.930 E28.02288
G1 X138.407 Y96.392 E28.31623
G1 X137.774 Y96.392 E28.34563
G1 X142.236 Y91.930 E28.63897
G1 X141.603 Y91.930 E28.66838
G1 X137.142 Y96.392 E28.96172
G1 X136.509 Y96.392 E28.99113
G1 X140.971 Y91.930 E29.28447
G1 X140.338 Y91.930 E29.31388
G1 X135.876 Y96.392 E29.60722
G1 X135.244 Y96.392 E29.63663
G1 X139.706 Y91.930 E29.92997
G1 X139.073 Y91.930 E29.95938
G1 X134.611 Y96.392 E30.25272
G1 X133.979 Y96.392 E30.28213
G1 X138.441 Y91.930 E30.57547
G1 X137.808 Y91.930 E30.60488
G1 X133.346 Y96.392 E30.89822
G1 X132.714 Y96.392 E30.92763
G1 X137.176 Y91.930 E31.22097
G1 X136.543 Y91.930 E31.25038
G1 X132.081 Y96.392 E31.54372
G1 X131.449 Y96.392 E31.57312
G1 X135.910 Y91.930 E31.86647
G1 X135.278 Y91.930 E31.89587
G1 X130.816 Y96.392 E32.18922
G1 X130.184 Y96.392 E32.21862
G1 X134.645 Y91.930 E32.51197
G1 X134.013 Y91.930 E32.54137
G1 X129.551 Y96.392 E32.83472
G1 X128.919 Y96.392 E32.86412
G1 X133.380 Y91.930 E33.15746
G1 X132.748 Y91.930 E33.18687
G1 X128.286 Y96.392 E33.48021
G1 X127.653 Y96.392 E33.50962
G1 X132.115 Y91.930 E33.80296
G1 X131.483 Y91.930 E33.83237
G1 X127.021 Y96.392 E34.12571
G1 X126.388 Y96.392 E34.15512
G1 X130.850 Y91.930 E34.44846
G1 X130.218 Y91.930 E34.47787
G1 X125.756 Y96.392 E34.77121
G1 X125.123 Y96.392 E34.80062
G1 X129.585 Y91.930 E35.09396
G1 X128.953 Y91.930 E35.12337
G1 X124.491 Y96.392 E35.41671
G1 X123.858 Y96.392 E35.44612
G1 X128.320 Y91.930 E35.73946
G1 X127.687 Y91.930 E35.76887
G1 X123.226 Y96.392 E36.06221
G1 X122.593 Y96.392 E36.09161
G1 X127.055 Y91.930 E36.38496
G1 X126.422 Y91.930 E36.41436
G1 X121.961 Y96.392 E36.70771
G1 X121.328 Y96.392 E36.73711
G1 X125.790 Y91.930 E37.03046
G1 X125.157 Y91.930 E37.05986
G1 X120.695 Y96.392 E37.35321
G1 X120.063 Y96.392 E37.38261
G1 X124.525 Y91.930 E37.67596
G1 X123.892 Y91.930 E37.70536
G1 X119.430 Y96.392 E37.99871
G1 X118.798 Y96.392 E38.02811
G1 X123.260 Y91.930 E38.32145
G1 X122.627 Y91.930 E38.35086
G1 X118.165 Y96.392 E38.64420
G1 X117.533 Y96.392 E38.67361
G1 X121.995 Y91.930 E38.96695
G1 X121.362 Y91.930 E38.99636
G1 X116.900 Y96.392 E39.28970
G1 X116.268 Y96.392 E39.31911
G1 X120.729 Y91.930 E39.61245
G1 X120.097 Y91.930 E39.64186
G1 X115.635 Y96.392 E39.93520
G1 X115.003 Y96.392 E39.96461
G1 X119.464 Y91.930 E40.25795
G1 X118.832 Y91.930 E40.28736
G1 X114.370 Y96.392 E40.58070
G1 X113.737 Y96.392 E40.61011
G1 X118.199 Y91.930 E40.90345
G1 X117.567 Y91.930 E40.93286
G1 X113.105 Y96.392 E41.22620
G1 X112.472 Y96.392 E41.25560
G1 X116.934 Y91.930 E41.54895
G1 X116.302 Y91.930 E41.57835
G1 X111.840 Y96.392 E41.87170
G1 X111.207 Y96.392 E41.90110
G1 X115.669 Y91.930 E42.19445
G1 X115.037 Y91.930 E42.22385
G1 X110.575 Y96.392 E42.51720
G1 X109.942 Y96.392 E42.54660
G1 X114.404 Y91.930 E42.83995
G1 X113.772 Y91.930 E42.86935
G1 X109.310 Y96.392 E43.16269
G1 X108.677 Y96.392 E43.19210
G1 X113.139 Y91.930 E43.48544
G1 X112.506 Y91.930 E43.51485
G1 X108.045 Y96.392 E43.80819
G1 X107.412 Y96.392 E43.83760
G1 X111.874 Y91.930 E44.13094
G1 X111.241 Y91.930 E44.16035
G1 X106.780 Y96.392 E44.45369
G1 X106.147 Y96.392 E44.48310
G1 X110.609 Y91.930 E44.77644
G1 X109.976 Y91.930 E44.80585
G1 X105.514 Y96.392 E45.09919
G1 X104.882 Y96.392 E45.12860
G1 X109.344 Y91.930 E45.42194
G1 X108.711 Y91.930 E45.45135
G1 X104.249 Y96.392 E45.74469
G1 X103.617 Y96.392 E45.77410
G1 X108.079 Y91.930 E46.06744
G1 X107.446 Y91.930 E46.09684
G1 X102.984 Y96.392 E46.39019
G1 X102.352 Y96.392 E46.41959
G1 X106.814 Y91.930 E46.71294
G1 X106.181 Y91.930 E46.74234
G1 X101.719 Y96.392 E47.03569
G1 X101.087 Y96.392 E47.06509
G1 X105.548 Y91.930 E47.35844
G1 X104.916 Y91.930 E47.38784
G1 X100.454 Y96.392 E47.68119
G1 X99.822 Y96.392 E47.71059
G1 X104.283 Y91.930 E48.00393
G1 X103.651 Y91.930 E48.03334
G1 X99.189 Y96.392 E48.32668
G1 X98.556 Y96.392 E48.35609
G1 X103.018 Y91.930 E48.64943
G1 X102.386 Y91.930 E48.67884
G1 X97.924 Y96.392 E48.97218
G1 X97.291 Y96.392 E49.00159
G1 X101.753 Y91.930 E49.29493
G1 X101.121 Y91.930 E49.32434
G1 X96.659 Y96.392 E49.61768
G1 X96.026 Y96.392 E49.64709
G1 X100.488 Y91.930 E49.94043
G1 X99.856 Y91.930 E49.96984
G1 X95.394 Y96.392 E50.26318
G1 X94.761 Y96.392 E50.29259
G1 X99.223 Y91.930 E50.58593
G1 X98.590 Y91.930 E50.61534
G1 X94.129 Y96.392 E50.90868
G1 X93.496 Y96.392 E50.93808
G1 X97.958 Y91.930 E51.23143
G1 X97.325 Y91.930 E51.26083
G1 X92.864 Y96.392 E51.55418
G1 X92.231 Y96.392 E51.58358
G1 X96.693 Y91.930 E51.87693
G1 X96.060 Y91.930 E51.90633
G1 X91.598 Y96.392 E52.19968
G1 X90.966 Y96.392 E52.22908
G1 X95.428 Y91.930 E52.52243
G1 X94.795 Y91.930 E52.55183
G1 X90.333 Y96.392 E52.84517
G1 X89.701 Y96.392 E52.87458
G1 X94.163 Y91.930 E53.16792
G1 X93.530 Y91.930 E53.19733
G1 X89.068 Y96.392 E53.49067
G1 X88.436 Y96.392 E53.52008
G1 X92.898 Y91.930 E53.81342
G1 X92.265 Y91.930 E53.84283
G1 X87.803 Y96.392 E54.13617
G1 X87.171 Y96.392 E54.16558
G1 X91.633 Y91.930 E54.45892
G1 X91.000 Y91.930 E54.48833
G1 X86.538 Y96.392 E54.78167
G1 X85.906 Y96.392 E54.81108
G1 X90.367 Y91.930 E55.10442
G1 X89.735 Y91.930 E55.13383
G1 X85.273 Y96.392 E55.42717
G1 X84.641 Y96.392 E55.45658
G1 X89.102 Y91.930 E55.74992
G1 X88.470 Y91.930 E55.77932
G1 X84.008 Y96.392 E56.07267
G1 X83.375 Y96.392 E56.10207
G1 X87.837 Y91.930 E56.39542
G1 X87.205 Y91.930 E56.42482
G1 X82.743 Y96.392 E56.71817
G1 X82.110 Y96.392 E56.74757
G1 X86.572 Y91.930 E57.04092
G1 X85.940 Y91.930 E57.07032
G1 X81.478 Y96.392 E57.36367
G1 X80.845 Y96.392 E57.39307
G1 X85.307 Y91.930 E57.68641
G1 X84.675 Y91.930 E57.71582
G1 X80.213 Y96.392 E58.00916
G1 X79.580 Y96.392 E58.03857
G1 X84.042 Y91.930 E58.33191
G1 X83.409 Y91.930 E58.36132
G1 X78.948 Y96.392 E58.65466
G1 X78.315 Y96.392 E58.68407
G1 X82.777 Y91.930 E58.97741
G1 X82.144 Y91.930 E59.00682
G1 X77.683 Y96.392 E59.30016
G1 X77.050 Y96.392 E59.32957
G1 X81.512 Y91.930 E59.62291
G1 X80.879 Y91.930 E59.65232
G1 X76.417 Y96.392 E59.94566
G1 X75.785 Y96.392 E59.97507
G1 X80.247 Y91.930 E60.26841
G1 X79.614 Y91.930 E60.29782
G1 X75.152 Y96.392 E60.59116
G1 X74.520 Y96.392 E60.62056
G1 X78.982 Y91.930 E60.91391
G1 X78.349 Y91.930 E60.94331
G1 X73.887 Y96.392 E61.23666
G1 X73.255 Y96.392 E61.26606
G1 X77.717 Y91.930 E61.55941
G1 X77.084 Y91.930 E61.58881
G1 X72.622 Y96.392 E61.88216
G1 X71.990 Y96.392 E61.91156
G1 X76.452 Y91.930 E62.20490
G1 X75.819 Y91.930 E62.23431
G1 X71.357 Y96.392 E62.52765
G1 X70.725 Y96.392 E62.55706
G1 X75.186 Y91.930 E62.85040
G1 X74.554 Y91.930 E62.87981
G1 X70.092 Y96.392 E63.17315
G1 X69.460 Y96.392 E63.20256
G1 X73.921 Y91.930 E63.49590
G1 X73.289 Y91.930 E63.52531
G1 X68.827 Y96.392 E63.81865
G1 X68.194 Y96.392 E63.84806
G1 X72.656 Y91.930 E64.14140
G1 X72.024 Y91.930 E64.17081
G1 X67.562 Y96.392 E64.46415
G1 X66.929 Y96.392 E64.49356
G1 X71.391 Y91.930 E64.78690
G1 X70.759 Y91.930 E64.81631
G1 X66.297 Y96.392 E65.10965
G1 X65.664 Y96.392 E65.13905
G1 X70.126 Y91.930 E65.43240
G1 X69.494 Y91.930 E65.46180
G1 X65.032 Y96.392 E65.75515
G1 X64.399 Y96.392 E65.78455
G1 X68.861 Y91.930 E66.07790
G1 X68.228 Y91.930 E66.10730
G1 X63.767 Y96.392 E66.40065
G1 X63.134 Y96.392 E66.43005
G1 X67.596 Y91.930 E66.72339
G1 X66.963 Y91.930 E66.75280
G1 X62.502 Y96.392 E67.04614
G1 X61.869 Y96.392 E67.07555
G1 X66.331 Y91.930 E67.36889
G1 X65.698 Y91.930 E67.39830
G1 X61.236 Y96.392 E67.69164
G1 X60.604 Y96.392 E67.72105
G1 X65.066 Y91.930 E68.01439
G1 X64.433 Y91.930 E68.04380
G1 X59.971 Y96.392 E68.33714
G1 X59.339 Y96.392 E68.36655
G1 X63.801 Y91.930 E68.65989
G1 X63.168 Y91.930 E68.68930
G1 X58.706 Y96.392 E68.98264
G1 X58.074 Y96.392 E69.01205
G1 X62.536 Y91.930 E69.30539
G1 X61.903 Y91.930 E69.33480
G1 X57.441 Y96.392 E69.62814
G1 X56.809 Y96.392 E69.65755
G1 X61.270 Y91.930 E69.95089
G1 X60.638 Y91.930 E69.98029
G1 X56.176 Y96.392 E70.27364
G1 X55.544 Y96.392 E70.30304
G1 X60.005 Y91.930 E70.59639
G1 X59.373 Y91.930 E70.62579
G1 X54.911 Y96.392 E70.91914
G1 X54.278 Y96.392 E70.94854
G1 X58.740 Y91.930 E71.24189
G1 X58.108 Y91.930 E71.27129
G1 X53.646 Y96.392 E71.56463
G1 X53.013 Y96.392 E71.59404
G1 X57.475 Y91.930 E71.88738
G1 X56.843 Y91.930 E71.91679
G1 X52.700 Y96.072 E72.18915
G1 X52.700 Y95.440 E72.21855
G1 X56.210 Y91.930 E72.44933
G1 X55.578 Y91.930 E72.47873
G1 X52.700 Y94.807 E72.66792
G1 X52.700 Y94.175 E72.69732
G1 X54.945 Y91.930 E72.84492
G1 X54.313 Y91.930 E72.87433
G1 X52.700 Y93.542 E72.98034
G1 X52.700 Y92.910 E73.00975
G1 X53.680 Y91.930 E73.07417
G1 X53.047 Y91.930 E73.10358
G1 X52.700 Y92.277 E73.12640
G92 E0
G1 X54.495 Y78.679 F7800.000
G1 F1800
G1 X51.902 Y78.679 E0.12028
G1 X51.902 Y81.064 E0.23093
G1 X51.370 Y81.064 E0.25562
G1 X51.370 Y78.286 E0.38449
G1 X55.027 Y78.286 E0.55416
G1 X55.027 Y81.064 E0.68303
G1 X54.495 Y81.064 E0.70772
G1 X54.495 Y78.739 E0.81558
G1 X54.048 Y79.125 F7800.000
G1 F1800
G1 X52.348 Y79.125 E0.89445
G1 X52.348 Y81.356 E0.99797
G1 X52.195 Y81.510 E1.00805
G1 X50.923 Y81.510 E1.06703
G1 X50.923 Y77.839 E1.23732
G1 X55.473 Y77.839 E1.44840
G1 X55.473 Y81.510 E1.61868
G1 X54.202 Y81.510 E1.67767
G1 X54.048 Y81.356 E1.68775
G1 X54.048 Y79.185 E1.78848
G1 X54.040 Y78.725 F7800.000
G1 X54.761 Y78.509 F7800.000
G1 F1800
G1 X54.761 Y80.840 E1.79631
G92 E0
G1 X51.636 Y80.840 F7800.000
G1 F1800
G1 X51.636 Y78.509 E0.00783
G1 Z0.250 F7800.000
G92 E0
G1 X48.224 Y79.547 F7800.000
G1 F1800
G1 X48.171 Y79.547 E0.00241
G1 X48.171 Y82.686 E0.14802
G1 X48.224 Y82.695 E0.15047
G1 X48.224 Y79.547 E0.29651
G1 X49.116 Y79.547 E0.33792
G1 X49.116 Y82.856 E0.49141
G1 X50.009 Y83.017 E0.53349
G1 X50.009 Y82.643 E0.55083
G1 X50.902 Y82.643 E0.59224
G1 X50.902 Y83.177 E0.61703
G1 X49.116 Y83.980 F7800.000
G1 F1800
G1 X49.116 Y88.391 E0.82168
G1 X50.009 Y88.391 E0.86309
G1 X50.009 Y84.141 E1.06028
G1 X50.387 Y84.209 E1.07810
G1 X50.902 Y84.209 E1.10197
G1 X50.902 Y89.354 E1.34067
G1 X51.328 Y90.078 E1.37964
G1 X51.794 Y90.078 E1.40126
G1 X51.794 Y84.209 E1.67353
G1 X52.687 Y84.209 E1.71494
G1 X52.687 Y90.078 E1.98721
G1 X53.578 Y90.078 E2.02855
G1 X53.580 Y84.209 E2.30081
G1 X54.472 Y84.209 E2.34223
G1 X54.472 Y90.078 E2.61449
G1 X55.365 Y90.078 E2.65591
G1 X55.365 Y82.643 E3.00082
G1 X56.258 Y82.643 E3.04223
G1 X56.258 Y90.078 E3.38714
G1 X57.065 Y90.078 E3.42459
G1 X57.065 Y84.287 E3.69323
G1 X57.150 Y84.302 E3.69726
G1 X57.150 Y78.047 E3.98744
G1 X57.285 Y78.047 E3.99369
G1 X57.285 Y82.088 E4.18112
G1 X58.043 Y82.088 E4.21629
G1 X58.043 Y84.463 E4.32650
G1 X58.391 Y84.526 E4.34291
G1 X58.391 Y90.078 E4.60048
G1 X58.936 Y90.078 E4.62573
G1 X58.936 Y82.088 E4.99641
