; generated by Slic3r 1.3.0 on 2019-02-03 at 12:15:45

; external perimeters extrusion width = 0.44mm (1.19mm^3/s)
; perimeters extrusion width = 0.56mm (3.10mm^3/s)
; infill extrusion width = 0.50mm (5.48mm^3/s)
; solid infill extrusion width = 0.56mm (3.72mm^3/s)
; top infill extrusion width = 0.56mm (1.55mm^3/s)

M107
M104 S200 ; set temperature
G28 ; home all axes
M150 B180 G210
M150 B180 G210
G92 E0
G1 E6 F1800
; Filament gcode

M109 S200 ; set temperature and wait for it to be reached
G21 ; set units to millimeters
G90 ; use absolute coordinates
M82 ; use absolute distances for extrusion
G92 E0
G1 Z0.250 F7800.000
G1 E-1.20000 F2400.00000
G92 E0
G1 X83.292 Y89.747 F7800.000
G1 E1.20000 F2400.00000
G1 F1560
G1 X85.039 Y88.309 E1.30494
G1 X88.200 Y87.481 E1.45657
G1 X111.800 Y87.481 E2.55143
G1 X114.027 Y87.878 E2.65638
G1 X115.980 Y89.020 E2.76132
G1 X117.418 Y90.766 E2.86627
G1 X118.246 Y93.927 E3.01789
G1 X118.246 Y112.427 E3.87615
G1 X117.849 Y114.654 E3.98110
G1 X116.708 Y116.607 E4.08604
G1 X114.961 Y118.045 E4.19099
G1 X111.800 Y118.874 E4.34261
G1 X88.200 Y118.874 E5.43748
G1 X85.973 Y118.477 E5.54242
G1 X84.020 Y117.335 E5.64737
G1 X82.582 Y115.589 E5.75231
G1 X81.754 Y112.427 E5.90393
G1 X81.754 Y93.927 E6.76220
G1 X82.151 Y91.700 E6.86714
G1 X83.262 Y89.799 E6.96930
G1 E5.76930 F2400.00000
G92 E0
G1 X89.304 Y111.731 F7800.000
G1 E1.20000 F2400.00000
G1 F1560
G1 X88.896 Y111.731 E1.21890
G1 X88.896 Y94.624 E2.01255
G1 X89.304 Y94.624 E2.03144
G1 X89.304 Y111.671 E2.82231
G1 E1.62231 F2400.00000
G92 E0
G1 X110.696 Y111.731 F7800.000
G1 E1.20000 F2400.00000
G1 F1560
G1 X110.696 Y104.870 E1.51829
G1 X111.104 Y104.868 E1.53718
G1 X111.104 Y111.731 E1.85557
G1 X110.756 Y111.731 E1.87168
G1 E0.67168 F2400.00000
G92 E0
G1 X110.696 Y101.484 F7800.000
G1 E1.20000 F2400.00000
G1 F1560
G1 X110.696 Y94.624 E1.51826
G1 X111.104 Y94.624 E1.53715
G1 X111.104 Y101.485 E1.85548
G1 X110.756 Y101.484 E1.87159
G1 E0.67159 F2400.00000
G92 E0
G1 X110.250 Y95.277 F7800.000
G1 E1.20000 F2400.00000
G1 F1560
G1 X89.750 Y95.277 E2.15105
G1 X89.750 Y111.077 E2.88405
G1 X110.250 Y111.077 E3.83510
G1 X110.250 Y104.426 E4.14367
G1 X111.101 Y104.422 E4.18316
G1 X111.282 Y104.354 E4.19211
G1 X111.550 Y104.124 E4.20850
G1 X111.550 Y112.177 E4.58210
G1 X88.450 Y112.177 E5.65377
G1 X88.450 Y94.177 E6.48884
G1 X111.550 Y94.177 E7.56051
G1 X111.550 Y102.230 E7.93412
G1 X111.281 Y102.000 E7.95056
G1 X111.094 Y101.932 E7.95981
G1 X110.250 Y101.928 E7.99894
G1 X110.250 Y95.337 E8.30472
G1 X110.233 Y94.878 F7800.000
G1 E7.10472 F2400.00000
G92 E0
G1 X111.550 Y102.560 F7800.000
G1 E1.20000 F2400.00000
G1 F1560
G1 X111.550 Y103.795 E1.25731
G1 E0.05731 F2400.00000
G92 E0
G1 X110.473 Y111.627 F7800.000
G1 E1.20000 F2400.00000
G1 F1560
G1 X89.527 Y111.627 E2.50627
G1 E1.30627 F2400.00000
G92 E0
G1 X89.527 Y94.727 F7800.000
G1 E1.20000 F2400.00000
G1 F1560
G1 X110.473 Y94.727 E2.50627
M104 S195 ; set temperature
G1 Z0.450 F7800.000
G1 X89.323 Y94.604 F7800.000
G1 F360
G1 X89.323 Y111.750 E3.24346
G1 X88.877 Y111.750 E3.26263
G1 X88.877 Y94.604 E3.99982
G1 X89.263 Y94.604 E4.01641
G1 E2.81641 F2400.00000
G92 E0
G1 X110.677 Y104.850 F7800.000
G1 E1.20000 F2400.00000
G1 F360
G1 X111.123 Y104.847 E1.21917
G1 X111.123 Y111.750 E1.51595
G1 X110.677 Y111.750 E1.53512
G1 X110.677 Y104.910 E1.82921
G1 E0.62921 F2400.00000
G92 E0
G1 X110.677 Y101.502 F7800.000
G1 E1.20000 F2400.00000
G1 F360
G1 X110.677 Y94.604 E1.49658
G1 X111.123 Y94.604 E1.51575
G1 X111.123 Y101.504 E1.81240
G1 X110.737 Y101.503 E1.82899
G1 X110.220 Y95.307 F7800.000
G1 F900
G1 X89.780 Y95.307 E2.50386
G1 X89.780 Y111.047 E3.02356
G1 X110.220 Y111.047 E3.69843
G1 X110.220 Y104.396 E3.91804
G1 X111.103 Y104.390 E3.94720
G1 X111.275 Y104.322 E3.95329
G1 X111.580 Y104.051 E3.96679
G1 X111.580 Y112.207 E4.23609
G1 X88.420 Y112.207 E5.00077
G1 X88.420 Y94.147 E5.59706
G1 X111.580 Y94.147 E6.36174
G1 X111.580 Y102.293 E6.63071
G1 X111.251 Y102.018 E6.64487
G1 X111.079 Y101.961 E6.65086
G1 X110.220 Y101.958 E6.67923
G1 X110.220 Y95.367 E6.89684
G1 X110.203 Y94.908 F7800.000
G1 X111.550 Y102.555 F7800.000
G1 F900
G1 X111.550 Y103.783 E6.94349
G1 X110.449 Y111.627 F7800.000
G1 F1200
G1 X89.551 Y111.627 E8.09031
G1 X89.551 Y94.727 F7800.000
G1 F1200
G1 X110.449 Y94.727 E9.23713
G1 Z0.650 F7800.000
G1 X89.323 Y94.604 F7800.000
G1 F360
G1 X89.323 Y111.750 E9.97432
G1 X88.877 Y111.750 E9.99349
G1 X88.877 Y94.604 E10.73068
G1 X89.263 Y94.604 E10.74727
G1 E9.54727 F2400.00000
G92 E0
G1 X110.677 Y104.850 F7800.000
G1 E1.20000 F2400.00000
G1 F360
G1 X111.123 Y104.846 E1.21917
G1 X111.123 Y111.750 E1.51600
G1 X110.677 Y111.750 E1.53517
G1 X110.677 Y104.910 E1.82928
G1 E0.62928 F2400.00000
G92 E0
G1 X110.677 Y101.502 F7800.000
G1 E1.20000 F2400.00000
G1 F360
G1 X110.677 Y94.604 E1.49657
G1 X111.123 Y94.604 E1.51574
G1 X111.123 Y101.503 E1.81235
G1 X110.737 Y101.502 E1.82894
G1 X110.220 Y95.307 F7800.000
G1 F900
G1 X89.780 Y95.307 E2.50382
G1 X89.780 Y111.047 E3.02351
G1 X110.220 Y111.047 E3.69838
G1 X110.220 Y104.396 E3.91800
G1 X111.110 Y104.389 E3.94739
G1 X111.282 Y104.318 E3.95353
G1 X111.580 Y104.044 E3.96691
G1 X111.580 Y112.207 E4.23644
G1 X88.420 Y112.207 E5.00112
G1 X88.420 Y94.147 E5.59742
G1 X111.580 Y94.147 E6.36210
G1 X111.580 Y102.295 E6.63111
G1 X111.246 Y102.014 E6.64552
G1 X111.073 Y101.960 E6.65151
G1 X110.220 Y101.958 E6.67966
G1 X110.220 Y95.367 E6.89726
G1 X110.203 Y94.908 F7800.000
G1 X111.550 Y102.557 F7800.000
G1 F900
G1 X111.550 Y103.772 E6.94346
G1 X110.449 Y111.627 F7800.000
G1 F1200
G1 X89.551 Y111.627 E8.09028
G1 X89.551 Y94.727 F7800.000
G1 F1200
G1 X110.449 Y94.727 E9.23709
M106 S198.9
G1 Z0.850 F7800.000
G1 X89.323 Y94.604 F7800.000
G1 F360
G1 X89.323 Y111.750 E9.97429
G1 X88.877 Y111.750 E9.99345
G1 X88.877 Y94.604 E10.73065
G1 X89.263 Y94.604 E10.74724
G1 E9.54724 F2400.00000
G92 E0
G1 X110.677 Y104.849 F7800.000
G1 E1.20000 F2400.00000
G1 F360
G1 X111.123 Y104.845 E1.21917
G1 X111.123 Y111.750 E1.51605
G1 X110.677 Y111.750 E1.53521
G1 X110.677 Y104.909 E1.82936
G1 E0.62936 F2400.00000
G92 E0
G1 X110.677 Y101.502 F7800.000
G1 E1.20000 F2400.00000
G1 F360
G1 X110.677 Y94.604 E1.49655
G1 X111.123 Y94.604 E1.51572
G1 X111.123 Y101.502 E1.81231
G1 X110.737 Y101.502 E1.82890
G1 X110.220 Y95.307 F7800.000
G1 F900
G1 X89.780 Y95.307 E2.50377
G1 X89.780 Y111.047 E3.02346
G1 X110.220 Y111.047 E3.69834
G1 X110.220 Y104.395 E3.91796
G1 X111.117 Y104.388 E3.94758
G1 X111.289 Y104.313 E3.95378
G1 X111.580 Y104.037 E3.96703
G1 X111.580 Y112.207 E4.23679
G1 X88.420 Y112.207 E5.00148
G1 X88.420 Y94.147 E5.59777
G1 X111.580 Y94.147 E6.36245
G1 X111.580 Y102.296 E6.63151
G1 X111.240 Y102.011 E6.64617
G1 X111.066 Y101.959 E6.65217
G1 X110.220 Y101.958 E6.68009
G1 X110.220 Y95.367 E6.89769
G1 X110.203 Y94.908 F7800.000
G1 X111.550 Y102.558 F7800.000
G1 F900
G1 X111.550 Y103.762 E6.94342
G1 X110.449 Y111.627 F7800.000
G1 F1200
G1 X89.551 Y111.627 E8.09024
G1 X89.551 Y94.727 F7800.000
G1 F1200
G1 X110.449 Y94.727 E9.23706
G1 Z1.050 F7800.000
G1 X89.323 Y94.604 F7800.000
G1 F360
G1 X89.323 Y111.750 E9.97425
G1 X88.877 Y111.750 E9.99342
G1 X88.877 Y94.604 E10.73061
G1 X89.263 Y94.604 E10.74720
G1 E9.54720 F2400.00000
G92 E0
G1 X110.677 Y104.848 F7800.000
G1 E1.20000 F2400.00000
G1 F360
G1 X111.123 Y104.844 E1.21917
G1 X111.123 Y111.750 E1.51609
G1 X110.677 Y111.750 E1.53526
G1 X110.677 Y104.908 E1.82943
G1 E0.62943 F2400.00000
G92 E0
G1 X110.677 Y101.501 F7800.000
G1 E1.20000 F2400.00000
G1 F360
G1 X110.677 Y94.604 E1.49653
G1 X111.123 Y94.604 E1.51570
G1 X111.123 Y101.502 E1.81226
G1 X110.737 Y101.501 E1.82885
G1 X110.220 Y95.307 F7800.000
G1 F900
G1 X89.780 Y95.307 E2.50372
G1 X89.780 Y111.047 E3.02341
G1 X110.220 Y111.047 E3.69829
G1 X110.220 Y104.395 E3.91792
G1 X111.124 Y104.387 E3.94776
G1 X111.296 Y104.308 E3.95402
G1 X111.580 Y104.030 E3.96715
G1 X111.580 Y112.207 E4.23715
G1 X88.420 Y112.207 E5.00183
G1 X88.420 Y94.147 E5.59812
G1 X111.580 Y94.147 E6.36280
G1 X111.580 Y102.298 E6.63191
G1 X111.234 Y102.007 E6.64682
G1 X111.059 Y101.959 E6.65282
G1 X110.220 Y101.958 E6.68052
G1 X110.220 Y95.367 E6.89811
G1 X110.203 Y94.908 F7800.000
G1 X111.550 Y102.560 F7800.000
G1 F900
G1 X111.550 Y103.751 E6.94338
G1 X110.449 Y111.627 F7800.000
G1 F1200
G1 X89.551 Y111.627 E8.09020
G1 X89.551 Y94.727 F7800.000
G1 F1200
G1 X110.449 Y94.727 E9.23702
G1 Z1.250 F7800.000
G1 X89.323 Y94.604 F7800.000
G1 F360
G1 X89.323 Y111.750 E9.97421
G1 X88.877 Y111.750 E9.99338
G1 X88.877 Y94.604 E10.73057
G1 X89.263 Y94.604 E10.74716
G1 E9.54716 F2400.00000
G92 E0
G1 X110.677 Y104.848 F7800.000
G1 E1.20000 F2400.00000
G1 F360
G1 X111.123 Y104.844 E1.21917
G1 X111.123 Y111.750 E1.51612
G1 X110.677 Y111.750 E1.53529
G1 X110.677 Y104.908 E1.82947
G1 E0.62947 F2400.00000
G92 E0
G1 X110.677 Y101.501 F7800.000
G1 E1.20000 F2400.00000
G1 F360
G1 X110.677 Y94.604 E1.49652
G1 X111.123 Y94.604 E1.51569
G1 X111.123 Y101.501 E1.81223
G1 X110.737 Y101.501 E1.82882
G1 X110.220 Y95.307 F7800.000
G1 F900
G1 X89.780 Y95.307 E2.50370
G1 X89.780 Y111.047 E3.02339
G1 X110.220 Y111.047 E3.69826
G1 X110.220 Y104.395 E3.91790
G1 X111.127 Y104.386 E3.94786
G1 X111.300 Y104.306 E3.95415
G1 X111.580 Y104.026 E3.96722
G1 X111.580 Y112.207 E4.23733
G1 X88.420 Y112.207 E5.00201
G1 X88.420 Y94.147 E5.59831
G1 X111.580 Y94.147 E6.36299
G1 X111.580 Y102.298 E6.63212
G1 X111.231 Y102.005 E6.64717
G1 X111.055 Y101.958 E6.65317
G1 X110.220 Y101.957 E6.68075
G1 X110.220 Y95.367 E6.89834
G1 X110.203 Y94.908 F7800.000
G1 X111.550 Y102.560 F7800.000
G1 F900
G1 X111.550 Y103.745 E6.94336
G1 X110.449 Y111.627 F7800.000
G1 F1200
G1 X89.551 Y111.627 E8.09018
G1 X89.551 Y94.727 F7800.000
G1 F1200
G1 X110.449 Y94.727 E9.23700
G1 Z1.450 F7800.000
G1 X89.323 Y94.604 F7800.000
G1 F360
G1 X89.323 Y111.750 E9.97419
G1 X88.877 Y111.750 E9.99336
G1 X88.877 Y94.604 E10.73055
G1 X89.263 Y94.604 E10.74714
G1 E9.54714 F2400.00000
G92 E0
G1 X110.677 Y104.848 F7800.000
G1 E1.20000 F2400.00000
G1 F360
G1 X111.123 Y104.844 E1.21917
G1 X111.123 Y111.750 E1.51612
G1 X110.677 Y111.750 E1.53529
G1 X110.677 Y104.908 E1.82947
G1 E0.62947 F2400.00000
G92 E0
G1 X110.677 Y101.501 F7800.000
G1 E1.20000 F2400.00000
G1 F360
G1 X110.677 Y94.604 E1.49652
G1 X111.123 Y94.604 E1.51569
G1 X111.123 Y101.501 E1.81223
G1 X110.737 Y101.501 E1.82882
G1 X110.220 Y95.307 F7800.000
G1 F900
G1 X89.780 Y95.307 E2.50370
G1 X89.780 Y111.047 E3.02339
G1 X110.220 Y111.047 E3.69826
G1 X110.220 Y104.395 E3.91790
G1 X111.127 Y104.386 E3.94786
G1 X111.300 Y104.306 E3.95415
G1 X111.580 Y104.026 E3.96722
G1 X111.580 Y112.207 E4.23733
G1 X88.420 Y112.207 E5.00201
G1 X88.420 Y94.147 E5.59831
G1 X111.580 Y94.147 E6.36299
G1 X111.580 Y102.298 E6.63212
G1 X111.231 Y102.005 E6.64717
G1 X111.055 Y101.958 E6.65317
G1 X110.220 Y101.957 E6.68075
G1 X110.220 Y95.367 E6.89834
G1 X110.203 Y94.908 F7800.000
G1 X111.550 Y102.560 F7800.000
G1 F900
G1 X111.550 Y103.745 E6.94336
G1 X110.449 Y111.627 F7800.000
G1 F1200
G1 X89.551 Y111.627 E8.09018
G1 X89.551 Y94.727 F7800.000
G1 F1200
G1 X110.449 Y94.727 E9.23700
G1 Z1.650 F7800.000
G1 X89.323 Y94.604 F7800.000
G1 F360
G1 X89.323 Y111.750 E9.97419
G1 X88.877 Y111.750 E9.99336
G1 X88.877 Y94.604 E10.73055
G1 X89.263 Y94.604 E10.74714
G1 E9.54714 F2400.00000
G92 E0
G1 X110.677 Y104.848 F7800.000
G1 E1.20000 F2400.00000
G1 F360
G1 X111.123 Y104.844 E1.21917
G1 X111.123 Y111.750 E1.51612
G1 X110.677 Y111.750 E1.53529
G1 X110.677 Y104.908 E1.82947
G1 E0.62947 F2400.00000
G92 E0
G1 X110.677 Y101.501 F7800.000
G1 E1.20000 F2400.00000
G1 F360
G1 X110.677 Y94.604 E1.49652
G1 X111.123 Y94.604 E1.51569
G1 X111.123 Y101.501 E1.81223
G1 X110.737 Y101.501 E1.82882
G1 X110.220 Y95.307 F7800.000
G1 F900
G1 X89.780 Y95.307 E2.50370
G1 X89.780 Y111.047 E3.02339
G1 X110.220 Y111.047 E3.69826
G1 X110.220 Y104.395 E3.91790
G1 X111.127 Y104.386 E3.94786
G1 X111.300 Y104.306 E3.95415
G1 X111.580 Y104.026 E3.96722
G1 X111.580 Y112.207 E4.23733
G1 X88.420 Y112.207 E5.00201
G1 X88.420 Y94.147 E5.59831
G1 X111.580 Y94.147 E6.36299
G1 X111.580 Y102.298 E6.63212
G1 X111.231 Y102.005 E6.64717
G1 X111.055 Y101.958 E6.65317
G1 X110.220 Y101.957 E6.68075
G1 X110.220 Y95.367 E6.89834
G1 X110.203 Y94.908 F7800.000
G1 X111.550 Y102.560 F7800.000
G1 F900
G1 X111.551 Y103.744 E6.94328
G1 X110.449 Y111.627 F7800.000
G1 F1200
G1 X89.551 Y111.627 E8.09010
G1 X89.551 Y94.727 F7800.000
G1 F1200
G1 X110.449 Y94.727 E9.23691
G1 Z1.850 F7800.000
G1 X89.323 Y94.604 F7800.000
G1 F360
G1 X89.323 Y111.750 E9.97410
G1 X88.877 Y111.750 E9.99327
G1 X88.877 Y94.604 E10.73047
G1 X89.263 Y94.604 E10.74705
G1 E9.54705 F2400.00000
G92 E0
G1 X110.677 Y104.848 F7800.000
G1 E1.20000 F2400.00000
G1 F360
G1 X111.123 Y104.844 E1.21917
G1 X111.123 Y111.750 E1.51612
G1 X110.677 Y111.750 E1.53529
G1 X110.677 Y104.908 E1.82947
G1 E0.62947 F2400.00000
G92 E0
G1 X110.677 Y101.501 F7800.000
G1 E1.20000 F2400.00000
G1 F360
G1 X110.677 Y94.604 E1.49652
G1 X111.123 Y94.604 E1.51569
G1 X111.123 Y101.501 E1.81223
G1 X110.737 Y101.501 E1.82882
G1 X110.220 Y95.307 F7800.000
G1 F900
G1 X89.780 Y95.307 E2.50370
G1 X89.780 Y111.047 E3.02339
G1 X110.220 Y111.047 E3.69826
G1 X110.220 Y104.395 E3.91790
G1 X111.127 Y104.386 E3.94786
G1 X111.300 Y104.306 E3.95415
G1 X111.580 Y104.026 E3.96722
G1 X111.580 Y112.207 E4.23733
G1 X88.420 Y112.207 E5.00201
G1 X88.420 Y94.147 E5.59831
G1 X111.580 Y94.147 E6.36299
G1 X111.580 Y102.298 E6.63212
G1 X111.231 Y102.005 E6.64717
G1 X111.055 Y101.958 E6.65317
G1 X110.220 Y101.957 E6.68075
G1 X110.220 Y95.367 E6.89834
G1 X110.203 Y94.908 F7800.000
G1 X111.550 Y102.560 F7800.000
G1 F900
G1 X111.550 Y103.745 E6.94336
G1 X110.449 Y111.627 F7800.000
G1 F1200
G1 X89.551 Y111.627 E8.09018
G1 X89.551 Y94.727 F7800.000
G1 F1200
G1 X110.449 Y94.727 E9.23700
G1 Z2.050 F7800.000
G1 X89.323 Y94.604 F7800.000
G1 F360
G1 X89.323 Y111.750 E9.97419
G1 X88.877 Y111.750 E9.99336
G1 X88.877 Y94.604 E10.73055
G1 X89.263 Y94.604 E10.74714
G1 E9.54714 F2400.00000
G92 E0
G1 X110.677 Y104.848 F7800.000
G1 E1.20000 F2400.00000
G1 F360
G1 X111.123 Y104.844 E1.21917
G1 X111.123 Y111.750 E1.51612
G1 X110.677 Y111.750 E1.53529
G1 X110.677 Y104.908 E1.82947
G1 E0.62947 F2400.00000
G92 E0
G1 X110.677 Y101.501 F7800.000
G1 E1.20000 F2400.00000
G1 F360
G1 X110.677 Y94.604 E1.49652
G1 X111.123 Y94.604 E1.51569
G1 X111.123 Y101.501 E1.81223
G1 X110.737 Y101.501 E1.82882
G1 X110.220 Y95.307 F7800.000
G1 F900
G1 X89.780 Y95.307 E2.50370
G1 X89.780 Y111.047 E3.02339
G1 X110.220 Y111.047 E3.69826
G1 X110.220 Y104.395 E3.91790
G1 X111.127 Y104.386 E3.94786
G1 X111.300 Y104.306 E3.95415
G1 X111.580 Y104.026 E3.96722
G1 X111.580 Y112.207 E4.23733
G1 X88.420 Y112.207 E5.00201
G1 X88.420 Y94.147 E5.59831
G1 X111.580 Y94.147 E6.36299
G1 X111.580 Y102.298 E6.63212
G1 X111.231 Y102.005 E6.64717
G1 X111.055 Y101.958 E6.65317
G1 X110.220 Y101.957 E6.68075
G1 X110.220 Y95.367 E6.89834
G1 X110.203 Y94.908 F7800.000
G1 X111.550 Y102.560 F7800.000
G1 F900
G1 X111.550 Y103.745 E6.94336
G1 X110.449 Y111.627 F7800.000
G1 F1200
G1 X89.551 Y111.627 E8.09018
G1 X89.551 Y94.727 F7800.000
G1 F1200
G1 X110.449 Y94.727 E9.23700
G1 Z2.250 F7800.000
G1 X89.323 Y94.604 F7800.000
G1 F360
G1 X89.323 Y111.750 E9.97419
G1 X88.877 Y111.750 E9.99336
G1 X88.877 Y94.604 E10.73055
G1 X89.263 Y94.604 E10.74714
G1 E9.54714 F2400.00000
G92 E0
G1 X110.677 Y104.848 F7800.000
G1 E1.20000 F2400.00000
G1 F360
G1 X111.123 Y104.844 E1.21917
G1 X111.123 Y111.750 E1.51612
G1 X110.677 Y111.750 E1.53529
G1 X110.677 Y104.908 E1.82947
G1 E0.62947 F2400.00000
G92 E0
G1 X110.677 Y101.501 F7800.000
G1 E1.20000 F2400.00000
G1 F360
G1 X110.677 Y94.604 E1.49652
G1 X111.123 Y94.604 E1.51569
G1 X111.123 Y101.501 E1.81223
G1 X110.737 Y101.501 E1.82882
G1 X110.220 Y95.307 F7800.000
G1 F900
G1 X89.780 Y95.307 E2.50370
G1 X89.780 Y111.047 E3.02339
G1 X110.220 Y111.047 E3.69826
G1 X110.220 Y104.395 E3.91790
G1 X111.127 Y104.386 E3.94786
G1 X111.300 Y104.306 E3.95415
G1 X111.580 Y104.026 E3.96722
G1 X111.580 Y112.207 E4.23733
G1 X88.420 Y112.207 E5.00201
G1 X88.420 Y94.147 E5.59831
G1 X111.580 Y94.147 E6.36299
