; generated by Slic3r 1.3.1-dev (Build (Unknown revision)) on 2019-01-03 at 17:46:16

; external perimeters extrusion width = 0.55mm (4.37mm^3/s)
; perimeters extrusion width = 0.70mm (11.44mm^3/s)
; infill extrusion width = 0.62mm (13.45mm^3/s)
; solid infill extrusion width = 0.70mm (3.81mm^3/s)
; top infill extrusion width = 0.70mm (2.86mm^3/s)

M107
M104 S200 ; set temperature
G28 ; home all axes
G1 Z5 F5000 ; lift nozzle

; Filament gcode

M109 S200 ; set temperature and wait for it to be reached
G21 ; set units to millimeters
G90 ; use absolute coordinates
M82 ; use absolute distances for extrusion
G92 E0
G92 E0
G1 Z0.350 F7800.000
G1 E-2.00000 F2400.00000
G92 E0
G1 X91.939 Y88.251 F7800.000
G1 E2.00000 F2400.00000
G1 F1800
G1 X93.692 Y86.772 E2.07096
G1 X95.845 Y85.980 E2.14192
G1 X97.021 Y85.875 E2.17848
G1 X102.979 Y85.875 E2.36282
G1 X105.238 Y86.272 E2.43378
G1 X107.226 Y87.415 E2.50475
G1 X108.705 Y89.168 E2.57571
G1 X109.498 Y91.320 E2.64667
G1 X109.604 Y92.496 E2.68318
G1 X109.603 Y107.501 E3.14749
G1 X109.206 Y109.760 E3.21845
G1 X108.062 Y111.748 E3.28941
G1 X106.309 Y113.227 E3.36038
G1 X104.157 Y114.019 E3.43134
G1 X102.978 Y114.125 E3.46794
G1 X97.020 Y114.125 E3.65230
G1 X94.761 Y113.728 E3.72326
G1 X92.773 Y112.585 E3.79422
G1 X91.294 Y110.832 E3.86519
G1 X90.501 Y108.680 E3.93615
G1 X90.395 Y107.501 E3.97278
G1 X90.396 Y92.497 E4.43702
G1 X90.794 Y90.238 E4.50798
G1 X91.901 Y88.316 E4.57662
G1 E2.57662 F2400.00000
G92 E0
G1 X101.379 Y105.900 F7800.000
G1 E2.00000 F2400.00000
G1 F1800
G1 X98.620 Y105.900 E2.08537
G1 X98.621 Y94.100 E2.45049
G1 X101.380 Y94.100 E2.53587
G1 X101.379 Y105.825 E2.89867
G1 X102.004 Y106.525 F7800.000
G1 F1800
G1 X97.995 Y106.525 E3.02270
G1 X97.996 Y93.475 E3.42649
G1 X102.005 Y93.475 E3.55053
G1 X102.004 Y106.450 E3.95201
G1 X102.628 Y107.150 F7800.000
G1 F1800
G1 X97.370 Y107.150 E4.11470
G1 X97.371 Y92.850 E4.55716
G1 X102.629 Y92.850 E4.71986
G1 X102.628 Y107.075 E5.16000
G1 X102.195 Y106.900 F7800.000
G1 E3.16000 F2400.00000
G92 E0
G1 X100.511 Y105.518 F7800.000
G1 E2.00000 F2400.00000
G1 F1800
G1 X100.997 Y105.032 E2.02233
G1 X100.997 Y104.104 E2.05246
G1 X99.583 Y105.518 E2.11741
G1 X99.002 Y105.518 E2.13630
G1 X99.002 Y105.172 E2.14754
G1 X100.998 Y103.177 E2.23920
G1 X100.998 Y102.249 E2.26934
G1 X99.002 Y104.245 E2.36101
G1 X99.002 Y103.317 E2.39114
G1 X100.998 Y101.321 E2.48282
G1 X100.998 Y100.393 E2.51295
G1 X99.002 Y102.389 E2.60464
G1 X99.002 Y101.462 E2.63477
G1 X100.999 Y99.465 E2.72646
G1 X100.999 Y98.537 E2.75659
G1 X99.002 Y100.534 E2.84829
G1 X99.002 Y99.606 E2.87842
G1 X100.999 Y97.610 E2.97013
G1 X100.999 Y96.682 E3.00026
G1 X99.002 Y98.679 E3.09197
G1 X99.002 Y97.751 E3.12210
G1 X100.999 Y95.754 E3.21382
G1 X100.999 Y94.826 E3.24394
G1 X99.003 Y96.823 E3.33565
G1 X99.003 Y95.895 E3.36578
G1 X100.416 Y94.482 E3.43072
G1 X99.489 Y94.482 E3.46085
G1 X99.003 Y94.968 E3.48317
G1 Z0.650 F7800.000
G1 E1.48317 F2400.00000
G92 E0
G1 X103.563 Y106.029 F7800.000
G1 E2.00000 F2400.00000

G1 F3600
G1 X103.228 Y106.029 E2.00930

G1 F1640.66
G1 X96.770 Y106.029 E2.18352

G1 F3600
G1 X96.434 Y106.029 E2.19286
G1 X96.435 Y93.971 E2.52779
G1 X96.770 Y93.971 E2.53710

G1 F1640.66
G1 X103.230 Y93.971 E2.71136

G1 F3600
G1 X103.566 Y93.971 E2.72067
G1 X103.563 Y105.954 E3.05352

G1 X104.199 Y106.664 F7800.000

G1 F3600
G1 X103.228 Y106.664 E3.08048

G1 F1640.66
G1 X96.770 Y106.664 E3.25470

G1 F3600
G1 X95.799 Y106.664 E3.28169
G1 X95.800 Y93.336 E3.65193
G1 X96.771 Y93.336 E3.67890

G1 F1640.66
G1 X103.230 Y93.336 E3.85314

G1 F3600
G1 X104.201 Y93.336 E3.88013
G1 X104.199 Y106.589 E4.24829

G1 X104.759 Y107.225 F7800.000

G1 F3600
G1 X103.228 Y107.225 E4.29081

G1 F1800
G1 X96.770 Y107.225 E4.42392

G1 F3600
G1 X95.238 Y107.225 E4.46648
G1 X95.239 Y92.775 E4.86787
G1 X96.771 Y92.775 E4.91042

G1 F1800
G1 X103.229 Y92.775 E5.04353

G1 F3600
G1 X104.761 Y92.775 E5.08609
G1 X104.759 Y107.150 E5.48540

G1 E3.48540 F2400.00000
G92 E0
G1 X100.440 Y105.703 F7800.000
G1 E2.00000 F2400.00000

G1 F3600
G1 X100.066 Y105.169 E2.01916
G1 X100.066 Y104.185 E2.04806
G1 X101.129 Y105.703 E2.10250
G1 X101.818 Y105.703 E2.12274
G1 X100.066 Y103.201 E2.21246
G1 X100.066 Y102.218 E2.24136
G1 X102.507 Y105.703 E2.36636
G1 X103.158 Y105.703 E2.38548
G1 X103.158 Y105.649 E2.38707
G1 X100.066 Y101.234 E2.54541
G1 X100.066 Y100.250 E2.57431
G1 X103.158 Y104.665 E2.73266
G1 X103.158 Y103.682 E2.76155
G1 X100.066 Y99.267 E2.91990
G1 X100.067 Y98.284 E2.94878
G1 X103.158 Y102.699 E3.10711
G1 X103.158 Y101.715 E3.13600
G1 X100.068 Y97.301 E3.29431
G1 X100.068 Y96.318 E3.32318
G1 X103.159 Y100.732 E3.48146
G1 X103.159 Y99.748 E3.51035
G1 X100.069 Y95.336 E3.66861
G1 X100.069 Y94.351 E3.69753
G1 X103.159 Y98.765 E3.85582
G1 X103.159 Y97.782 E3.88471
G1 X100.719 Y94.297 E4.00969
G1 X101.408 Y94.297 E4.02992
G1 X103.159 Y96.798 E4.11963
G1 X103.159 Y95.815 E4.14852
G1 X102.097 Y94.297 E4.20295
G1 X102.785 Y94.297 E4.22319
G1 X103.160 Y94.831 E4.24235

G1 E2.24235 F2400.00000
G92 E0
G1 X99.706 Y95.855 F7800.000
G1 E2.00000 F2400.00000

G1 F3600
G1 X99.705 Y94.238 E2.06685
G1 X99.045 Y94.238 E2.09413
G1 X99.051 Y105.762 E2.57059
G1 X98.391 Y105.762 E2.59788
G1 X98.385 Y94.238 E3.07433
G1 X97.725 Y94.238 E3.10162
G1 X97.731 Y105.762 E3.57807
G1 X97.071 Y105.762 E3.60536
G1 X97.065 Y94.238 E4.08181

G1 Z0.950 F7800.000
G1 E2.08181 F2400.00000
G92 E0
G1 X104.880 Y106.029 F7800.000
G1 E2.00000 F2400.00000
G1 F3600
G1 X95.121 Y106.029 E2.26326
G1 X95.121 Y93.971 E2.58853
G1 X104.879 Y93.971 E2.85178
G1 X104.880 Y105.954 E3.17502
G1 X105.284 Y106.664 F7800.000
G1 F3600
G1 X94.713 Y106.664 E3.46020

G1 F3600
G1 X94.485 Y106.664 E3.46652
G1 X94.485 Y93.336 E3.83676
G1 X94.714 Y93.336 E3.84311

G1 F3600
G1 X105.287 Y93.336 E4.12833

G1 F3600
G1 X105.515 Y93.336 E4.13467
G1 X105.515 Y106.664 E4.50491
G1 X105.359 Y106.664 E4.50925

G1 X106.076 Y107.225 F7800.000

G1 F3600
G1 X105.284 Y107.225 E4.53124

G1 F1800
G1 X94.713 Y107.225 E4.74912

G1 F3600
G1 X93.925 Y107.225 E4.77101
G1 X93.925 Y92.775 E5.17239
G1 X94.714 Y92.775 E5.19432

G1 F1800
G1 X105.286 Y92.775 E5.41222

G1 F3600
G1 X106.075 Y92.775 E5.43413
G1 X106.076 Y107.150 E5.83344

G1 E3.83344 F2400.00000
G92 E0
G1 X103.997 Y105.640 F7800.000
G1 E2.00000 F2400.00000
G1 F900
G1 X104.491 Y105.146 E2.01926
G1 X104.492 Y104.228 E2.04455
G1 X103.079 Y105.640 E2.09956
G1 X102.161 Y105.640 E2.12484
G1 X104.492 Y103.310 E2.21561
G1 X104.492 Y102.392 E2.24089
G1 X101.244 Y105.640 E2.36742
G1 X100.326 Y105.640 E2.39270
G1 X104.492 Y101.474 E2.55497
G1 X104.492 Y100.556 E2.58026
G1 X99.408 Y105.640 E2.77829
G1 X98.490 Y105.640 E2.80357
G1 X104.492 Y99.639 E3.03735
G1 X104.492 Y98.721 E3.06263
G1 X97.572 Y105.640 E3.33217
G1 X96.655 Y105.640 E3.35745
G1 X104.492 Y97.803 E3.66274
G1 X104.492 Y96.885 E3.68803
G1 X95.737 Y105.640 E4.02907
G1 X95.509 Y105.640 E4.03533
G1 X95.509 Y104.950 E4.05435
G1 X104.492 Y95.967 E4.40424
G1 X104.492 Y95.050 E4.42951
G1 X95.509 Y104.032 E4.77938
G1 X95.509 Y103.114 E4.80466
G1 X104.264 Y94.360 E5.14568
G1 X103.346 Y94.360 E5.17096
G1 X95.509 Y102.196 E5.47622
G1 X95.509 Y101.279 E5.50150
G1 X102.429 Y94.360 E5.77102
G1 X101.511 Y94.360 E5.79629
G1 X95.509 Y100.361 E6.03006
G1 X95.509 Y99.443 E6.05534
G1 X100.593 Y94.360 E6.25335
G1 X99.675 Y94.360 E6.27863
G1 X95.509 Y98.525 E6.44090
G1 X95.509 Y97.608 E6.46618
G1 X98.757 Y94.360 E6.59269
G1 X97.840 Y94.360 E6.61797
G1 X95.509 Y96.690 E6.70873
G1 X95.509 Y95.772 E6.73401
G1 X96.922 Y94.360 E6.78903
G1 X96.004 Y94.360 E6.81431
G1 X95.510 Y94.854 E6.83357
M106 S214.2
G1 Z1.250 F7800.000
G1 E4.83357 F2400.00000
G92 E0
G1 X102.477 Y106.575 F7800.000
G1 E2.00000 F2400.00000
G1 F900
G1 X97.523 Y106.575 E2.10210
G1 X97.522 Y93.425 E2.37312
G1 X102.477 Y93.425 E2.47525
G1 X102.477 Y106.500 E2.74473
G1 X102.537 Y107.071 F7800.000
G1 X103.673 Y106.029 F7800.000
G1 F900
G1 X103.673 Y93.971 E3.07000
G1 X105.955 Y93.971 E3.13157
G1 X105.956 Y106.029 E3.45684
G1 X103.748 Y106.029 E3.51639
G1 X103.038 Y106.664 F7800.000
G1 F900
G1 X103.037 Y93.336 E3.87595
G1 X106.591 Y93.336 E3.97181
G1 X106.591 Y106.664 E4.33138
G1 X103.113 Y106.664 E4.42522
G1 E2.42522 F2400.00000
G92 E0
G1 X96.327 Y106.029 F7800.000
G1 E2.00000 F2400.00000
G1 F900
G1 X94.045 Y106.029 E2.06155
G1 X94.045 Y93.971 E2.38682
G1 X96.325 Y93.971 E2.44833
G1 X96.327 Y105.954 E2.77158
G1 X96.963 Y106.664 F7800.000
G1 F900
G1 X93.410 Y106.664 E2.86742
G1 X93.410 Y93.336 E3.22699
G1 X96.961 Y93.336 E3.32279
G1 X96.963 Y106.589 E3.68034
G1 E1.68034 F2400.00000
G92 E0
G1 X92.849 Y107.225 F7800.000
G1 E2.00000 F2400.00000
M106 S255

G1 F3600
G1 X92.849 Y92.775 E2.40139
G1 X93.400 Y92.775 E2.41669
M106 S214.2

G1 F1800
G1 X106.600 Y92.775 E2.68876
M106 S255

G1 F3600
G1 X107.151 Y92.775 E2.70406
G1 X107.153 Y97.158 E2.82581
G1 X107.152 Y107.225 E3.10545
G1 X106.601 Y107.225 E3.12075
M106 S214.2

G1 F1800
G1 X93.400 Y107.225 E3.39282
M106 S255

G1 F3600
G1 X92.924 Y107.225 E3.40604
M106 S214.2

G1 E1.40604 F2400.00000
G92 E0
G1 X94.928 Y105.640 F7800.000
G1 E2.00000 F2400.00000
G1 F900
G1 X94.434 Y105.146 E2.01904
G1 X94.434 Y104.238 E2.04374
G1 X95.836 Y105.640 E2.09773
G1 X95.938 Y105.640 E2.10053
G1 X95.938 Y104.836 E2.12243
G1 X94.434 Y103.331 E2.18037
G1 X94.434 Y102.424 E2.20508
G1 X95.938 Y103.928 E2.26302
G1 X95.938 Y103.021 E2.28772
G1 X94.434 Y101.517 E2.34566
G1 X94.434 Y100.609 E2.37036
G1 X95.938 Y102.114 E2.42829
G1 X95.938 Y101.206 E2.45300
G1 X94.434 Y99.702 E2.51092
G1 X94.434 Y98.795 E2.53563
G1 X95.938 Y100.299 E2.59355
G1 X95.938 Y99.391 E2.61826
G1 X94.434 Y97.887 E2.67618
G1 X94.434 Y96.980 E2.70088
G1 X95.938 Y98.484 E2.75880
G1 X95.937 Y97.576 E2.78350
G1 X94.434 Y96.073 E2.84141
G1 X94.434 Y95.165 E2.86612
G1 X95.937 Y96.669 E2.92403
G1 X95.937 Y95.762 E2.94873
G1 X94.535 Y94.360 E3.00272
G1 X95.443 Y94.360 E3.02743
G1 X95.937 Y94.854 E3.04647
G1 E1.04647 F2400.00000
G92 E0
G1 X97.241 Y93.100 F7800.000
G1 E2.00000 F2400.00000
G1 F1200
G1 X102.757 Y93.100 E2.00585
G1 E0.00585 F2400.00000
G92 E0
G1 X105.567 Y94.854 F7800.000
G1 E2.00000 F2400.00000
G1 F900
G1 X105.072 Y94.360 E2.01905
G1 X104.165 Y94.360 E2.04376
G1 X105.567 Y95.762 E2.09777
G1 X105.568 Y96.670 E2.12249
G1 X104.061 Y95.163 E2.18051
G1 X104.061 Y96.071 E2.20522
G1 X105.568 Y97.577 E2.26325
G1 X105.568 Y98.485 E2.28796
G1 X104.061 Y96.978 E2.34598
G1 X104.061 Y97.886 E2.37070
G1 X105.568 Y99.392 E2.42872
G1 X105.568 Y100.300 E2.45343
G1 X104.061 Y98.793 E2.51145
G1 X104.061 Y99.701 E2.53616
G1 X105.568 Y101.207 E2.59417
G1 X105.568 Y102.114 E2.61888
G1 X104.061 Y100.608 E2.67689
G1 X104.061 Y101.516 E2.70161
G1 X105.567 Y103.022 E2.75961
G1 X105.567 Y103.929 E2.78432
G1 X104.061 Y102.423 E2.84232
G1 X104.061 Y103.331 E2.86704
G1 X105.567 Y104.837 E2.92504
G1 X105.567 Y105.640 E2.94692
G1 X105.464 Y105.640 E2.94975
G1 X104.061 Y104.238 E3.00375
G1 X104.062 Y105.146 E3.02846
G1 X104.556 Y105.640 E3.04750
G1 E1.04750 F2400.00000
G92 E0
G1 X102.757 Y106.900 F7800.000
G1 E2.00000 F2400.00000
G1 F1200
G1 X97.243 Y106.900 E2.00585
M106 S229.5
G1 Z1.550 F7800.000
G1 X95.309 Y106.575 F7800.000
G1 F1800
G1 X95.308 Y93.425 E2.27688
G1 X104.690 Y93.425 E2.47024
G1 X104.691 Y106.575 E2.74126
G1 X95.384 Y106.575 E2.93307
G1 X94.834 Y106.731 F7800.000
G1 E0.93307 F2400.00000
G92 E0
G1 X105.887 Y106.029 F7800.000
G1 E2.00000 F2400.00000
G1 F900
G1 X105.886 Y93.971 E2.32527
G1 X106.883 Y93.971 E2.35218
G1 X106.883 Y106.029 E2.67745
G1 X105.962 Y106.029 E2.70229
G1 X105.251 Y106.664 F7800.000
G1 F900
G1 X105.250 Y93.336 E3.06185
G1 X107.519 Y93.336 E3.12305
G1 X107.518 Y106.664 E3.48261
G1 X105.326 Y106.664 E3.54174
G1 E1.54174 F2400.00000
G92 E0
G1 X94.113 Y106.029 F7800.000
G1 E2.00000 F2400.00000
G1 F900
G1 X93.117 Y106.029 E2.02687
G1 X93.117 Y93.971 E2.35214
G1 X94.112 Y93.971 E2.37897
G1 X94.113 Y105.954 E2.70221
G1 X94.749 Y106.664 F7800.000
G1 F900
G1 X92.481 Y106.664 E2.76338
G1 X92.482 Y93.336 E3.12294
G1 X94.747 Y93.336 E3.18406
G1 X94.749 Y106.589 E3.54160
G1 E1.54160 F2400.00000
G92 E0
G1 X91.921 Y107.225 F7800.000
G1 E2.00000 F2400.00000
M106 S255

G1 F3600
G1 X91.921 Y92.775 E2.40139
G1 X92.324 Y92.775 E2.41258
M106 S229.5

G1 F1800
G1 X107.676 Y92.775 E2.72899
M106 S255

G1 F3600
G1 X108.079 Y92.775 E2.74019
G1 X108.080 Y95.236 E2.80856
G1 X108.079 Y107.225 E3.14158
G1 X107.677 Y107.225 E3.15275
M106 S229.5

G1 F1800
G1 X92.324 Y107.225 E3.46917
M106 S255

G1 F3600
G1 X91.996 Y107.225 E3.47829
M106 S229.5

G1 E1.47829 F2400.00000
G92 E0
G1 X93.615 Y105.711 F7800.000
G1 E2.00000 F2400.00000
G1 F1200
G1 X93.614 Y94.289 E2.14349
G1 X95.028 Y93.100 F7800.000
G1 F1200
G1 X104.970 Y93.100 E2.15404
G1 X106.385 Y94.289 F7800.000
G1 F1200
G1 X106.385 Y105.711 E2.29838
G1 X104.971 Y106.900 F7800.000
G1 F1200
G1 X95.029 Y106.900 E2.30893
M106 S232.05
G1 Z1.850 F7800.000
G1 X93.898 Y106.575 F7800.000
G1 F1800
G1 X93.899 Y93.425 E2.57996
G1 X106.103 Y93.425 E2.83149
G1 X106.102 Y106.575 E3.10252
G1 X93.973 Y106.575 E3.35250
G1 X93.417 Y106.710 F7800.000
G1 X92.702 Y106.029 F7800.000
G1 F900
G1 X92.290 Y106.029 E3.36361
G1 X92.289 Y93.971 E3.68888
G1 X92.702 Y93.971 E3.70002
G1 X92.702 Y105.954 E4.02327
G1 X93.337 Y106.664 F7800.000
G1 F900
G1 X91.654 Y106.664 E4.06867
G1 X91.654 Y93.336 E4.42824
G1 X93.338 Y93.336 E4.47367
G1 X93.337 Y106.589 E4.83121
G1 E2.83121 F2400.00000
G92 E0
G1 X107.298 Y106.029 F7800.000
G1 E2.00000 F2400.00000
G1 F900
G1 X107.299 Y93.971 E2.32527
G1 X107.711 Y93.971 E2.33637
G1 X107.710 Y106.029 E2.66164
G1 X107.373 Y106.029 E2.67074
G1 X106.662 Y106.664 F7800.000
G1 F900
G1 X106.664 Y93.336 E3.03030
G1 X108.346 Y93.336 E3.07569
G1 X108.346 Y106.664 E3.43525
G1 X106.737 Y106.664 E3.47865
G1 E1.47865 F2400.00000
G92 E0
G1 X108.907 Y107.225 F7800.000
G1 E2.00000 F2400.00000
M106 S255

G1 F3600
G1 X108.604 Y107.225 E2.00842
M106 S232.05

G1 F1800
G1 X91.396 Y107.225 E2.36308
M106 S255

G1 F3600
G1 X91.094 Y107.225 E2.37147
G1 X91.093 Y92.775 E2.77286
G1 X91.396 Y92.775 E2.78127
M106 S232.05

G1 F1800
G1 X108.604 Y92.775 E3.13594
M106 S255

G1 F3600
G1 X108.907 Y92.775 E3.14433
G1 X108.907 Y107.150 E3.54364
M106 S232.05

G1 E1.54364 F2400.00000
G92 E0
G1 X106.382 Y106.900 F7800.000
G1 E2.00000 F2400.00000
G1 F1200
G1 X93.618 Y106.900 E2.01354
G1 E0.01354 F2400.00000
G92 E0
G1 X93.618 Y93.100 F7800.000
G1 E2.00000 F2400.00000
G1 F1200
G1 X106.383 Y93.100 E2.01354
M106 S237.15
G1 Z2.150 F7800.000
G1 E0.01354 F2400.00000
G92 E0
G1 X107.220 Y106.575 F7800.000
G1 E2.00000 F2400.00000
G1 F1800
G1 X92.780 Y106.575 E2.29759
G1 X92.780 Y93.425 E2.56862
G1 X107.220 Y93.425 E2.86622
G1 X107.220 Y106.500 E3.13570
G1 X107.356 Y107.056 F7800.000
G1 X92.220 Y106.664 F7800.000
G1 F900
G1 X90.909 Y106.664 E3.17105
G1 X90.910 Y93.336 E3.53062
G1 X92.220 Y93.336 E3.56596
G1 X92.220 Y106.589 E3.92350
G1 X107.780 Y106.664 F7800.000
G1 F900
G1 X107.780 Y93.336 E4.28306
G1 X109.091 Y93.336 E4.31841
G1 X109.090 Y106.664 E4.67797
G1 X107.855 Y106.664 E4.71130
G1 X109.432 Y107.225 F7800.000
G1 F1800
G1 X90.569 Y107.225 E5.10007
M106 S255

G1 F3600
G1 X90.349 Y107.225 E5.10618
G1 X90.349 Y92.775 E5.50756
G1 X90.568 Y92.775 E5.51365
M106 S237.15

G1 F1800
G1 X109.432 Y92.775 E5.90243
M106 S255

G1 F3600
G1 X109.651 Y92.775 E5.90854
G1 X109.651 Y107.225 E6.30992
G1 X109.507 Y107.225 E6.31393
M106 S237.15

G1 X108.435 Y106.347 F7800.000
G1 F1200
G1 X108.436 Y93.653 E6.64304
G1 X107.500 Y93.100 F7800.000
G1 F1200
G1 X92.500 Y93.100 E6.65896
G1 X91.565 Y93.653 F7800.000
G1 F1200
G1 X91.565 Y106.347 E6.98779
G1 X92.500 Y106.900 F7800.000
G1 F1200
G1 X107.500 Y106.900 E7.00370
G1 Z2.450 F7800.000
G1 X108.170 Y106.575 F7800.000
G1 F1800
G1 X91.830 Y106.575 E7.34048
G1 X91.830 Y93.425 E7.61151
G1 X108.171 Y93.425 E7.94830
G1 X108.170 Y106.500 E8.21778
G1 X108.317 Y107.053 F7800.000
G1 X91.269 Y106.664 F7800.000
G1 F900
G1 X90.222 Y106.664 E8.24602
G1 X90.222 Y93.336 E8.60558
G1 X91.270 Y93.336 E8.63383
G1 X91.269 Y106.589 E8.99137
G1 X108.731 Y106.664 F7800.000
G1 F900
G1 X108.732 Y93.336 E9.35094
G1 X109.778 Y93.336 E9.37915
