; generated by Slic3r 1.3.1-dev (Build (Unknown revision)) on 2018-12-29 at 19:07:09

; external perimeters extrusion width = 0.55mm (4.37mm^3/s)
; perimeters extrusion width = 0.70mm (11.44mm^3/s)
; infill extrusion width = 0.62mm (13.45mm^3/s)
; solid infill extrusion width = 0.70mm (3.81mm^3/s)
; top infill extrusion width = 0.70mm (2.86mm^3/s)

M107
M104 S200 ; set temperature
G28 ; home all axes
G1 Z5 F5000 ; lift nozzle

; Filament gcode

M109 S200 ; set temperature and wait for it to be reached
G21 ; set units to millimeters
G90 ; use absolute coordinates
M82 ; use absolute distances for extrusion
G92 E0
G92 E0
G1 Z0.350 F7800.000
G1 E-2.00000 F2400.00000
G92 E0
G1 X42.100 Y91.122 F7800.000
G1 E2.00000 F2400.00000
G1 F1800
G1 X44.252 Y90.330 E2.07096
G1 X45.432 Y90.224 E2.10761
G1 X150.502 Y90.224 E5.35864
G1 X152.761 Y90.621 E5.42960
G1 X154.749 Y91.764 E5.50056
G1 X156.228 Y93.517 E5.57153
G1 X157.021 Y95.669 E5.64249
G1 X157.127 Y96.849 E5.67914
G1 X157.127 Y103.249 E5.87716
G1 X156.730 Y105.507 E5.94813
G1 X155.587 Y107.496 E6.01909
G1 X153.834 Y108.975 E6.09005
G1 X151.682 Y109.768 E6.16101
G1 X150.502 Y109.873 E6.19766
G1 X45.432 Y109.873 E9.44869
G1 X43.173 Y109.476 E9.51965
G1 X41.185 Y108.333 E9.59062
G1 X39.706 Y106.580 E9.66158
G1 X38.913 Y104.428 E9.73254
G1 X38.807 Y103.249 E9.76919
G1 X38.807 Y96.849 E9.96722
G1 X39.204 Y94.590 E10.03818
G1 X40.347 Y92.602 E10.10914
G1 X42.042 Y91.171 E10.17778
G1 E8.17778 F2400.00000
G92 E0
G1 X47.031 Y101.649 F7800.000
G1 E2.00000 F2400.00000
G1 F1800
G1 X47.031 Y98.448 E2.09903
G1 X148.903 Y98.448 E5.25105
G1 X148.903 Y101.649 E5.35008
G1 X47.106 Y101.649 E8.49979
G1 X46.407 Y102.274 F7800.000
G1 F1800
G1 X46.407 Y97.823 E8.63748
G1 X149.527 Y97.823 E11.82818
G1 X149.527 Y102.274 E11.96588
G1 X46.482 Y102.274 E15.15425
G1 X45.782 Y102.899 F7800.000
G1 F1800
G1 X45.782 Y97.199 E15.33062
G1 X150.152 Y97.199 E18.55999
G1 X150.152 Y102.899 E18.73635
G1 X45.857 Y102.899 E21.96340
G1 X46.024 Y102.461 F7800.000
G1 E19.96340 F2400.00000
G92 E0
G1 X47.899 Y98.830 F7800.000
G1 E2.00000 F2400.00000
G1 F1800
G1 X47.413 Y99.316 E2.02129
G1 X47.413 Y100.201 E2.04866
G1 X48.784 Y98.830 E2.10867
G1 X49.668 Y98.830 E2.13604
G1 X47.413 Y101.085 E2.23476
G1 X47.413 Y101.267 E2.24040
G1 X48.115 Y101.267 E2.26214
G1 X50.552 Y98.830 E2.36882
G1 X51.436 Y98.830 E2.39620
G1 X49.000 Y101.267 E2.50289
G1 X49.884 Y101.267 E2.53026
G1 X52.321 Y98.830 E2.63695
G1 X53.205 Y98.830 E2.66433
G1 X50.768 Y101.267 E2.77102
G1 X51.652 Y101.267 E2.79839
G1 X54.089 Y98.830 E2.90508
G1 X54.973 Y98.830 E2.93246
G1 X52.537 Y101.267 E3.03914
G1 X53.421 Y101.267 E3.06652
G1 X55.858 Y98.830 E3.17321
G1 X56.742 Y98.830 E3.20058
G1 X54.305 Y101.267 E3.30727
G1 X55.189 Y101.267 E3.33465
G1 X57.626 Y98.830 E3.44134
G1 X58.510 Y98.830 E3.46871
G1 X56.074 Y101.267 E3.57540
G1 X56.958 Y101.267 E3.60278
G1 X59.395 Y98.830 E3.70946
G1 X60.279 Y98.830 E3.73684
G1 X57.842 Y101.267 E3.84353
G1 X58.726 Y101.267 E3.87090
G1 X61.163 Y98.830 E3.97759
G1 X62.047 Y98.830 E4.00497
G1 X59.611 Y101.267 E4.11166
G1 X60.495 Y101.267 E4.13903
G1 X62.932 Y98.830 E4.24572
G1 X63.816 Y98.830 E4.27310
G1 X61.379 Y101.267 E4.37979
G1 X62.263 Y101.267 E4.40716
G1 X64.700 Y98.830 E4.51385
G1 X65.584 Y98.830 E4.54123
G1 X63.147 Y101.267 E4.64791
G1 X64.032 Y101.267 E4.67529
G1 X66.468 Y98.830 E4.78198
G1 X67.353 Y98.830 E4.80935
G1 X64.916 Y101.267 E4.91604
G1 X65.800 Y101.267 E4.94342
G1 X68.237 Y98.830 E5.05011
G1 X69.121 Y98.830 E5.07748
G1 X66.684 Y101.267 E5.18417
G1 X67.569 Y101.267 E5.21155
G1 X70.005 Y98.830 E5.31823
G1 X70.890 Y98.830 E5.34561
G1 X68.453 Y101.267 E5.45230
G1 X69.337 Y101.267 E5.47967
G1 X71.774 Y98.830 E5.58636
G1 X72.658 Y98.830 E5.61374
G1 X70.221 Y101.267 E5.72043
G1 X71.106 Y101.267 E5.74780
G1 X73.542 Y98.830 E5.85449
G1 X74.427 Y98.830 E5.88187
G1 X71.990 Y101.267 E5.98856
G1 X72.874 Y101.267 E6.01593
G1 X75.311 Y98.830 E6.12262
G1 X76.195 Y98.830 E6.14999
G1 X73.758 Y101.267 E6.25668
G1 X74.643 Y101.267 E6.28406
G1 X77.079 Y98.830 E6.39075
G1 X77.964 Y98.830 E6.41812
G1 X75.527 Y101.267 E6.52481
G1 X76.411 Y101.267 E6.55219
G1 X78.848 Y98.830 E6.65888
G1 X79.732 Y98.830 E6.68625
G1 X77.295 Y101.267 E6.79294
G1 X78.180 Y101.267 E6.82032
G1 X80.616 Y98.830 E6.92700
G1 X81.501 Y98.830 E6.95438
G1 X79.064 Y101.267 E7.06107
G1 X79.948 Y101.267 E7.08844
G1 X82.385 Y98.830 E7.19513
G1 X83.269 Y98.830 E7.22251
G1 X80.832 Y101.267 E7.32920
G1 X81.717 Y101.267 E7.35657
G1 X84.153 Y98.830 E7.46326
G1 X85.038 Y98.830 E7.49064
G1 X82.601 Y101.267 E7.59732
G1 X83.485 Y101.267 E7.62470
G1 X85.922 Y98.830 E7.73139
G1 X86.806 Y98.830 E7.75876
G1 X84.369 Y101.267 E7.86545
G1 X85.254 Y101.267 E7.89283
G1 X87.690 Y98.830 E7.99952
G1 X88.574 Y98.830 E8.02689
G1 X86.138 Y101.267 E8.13358
G1 X87.022 Y101.267 E8.16096
G1 X89.459 Y98.830 E8.26764
G1 X90.343 Y98.830 E8.29502
G1 X87.906 Y101.267 E8.40171
G1 X88.790 Y101.267 E8.42908
G1 X91.227 Y98.830 E8.53577
G1 X92.111 Y98.830 E8.56315
G1 X89.675 Y101.267 E8.66984
G1 X90.559 Y101.267 E8.69721
G1 X92.996 Y98.830 E8.80390
G1 X93.880 Y98.830 E8.83128
G1 X91.443 Y101.267 E8.93796
G1 X92.327 Y101.267 E8.96534
G1 X94.764 Y98.830 E9.07203
G1 X95.648 Y98.830 E9.09940
G1 X93.212 Y101.267 E9.20609
G1 X94.096 Y101.267 E9.23347
G1 X96.533 Y98.830 E9.34016
G1 X97.417 Y98.830 E9.36753
G1 X94.980 Y101.267 E9.47422
G1 X95.864 Y101.267 E9.50160
G1 X98.301 Y98.830 E9.60829
G1 X99.185 Y98.830 E9.63566
G1 X96.749 Y101.267 E9.74235
G1 X97.633 Y101.267 E9.76972
G1 X100.070 Y98.830 E9.87641
G1 X100.954 Y98.830 E9.90379
G1 X98.517 Y101.267 E10.01048
G1 X99.401 Y101.267 E10.03785
G1 X101.838 Y98.830 E10.14454
G1 X102.722 Y98.830 E10.17192
G1 X100.286 Y101.267 E10.27861
G1 X101.170 Y101.267 E10.30598
G1 X103.607 Y98.830 E10.41267
G1 X104.491 Y98.830 E10.44005
G1 X102.054 Y101.267 E10.54673
G1 X102.938 Y101.267 E10.57411
G1 X105.375 Y98.830 E10.68080
G1 X106.259 Y98.830 E10.70817
G1 X103.823 Y101.267 E10.81486
G1 X104.707 Y101.267 E10.84224
G1 X107.144 Y98.830 E10.94893
G1 X108.028 Y98.830 E10.97630
G1 X105.591 Y101.267 E11.08299
G1 X106.475 Y101.267 E11.11037
G1 X108.912 Y98.830 E11.21705
G1 X109.796 Y98.830 E11.24443
G1 X107.359 Y101.267 E11.35112
G1 X108.244 Y101.267 E11.37849
G1 X110.680 Y98.830 E11.48518
G1 X111.565 Y98.830 E11.51256
G1 X109.128 Y101.267 E11.61925
G1 X110.012 Y101.267 E11.64662
G1 X112.449 Y98.830 E11.75331
G1 X113.333 Y98.830 E11.78069
G1 X110.896 Y101.267 E11.88737
G1 X111.781 Y101.267 E11.91475
G1 X114.217 Y98.830 E12.02144
G1 X115.102 Y98.830 E12.04881
G1 X112.665 Y101.267 E12.15550
G1 X113.549 Y101.267 E12.18288
G1 X115.986 Y98.830 E12.28957
G1 X116.870 Y98.830 E12.31694
G1 X114.433 Y101.267 E12.42363
G1 X115.318 Y101.267 E12.45101
G1 X117.754 Y98.830 E12.55770
G1 X118.639 Y98.830 E12.58507
G1 X116.202 Y101.267 E12.69176
G1 X117.086 Y101.267 E12.71913
G1 X119.523 Y98.830 E12.82582
G1 X120.407 Y98.830 E12.85320
G1 X117.970 Y101.267 E12.95989
G1 X118.855 Y101.267 E12.98726
G1 X121.291 Y98.830 E13.09395
G1 X122.176 Y98.830 E13.12133
G1 X119.739 Y101.267 E13.22802
G1 X120.623 Y101.267 E13.25539
G1 X123.060 Y98.830 E13.36208
G1 X123.944 Y98.830 E13.38946
G1 X121.507 Y101.267 E13.49614
G1 X122.392 Y101.267 E13.52352
G1 X124.828 Y98.830 E13.63021
G1 X125.713 Y98.830 E13.65758
G1 X123.276 Y101.267 E13.76427
G1 X124.160 Y101.267 E13.79165
G1 X126.597 Y98.830 E13.89834
G1 X127.481 Y98.830 E13.92571
G1 X125.044 Y101.267 E14.03240
G1 X125.929 Y101.267 E14.05978
G1 X128.365 Y98.830 E14.16646
G1 X129.250 Y98.830 E14.19384
G1 X126.813 Y101.267 E14.30053
G1 X127.697 Y101.267 E14.32790
G1 X130.134 Y98.830 E14.43459
G1 X131.018 Y98.830 E14.46197
G1 X128.581 Y101.267 E14.56866
G1 X129.465 Y101.267 E14.59603
G1 X131.902 Y98.830 E14.70272
G1 X132.786 Y98.830 E14.73010
G1 X130.350 Y101.267 E14.83678
G1 X131.234 Y101.267 E14.86416
G1 X133.671 Y98.830 E14.97085
G1 X134.555 Y98.830 E14.99822
G1 X132.118 Y101.267 E15.10491
G1 X133.002 Y101.267 E15.13229
G1 X135.439 Y98.830 E15.23898
G1 X136.323 Y98.830 E15.26635
G1 X133.887 Y101.267 E15.37304
G1 X134.771 Y101.267 E15.40042
G1 X137.208 Y98.830 E15.50711
G1 X138.092 Y98.830 E15.53448
G1 X135.655 Y101.267 E15.64117
G1 X136.539 Y101.267 E15.66854
G1 X138.976 Y98.830 E15.77523
G1 X139.860 Y98.830 E15.80261
G1 X137.424 Y101.267 E15.90930
G1 X138.308 Y101.267 E15.93667
G1 X140.745 Y98.830 E16.04336
G1 X141.629 Y98.830 E16.07074
G1 X139.192 Y101.267 E16.17743
G1 X140.076 Y101.267 E16.20480
G1 X142.513 Y98.830 E16.31149
G1 X143.397 Y98.830 E16.33886
G1 X140.961 Y101.267 E16.44555
G1 X141.845 Y101.267 E16.47293
G1 X144.282 Y98.830 E16.57962
G1 X145.166 Y98.830 E16.60699
G1 X142.729 Y101.267 E16.71368
G1 X143.613 Y101.267 E16.74106
G1 X146.050 Y98.830 E16.84775
G1 X146.934 Y98.830 E16.87512
G1 X144.498 Y101.267 E16.98181
G1 X145.382 Y101.267 E17.00919
G1 X147.819 Y98.830 E17.11587
G1 X148.521 Y98.830 E17.13761
G1 X148.521 Y99.012 E17.14325
G1 X146.266 Y101.267 E17.24197
G1 X147.150 Y101.267 E17.26934
G1 X148.521 Y99.897 E17.32934
G1 X148.521 Y100.781 E17.35672
G1 X148.035 Y101.267 E17.37801
G1 Z0.650 F7800.000
G1 X46.903 Y101.777 F7800.000
G1 F3600
G1 X46.903 Y98.320 E17.47128
G1 X149.031 Y98.320 E20.22634
G1 X149.031 Y101.777 E20.31961
G1 X46.978 Y101.777 E23.07266
G1 X46.267 Y102.413 F7800.000
G1 F3600
G1 X46.267 Y97.684 E23.20022
G1 X149.667 Y97.684 E25.98958
G1 X149.667 Y102.413 E26.11715
G1 X46.342 Y102.413 E28.90448
G1 X45.707 Y102.974 F7800.000
G1 F1800
G1 X45.707 Y97.124 E29.02505
G1 X150.227 Y97.124 E31.17926
G1 X150.227 Y102.974 E31.29983
G1 X45.782 Y102.974 E33.45249
G1 X45.949 Y102.536 F7800.000
G1 X47.291 Y100.894 F7800.000
G1 F1200
G1 X47.786 Y101.389 E33.47147
G1 X48.690 Y101.389 E33.49599
G1 X47.291 Y99.990 E33.54964
G1 X47.291 Y99.087 E33.57416
G1 X49.594 Y101.389 E33.66248
G1 X50.498 Y101.389 E33.68700
G1 X47.817 Y98.708 E33.78984
G1 X48.721 Y98.708 E33.81436
G1 X51.401 Y101.389 E33.91720
G1 X52.305 Y101.389 E33.94171
G1 X49.625 Y98.708 E34.04455
G1 X50.528 Y98.708 E34.06907
G1 X53.209 Y101.389 E34.17191
G1 X54.113 Y101.389 E34.19643
G1 X51.432 Y98.708 E34.29927
G1 X52.336 Y98.708 E34.32379
G1 X55.017 Y101.389 E34.42662
G1 X55.921 Y101.389 E34.45114
G1 X53.240 Y98.708 E34.55398
G1 X54.144 Y98.708 E34.57850
G1 X56.825 Y101.389 E34.68134
G1 X57.729 Y101.389 E34.70586
G1 X55.048 Y98.708 E34.80870
G1 X55.952 Y98.708 E34.83321
G1 X58.633 Y101.389 E34.93605
G1 X59.536 Y101.389 E34.96057
G1 X56.856 Y98.708 E35.06341
G1 X57.760 Y98.708 E35.08793
G1 X60.440 Y101.389 E35.19077
G1 X61.344 Y101.389 E35.21529
G1 X58.663 Y98.708 E35.31812
G1 X59.567 Y98.708 E35.34264
G1 X62.248 Y101.389 E35.44548
G1 X63.152 Y101.389 E35.47000
G1 X60.471 Y98.708 E35.57284
G1 X61.375 Y98.708 E35.59736
G1 X64.056 Y101.389 E35.70020
G1 X64.960 Y101.389 E35.72471
G1 X62.279 Y98.708 E35.82755
G1 X63.183 Y98.708 E35.85207
G1 X65.864 Y101.389 E35.95491
G1 X66.767 Y101.389 E35.97943
G1 X64.087 Y98.708 E36.08227
G1 X64.991 Y98.708 E36.10679
G1 X67.671 Y101.389 E36.20962
G1 X68.575 Y101.389 E36.23414
G1 X65.895 Y98.708 E36.33698
G1 X66.798 Y98.708 E36.36150
G1 X69.479 Y101.389 E36.46434
G1 X70.383 Y101.389 E36.48886
G1 X67.702 Y98.708 E36.59170
G1 X68.606 Y98.708 E36.61621
G1 X71.287 Y101.389 E36.71905
G1 X72.191 Y101.389 E36.74357
G1 X69.510 Y98.708 E36.84641
G1 X70.414 Y98.708 E36.87093
G1 X73.095 Y101.389 E36.97377
G1 X73.999 Y101.389 E36.99829
G1 X71.318 Y98.708 E37.10112
G1 X72.222 Y98.708 E37.12564
G1 X74.902 Y101.389 E37.22848
G1 X75.806 Y101.389 E37.25300
G1 X73.126 Y98.708 E37.35584
G1 X74.030 Y98.708 E37.38036
G1 X76.710 Y101.389 E37.48320
G1 X77.614 Y101.389 E37.50771
G1 X74.933 Y98.708 E37.61055
G1 X75.837 Y98.708 E37.63507
G1 X78.518 Y101.389 E37.73791
G1 X79.422 Y101.389 E37.76243
G1 X76.741 Y98.708 E37.86527
G1 X77.645 Y98.708 E37.88979
G1 X80.326 Y101.389 E37.99262
G1 X81.230 Y101.389 E38.01714
G1 X78.549 Y98.708 E38.11998
G1 X79.453 Y98.708 E38.14450
G1 X82.134 Y101.389 E38.24734
G1 X83.037 Y101.389 E38.27186
G1 X80.357 Y98.708 E38.37470
G1 X81.261 Y98.708 E38.39921
G1 X83.941 Y101.389 E38.50205
G1 X84.845 Y101.389 E38.52657
G1 X82.164 Y98.708 E38.62941
G1 X83.068 Y98.708 E38.65393
G1 X85.749 Y101.389 E38.75677
G1 X86.653 Y101.389 E38.78129
G1 X83.972 Y98.708 E38.88412
G1 X84.876 Y98.708 E38.90864
G1 X87.557 Y101.389 E39.01148
G1 X88.461 Y101.389 E39.03600
G1 X85.780 Y98.708 E39.13884
G1 X86.684 Y98.708 E39.16336
G1 X89.365 Y101.389 E39.26620
G1 X90.269 Y101.389 E39.29072
G1 X87.588 Y98.708 E39.39355
G1 X88.492 Y98.708 E39.41807
G1 X91.172 Y101.389 E39.52091
G1 X92.076 Y101.389 E39.54543
G1 X89.396 Y98.708 E39.64827
G1 X90.299 Y98.708 E39.67279
G1 X92.980 Y101.389 E39.77563
G1 X93.884 Y101.389 E39.80014
G1 X91.203 Y98.708 E39.90298
G1 X92.107 Y98.708 E39.92750
G1 X94.788 Y101.389 E40.03034
G1 X95.692 Y101.389 E40.05486
G1 X93.011 Y98.708 E40.15770
G1 X93.915 Y98.708 E40.18222
G1 X96.596 Y101.389 E40.28505
G1 X97.500 Y101.389 E40.30957
G1 X94.819 Y98.708 E40.41241
G1 X95.723 Y98.708 E40.43693
G1 X98.404 Y101.389 E40.53977
G1 X99.307 Y101.389 E40.56429
G1 X96.627 Y98.708 E40.66713
G1 X97.531 Y98.708 E40.69164
G1 X100.211 Y101.389 E40.79448
G1 X101.115 Y101.389 E40.81900
G1 X98.434 Y98.708 E40.92184
G1 X99.338 Y98.708 E40.94636
G1 X102.019 Y101.389 E41.04920
G1 X102.923 Y101.389 E41.07372
G1 X100.242 Y98.708 E41.17655
G1 X101.146 Y98.708 E41.20107
G1 X103.827 Y101.389 E41.30391
G1 X104.731 Y101.389 E41.32843
G1 X102.050 Y98.708 E41.43127
G1 X102.954 Y98.708 E41.45579
G1 X105.635 Y101.389 E41.55863
G1 X106.538 Y101.389 E41.58315
G1 X103.858 Y98.708 E41.68598
G1 X104.762 Y98.708 E41.71050
G1 X107.442 Y101.389 E41.81334
G1 X108.346 Y101.389 E41.83786
G1 X105.666 Y98.708 E41.94070
G1 X106.569 Y98.708 E41.96522
G1 X109.250 Y101.389 E42.06806
G1 X110.154 Y101.389 E42.09257
G1 X107.473 Y98.708 E42.19541
G1 X108.377 Y98.708 E42.21993
G1 X111.058 Y101.389 E42.32277
G1 X111.962 Y101.389 E42.34729
G1 X109.281 Y98.708 E42.45013
G1 X110.185 Y98.708 E42.47465
G1 X112.866 Y101.389 E42.57748
G1 X113.770 Y101.389 E42.60200
G1 X111.089 Y98.708 E42.70484
G1 X111.993 Y98.708 E42.72936
G1 X114.673 Y101.389 E42.83220
G1 X115.577 Y101.389 E42.85672
G1 X112.897 Y98.708 E42.95956
G1 X113.801 Y98.708 E42.98408
G1 X116.481 Y101.389 E43.08691
G1 X117.385 Y101.389 E43.11143
G1 X114.704 Y98.708 E43.21427
G1 X115.608 Y98.708 E43.23879
G1 X118.289 Y101.389 E43.34163
G1 X119.193 Y101.389 E43.36615
G1 X116.512 Y98.708 E43.46899
G1 X117.416 Y98.708 E43.49350
G1 X120.097 Y101.389 E43.59634
G1 X121.001 Y101.389 E43.62086
G1 X118.320 Y98.708 E43.72370
G1 X119.224 Y98.708 E43.74822
G1 X121.905 Y101.389 E43.85106
G1 X122.808 Y101.389 E43.87558
G1 X120.128 Y98.708 E43.97841
G1 X121.032 Y98.708 E44.00293
G1 X123.712 Y101.389 E44.10577
G1 X124.616 Y101.389 E44.13029
G1 X121.935 Y98.708 E44.23313
G1 X122.839 Y98.708 E44.25765
G1 X125.520 Y101.389 E44.36049
G1 X126.424 Y101.389 E44.38501
G1 X123.743 Y98.708 E44.48784
G1 X124.647 Y98.708 E44.51236
G1 X127.328 Y101.389 E44.61520
G1 X128.232 Y101.389 E44.63972
G1 X125.551 Y98.708 E44.74256
G1 X126.455 Y98.708 E44.76708
G1 X129.136 Y101.389 E44.86992
G1 X130.040 Y101.389 E44.89443
G1 X127.359 Y98.708 E44.99727
G1 X128.263 Y98.708 E45.02179
G1 X130.943 Y101.389 E45.12463
G1 X131.847 Y101.389 E45.14915
G1 X129.167 Y98.708 E45.25199
G1 X130.070 Y98.708 E45.27651
G1 X132.751 Y101.389 E45.37935
G1 X133.655 Y101.389 E45.40386
G1 X130.974 Y98.708 E45.50670
G1 X131.878 Y98.708 E45.53122
G1 X134.559 Y101.389 E45.63406
G1 X135.463 Y101.389 E45.65858
G1 X132.782 Y98.708 E45.76142
G1 X133.686 Y98.708 E45.78594
G1 X136.367 Y101.389 E45.88877
G1 X137.271 Y101.389 E45.91329
G1 X134.590 Y98.708 E46.01613
G1 X135.494 Y98.708 E46.04065
G1 X138.174 Y101.389 E46.14349
G1 X139.078 Y101.389 E46.16801
G1 X136.398 Y98.708 E46.27085
G1 X137.302 Y98.708 E46.29536
G1 X139.982 Y101.389 E46.39820
G1 X140.886 Y101.389 E46.42272
G1 X138.205 Y98.708 E46.52556
G1 X139.109 Y98.708 E46.55008
G1 X141.790 Y101.389 E46.65292
G1 X142.694 Y101.389 E46.67744
G1 X140.013 Y98.708 E46.78028
G1 X140.917 Y98.708 E46.80479
G1 X143.598 Y101.389 E46.90763
G1 X144.502 Y101.389 E46.93215
