; generated by Slic3r 1.3.0 on 2019-01-09 at 12:08:38

; external perimeters extrusion width = 0.44mm (2.18mm^3/s)
; perimeters extrusion width = 0.56mm (5.69mm^3/s)
; infill extrusion width = 0.50mm (7.31mm^3/s)
; solid infill extrusion width = 0.56mm (2.07mm^3/s)
; top infill extrusion width = 0.56mm (1.55mm^3/s)
; support material extrusion width = 0.44mm (4.76mm^3/s)

M107
M104 S200 ; set temperature
G28
; Filament gcode

M109 S200 ; set temperature and wait for it to be reached
G21 ; set units to millimeters
G90 ; use absolute coordinates
M82 ; use absolute distances for extrusion
G92 E0
G1 Z0.250 F7800.000
G1 E-2.00000 F2400.00000
G92 E0
G1 X81.702 Y90.168 F7800.000
G1 E2.00000 F2400.00000
G1 F1800
G1 X83.448 Y88.730 E2.10494
G1 X86.610 Y87.902 E2.25657
G1 X113.390 Y87.902 E3.49901
G1 X115.617 Y88.299 E3.60395
G1 X117.570 Y89.441 E3.70890
G1 X119.008 Y91.187 E3.81384
G1 X119.837 Y94.348 E3.96546
G1 X119.825 Y94.829 E3.98778
G1 X119.235 Y104.637 E4.44364
G1 X118.705 Y106.837 E4.54858
G1 X117.448 Y108.717 E4.65353
G1 X115.618 Y110.048 E4.75847
G1 X114.101 Y110.564 E4.83281
G1 X103.694 Y112.708 E5.32576
G1 X102.413 Y112.841 E5.38553
G1 X97.657 Y112.855 E5.60618
G1 X96.331 Y112.722 E5.66798
G1 X85.894 Y110.563 E6.16243
G1 X83.794 Y109.723 E6.26737
G1 X82.113 Y108.209 E6.37232
G1 X81.058 Y106.208 E6.47726
G1 X80.765 Y104.637 E6.55138
G1 X80.175 Y94.829 E7.00723
G1 X80.163 Y94.348 E7.02956
G1 X80.560 Y92.121 E7.13450
G1 X81.672 Y90.220 E7.23666
G1 E5.23666 F2400.00000
G92 E0
G1 X112.104 Y103.554 F7800.000
G1 E2.00000 F2400.00000
G1 F1800
G1 X87.896 Y103.554 E3.12304
G1 X87.896 Y96.146 E3.46669
G1 X112.104 Y96.146 E4.58973
G1 X112.104 Y103.494 E4.93059
G1 X112.550 Y104.000 F7800.000
G1 F1800
G1 X87.450 Y104.000 E6.09504
G1 X87.450 Y95.700 E6.48010
G1 X112.550 Y95.700 E7.64456
G1 X112.550 Y103.940 E8.02683
G1 X112.152 Y103.957 F7800.000
G1 X111.484 Y103.281 F7800.000
G1 F1800
G1 X111.831 Y102.934 E8.04974
G1 X111.831 Y102.299 E8.07935
G1 X110.849 Y103.281 E8.14412
G1 X110.214 Y103.281 E8.17373
G1 X111.831 Y101.664 E8.28037
G1 X111.831 Y101.030 E8.30997
G1 X109.580 Y103.281 E8.45848
G1 X108.945 Y103.281 E8.48808
G1 X111.831 Y100.395 E8.67845
G1 X111.831 Y99.760 E8.70806
G1 X108.310 Y103.281 E8.94030
G1 X107.676 Y103.281 E8.96990
G1 X111.831 Y99.126 E9.24400
G1 X111.831 Y98.491 E9.27361
G1 X107.041 Y103.281 E9.58958
G1 X106.406 Y103.281 E9.61918
G1 X111.831 Y97.856 E9.97701
G1 X111.831 Y97.222 E10.00662
G1 X105.772 Y103.281 E10.40632
G1 X105.137 Y103.281 E10.43592
G1 X111.831 Y96.587 E10.87748
G1 X111.831 Y96.419 E10.88532
G1 X111.364 Y96.419 E10.90709
G1 X104.502 Y103.281 E11.35973
G1 X103.868 Y103.281 E11.38933
G1 X110.730 Y96.419 E11.84197
G1 X110.095 Y96.419 E11.87158
G1 X103.233 Y103.281 E12.32422
G1 X102.598 Y103.281 E12.35382
G1 X109.460 Y96.419 E12.80646
G1 X108.826 Y96.419 E12.83607
G1 X101.964 Y103.281 E13.28871
G1 X101.329 Y103.281 E13.31831
G1 X108.191 Y96.419 E13.77095
G1 X107.556 Y96.419 E13.80056
G1 X100.694 Y103.281 E14.25320
G1 X100.060 Y103.281 E14.28280
G1 X106.922 Y96.419 E14.73544
G1 X106.287 Y96.419 E14.76505
G1 X99.425 Y103.281 E15.21769
G1 X98.790 Y103.281 E15.24729
G1 X105.652 Y96.419 E15.69993
G1 X105.018 Y96.419 E15.72954
G1 X98.156 Y103.281 E16.18218
G1 X97.521 Y103.281 E16.21178
G1 X104.383 Y96.419 E16.66442
G1 X103.748 Y96.419 E16.69403
G1 X96.886 Y103.281 E17.14667
G1 X96.252 Y103.281 E17.17627
G1 X103.114 Y96.419 E17.62891
G1 X102.479 Y96.419 E17.65852
G1 X95.617 Y103.281 E18.11116
G1 X94.982 Y103.281 E18.14076
G1 X101.844 Y96.419 E18.59340
G1 X101.210 Y96.419 E18.62301
G1 X94.348 Y103.281 E19.07565
G1 X93.713 Y103.281 E19.10525
G1 X100.575 Y96.419 E19.55789
G1 X99.940 Y96.419 E19.58750
G1 X93.078 Y103.281 E20.04014
G1 X92.444 Y103.281 E20.06974
G1 X99.306 Y96.419 E20.52238
G1 X98.671 Y96.419 E20.55199
G1 X91.809 Y103.281 E21.00463
G1 X91.174 Y103.281 E21.03423
G1 X98.036 Y96.419 E21.48687
G1 X97.402 Y96.419 E21.51648
G1 X90.540 Y103.281 E21.96912
G1 X89.905 Y103.281 E21.99872
G1 X96.767 Y96.419 E22.45136
G1 X96.132 Y96.419 E22.48097
G1 X89.271 Y103.281 E22.93361
G1 X88.636 Y103.281 E22.96321
G1 X95.498 Y96.419 E23.41585
G1 X94.863 Y96.419 E23.44545
G1 X88.169 Y103.113 E23.88702
G1 X88.169 Y102.478 E23.91662
G1 X94.228 Y96.419 E24.31632
G1 X93.594 Y96.419 E24.34593
G1 X88.169 Y101.844 E24.70376
G1 X88.169 Y101.209 E24.73337
G1 X92.959 Y96.419 E25.04934
G1 X92.324 Y96.419 E25.07894
G1 X88.169 Y100.574 E25.35304
G1 X88.169 Y99.940 E25.38265
G1 X91.690 Y96.419 E25.61489
G1 X91.055 Y96.419 E25.64449
G1 X88.169 Y99.305 E25.83486
G1 X88.169 Y98.670 E25.86447
G1 X90.420 Y96.419 E26.01297
G1 X89.786 Y96.419 E26.04258
G1 X88.169 Y98.036 E26.14922
G1 X88.169 Y97.401 E26.17882
G1 X89.151 Y96.419 E26.24360
G1 X88.516 Y96.419 E26.27320
G1 X88.169 Y96.766 E26.29611
G1 Z0.250 F7800.000
G1 E24.29611 F2400.00000
G92 E0
G1 X86.610 Y94.348 F7800.000
G1 E2.00000 F2400.00000
G1 F1800
G1 X86.610 Y94.442 E2.00434
G1 X87.502 Y94.442 E2.04576
G1 X87.502 Y94.348 E2.05010
G1 X88.395 Y94.348 E2.09152
G1 X88.395 Y94.442 E2.09586
G1 X89.288 Y94.442 E2.13728
G1 X89.288 Y94.348 E2.14162
G1 X90.180 Y94.348 E2.18304
G1 X90.180 Y94.442 E2.18738
G1 E0.18738 F2400.00000
G92 E0
G1 X92.858 Y94.348 F7800.000
G1 E2.00000 F2400.00000
G1 F1800
G1 X92.393 Y94.348 E2.02158
G1 X92.393 Y94.442 E2.02593
G1 X92.858 Y94.442 E2.04751
G1 X92.858 Y94.348 E2.05186
G1 X93.751 Y94.348 E2.09327
G1 X93.751 Y94.442 E2.09762
G1 X94.644 Y94.442 E2.13903
G1 X94.644 Y94.348 E2.14337
G1 X95.537 Y94.348 E2.18479
G1 X95.537 Y94.442 E2.18913
G1 X96.429 Y94.442 E2.23055
G1 X96.429 Y94.348 E2.23489
G1 X97.322 Y94.348 E2.27631
G1 X97.322 Y94.442 E2.28065
G1 X98.215 Y94.442 E2.32207
G1 X98.215 Y94.348 E2.32641
G1 X99.107 Y94.348 E2.36783
G1 X99.107 Y94.442 E2.37217
G1 X100.000 Y94.442 E2.41358
G1 X100.000 Y94.348 E2.41793
G1 X100.893 Y94.348 E2.45934
G1 X100.893 Y94.442 E2.46369
G1 X102.678 Y94.348 F7800.000
G1 F1800
G1 X102.393 Y94.348 E2.47691
G1 X102.393 Y94.442 E2.48125
G1 X102.678 Y94.442 E2.49447
G1 X102.678 Y94.348 E2.49881
G1 X103.571 Y94.348 E2.54023
G1 X103.571 Y94.442 E2.54457
G1 X104.463 Y94.442 E2.58599
G1 X104.463 Y94.348 E2.59033
G1 X105.356 Y94.348 E2.63175
G1 X105.356 Y94.442 E2.63609
G1 X106.249 Y94.442 E2.67751
G1 X106.249 Y94.348 E2.68185
G1 X107.142 Y94.348 E2.72326
G1 X107.142 Y94.442 E2.72761
G1 X108.034 Y94.442 E2.76902
G1 X108.034 Y94.348 E2.77337
G1 X108.927 Y94.348 E2.81478
G1 X108.927 Y94.442 E2.81913
G1 X109.820 Y94.442 E2.86054
G1 X109.820 Y94.348 E2.86489
G1 X110.712 Y94.348 E2.90630
G1 X110.712 Y94.442 E2.91064
G1 X112.498 Y94.348 F7800.000
G1 F1800
G1 X112.173 Y94.348 E2.92570
G1 X112.173 Y94.442 E2.93005
G1 X112.498 Y94.442 E2.94511
G1 X112.498 Y94.348 E2.94945
G1 X113.390 Y94.348 E2.99087
G1 X113.390 Y94.442 E2.99521
G1 E0.99521 F2400.00000
G92 E0
G1 X103.571 Y105.836 F7800.000
G1 E2.00000 F2400.00000
G1 F1800
G1 X103.571 Y105.608 E2.01055
G1 X102.678 Y105.608 E2.05196
G1 X102.678 Y106.259 E2.08217
G1 X102.393 Y106.395 E2.09680
G1 X102.393 Y106.113 E2.10986
G1 X102.173 Y106.204 E2.12090
G1 X102.173 Y105.608 E2.14853
G1 X102.678 Y105.608 E2.17195
G1 X100.893 Y105.716 F7800.000
G1 F1800
G1 X100.893 Y105.608 E2.17697
G1 X100.000 Y105.608 E2.21839
G1 X100.000 Y105.751 E2.22500
G1 X99.482 Y105.751 E2.24902
G1 X99.482 Y106.073 E2.26398
G1 X99.107 Y105.986 E2.28184
G1 X99.107 Y105.608 E2.29937
G1 X98.215 Y105.608 E2.34079
G1 X98.215 Y106.048 E2.36121
G1 X98.102 Y106.011 E2.36670
G1 X98.102 Y106.317 E2.38089
G1 X97.637 Y106.125 E2.40424
G1 X97.637 Y106.409 E2.41739
G1 X97.322 Y106.259 E2.43357
G1 X97.322 Y105.608 E2.46378
G1 X96.429 Y105.608 E2.50520
G1 X96.429 Y105.836 E2.51575
G1 X95.950 Y105.608 E2.54035
G1 X96.429 Y105.608 E2.56257
G1 Z0.450 F7800.000
G1 E0.56257 F2400.00000
G92 E0
G1 X112.123 Y103.798 F7800.000
G1 E2.00000 F2400.00000
G1 F3300
G1 X87.877 Y103.798 E3.04246
G1 X87.877 Y95.952 E3.37979
G1 X112.123 Y95.952 E4.42225
G1 X112.123 Y103.738 E4.75701
G1 X112.580 Y104.255 F7800.000
G1 F1650
G1 X87.420 Y104.255 E5.58772
G1 X87.420 Y95.495 E5.87695
G1 X112.580 Y95.495 E6.70767
G1 X112.580 Y104.195 E6.99492
G1 X112.182 Y104.210 F7800.000
G1 X111.807 Y96.670 F7800.000
G1 F1200
G1 X111.405 Y96.268 E7.01942
G1 X110.672 Y96.268 E7.05095
G1 X111.807 Y97.403 E7.12003
G1 X111.807 Y98.135 E7.15156
G1 X109.940 Y96.268 E7.26523
G1 X109.208 Y96.268 E7.29676
G1 X111.807 Y98.867 E7.45502
G1 X111.807 Y99.599 E7.48654
G1 X108.476 Y96.268 E7.68939
G1 X107.743 Y96.268 E7.72092
G1 X111.807 Y100.332 E7.96835
G1 X111.807 Y101.064 E7.99988
G1 X107.011 Y96.268 E8.29190
G1 X106.279 Y96.268 E8.32342
G1 X111.807 Y101.796 E8.66003
G1 X111.807 Y102.529 E8.69156
G1 X105.546 Y96.268 E9.07275
G1 X104.814 Y96.268 E9.10428
G1 X111.807 Y103.261 E9.53006
G1 X111.807 Y103.482 E9.53958
G1 X111.296 Y103.482 E9.56159
G1 X104.082 Y96.268 E10.00083
G1 X103.350 Y96.268 E10.03236
G1 X110.564 Y103.482 E10.47161
G1 X109.831 Y103.482 E10.50313
G1 X102.617 Y96.268 E10.94238
G1 X101.885 Y96.268 E10.97391
G1 X109.099 Y103.482 E11.41315
G1 X108.367 Y103.482 E11.44468
G1 X101.153 Y96.268 E11.88393
G1 X100.421 Y96.268 E11.91546
G1 X107.634 Y103.482 E12.35470
G1 X106.902 Y103.482 E12.38623
G1 X99.688 Y96.268 E12.82547
G1 X98.956 Y96.268 E12.85700
G1 X106.170 Y103.482 E13.29625
G1 X105.438 Y103.482 E13.32778
G1 X98.224 Y96.268 E13.76702
G1 X97.491 Y96.268 E13.79855
G1 X104.705 Y103.482 E14.23779
G1 X103.973 Y103.482 E14.26932
G1 X96.759 Y96.268 E14.70857
G1 X96.027 Y96.268 E14.74010
G1 X103.241 Y103.482 E15.17934
G1 X102.509 Y103.482 E15.21087
G1 X95.295 Y96.268 E15.65011
G1 X94.562 Y96.268 E15.68164
G1 X101.776 Y103.482 E16.12089
G1 X101.044 Y103.482 E16.15242
G1 X93.830 Y96.268 E16.59166
G1 X93.098 Y96.268 E16.62319
G1 X100.312 Y103.482 E17.06243
G1 X99.579 Y103.482 E17.09396
G1 X92.366 Y96.268 E17.53321
G1 X91.633 Y96.268 E17.56474
G1 X98.847 Y103.482 E18.00398
G1 X98.115 Y103.482 E18.03551
G1 X90.901 Y96.268 E18.47475
G1 X90.169 Y96.268 E18.50628
G1 X97.383 Y103.482 E18.94553
G1 X96.650 Y103.482 E18.97706
G1 X89.436 Y96.268 E19.41630
G1 X88.704 Y96.268 E19.44783
G1 X95.918 Y103.482 E19.88708
G1 X95.186 Y103.482 E19.91860
G1 X88.193 Y96.489 E20.34439
G1 X88.193 Y97.221 E20.37591
G1 X94.454 Y103.482 E20.75711
G1 X93.721 Y103.482 E20.78864
G1 X88.193 Y97.954 E21.12525
G1 X88.193 Y98.686 E21.15678
G1 X92.989 Y103.482 E21.44880
G1 X92.257 Y103.482 E21.48033
G1 X88.193 Y99.418 E21.72776
G1 X88.193 Y100.150 E21.75929
G1 X91.525 Y103.482 E21.96214
G1 X90.792 Y103.482 E21.99367
G1 X88.193 Y100.883 E22.15193
G1 X88.193 Y101.615 E22.18345
G1 X90.060 Y103.482 E22.29713
G1 X89.328 Y103.482 E22.32866
G1 X88.193 Y102.347 E22.39774
G1 X88.193 Y103.080 E22.42927
G1 X88.595 Y103.482 E22.45376
G1 Z0.450 F7800.000
G1 E20.45376 F2400.00000
G92 E0
G1 X86.540 Y99.935 F7800.000
G1 E2.00000 F2400.00000
G1 F3600
G1 X86.540 Y97.514 E2.07995
G1 X85.700 Y98.354 E2.11917
G1 X85.700 Y99.935 E2.17138
G1 X86.540 Y99.935 E2.19911
G1 E0.19911 F2400.00000
G92 E0
G1 X87.760 Y94.615 F7800.000
G1 E2.00000 F2400.00000
G1 F3600
G1 X87.760 Y94.125 E2.01618
G1 X85.700 Y94.125 E2.08419
G1 X85.700 Y96.185 E2.15221
G1 X86.540 Y96.185 E2.17994
G1 X86.540 Y94.615 E2.23178
G1 X87.760 Y94.615 E2.27206
G1 X97.760 Y94.615 F7800.000
G1 F3600
G1 X97.760 Y94.125 E2.28824
G1 X95.700 Y94.125 E2.35626
G1 X95.700 Y94.615 E2.37244
G1 X97.760 Y94.615 E2.44045
G1 X107.760 Y94.615 F7800.000
G1 F3600
G1 X107.760 Y94.125 E2.45663
G1 X105.700 Y94.125 E2.52464
G1 X105.700 Y94.615 E2.54082
G1 X107.760 Y94.615 E2.60884
G1 E0.60884 F2400.00000
G92 E0
G1 X114.300 Y97.675 F7800.000
G1 E2.00000 F2400.00000
G1 F3600
G1 X114.300 Y94.125 E2.11721
G1 X111.950 Y94.125 E2.19480
G1 X111.950 Y94.615 E2.21098
G1 X113.460 Y94.615 E2.26084
G1 X113.460 Y104.035 E2.57186
G1 X114.300 Y104.035 E2.59959
G1 X114.300 Y98.354 E2.78718
G1 X113.621 Y97.675 E2.81887
G1 X114.300 Y97.675 E2.84127
G1 E0.84127 F2400.00000
G92 E0
G1 X101.950 Y105.385 F7800.000
G1 E2.00000 F2400.00000
G1 F3600
G1 X101.950 Y106.537 E2.03803
G1 X104.711 Y105.385 E2.13680
G1 X101.950 Y105.385 E2.22795
G1 E0.22795 F2400.00000
G92 E0
G1 X97.760 Y106.185 F7800.000
G1 E2.00000 F2400.00000
G1 F3600
G1 X97.760 Y105.385 E2.02641
G1 X95.700 Y105.385 E2.09443
G1 X95.700 Y105.736 E2.10603
G1 X96.645 Y106.185 E2.14057
G1 X97.760 Y106.185 E2.17739
G1 Z0.650 F7800.000
G1 E0.17739 F2400.00000
G92 E0
G1 X112.123 Y103.998 F7800.000
G1 E2.00000 F2400.00000
G1 F3300
G1 X87.877 Y103.998 E3.04246
G1 X87.877 Y95.952 E3.38839
G1 X112.123 Y95.952 E4.43085
G1 X112.123 Y103.938 E4.77421
G1 X112.580 Y104.455 F7800.000
G1 F1650
G1 X87.420 Y104.455 E5.60492
G1 X87.420 Y95.495 E5.90076
G1 X112.580 Y95.495 E6.73147
G1 X112.580 Y104.395 E7.02533
G1 X112.183 Y104.409 F7800.000
G1 X111.405 Y103.682 F7800.000
G1 F1200
G1 X111.807 Y103.280 E7.04999
G1 X111.807 Y102.542 E7.08194
G1 X110.667 Y103.682 E7.15178
G1 X109.930 Y103.682 E7.18373
G1 X111.807 Y101.805 E7.29876
G1 X111.807 Y101.068 E7.33071
G1 X109.193 Y103.682 E7.49092
G1 X108.456 Y103.682 E7.52287
G1 X111.807 Y100.331 E7.72826
G1 X111.807 Y99.594 E7.76021
G1 X107.719 Y103.682 E8.01079
G1 X106.982 Y103.682 E8.04273
G1 X111.807 Y98.857 E8.33849
G1 X111.807 Y98.120 E8.37044
G1 X106.245 Y103.682 E8.71139
G1 X105.507 Y103.682 E8.74334
G1 X111.807 Y97.382 E9.12946
G1 X111.807 Y96.645 E9.16141
G1 X104.770 Y103.682 E9.59272
G1 X104.033 Y103.682 E9.62467
G1 X111.447 Y96.268 E10.07910
G1 X110.710 Y96.268 E10.11105
G1 X103.296 Y103.682 E10.56548
G1 X102.559 Y103.682 E10.59743
G1 X109.973 Y96.268 E11.05187
G1 X109.236 Y96.268 E11.08382
G1 X101.822 Y103.682 E11.53825
G1 X101.085 Y103.682 E11.57020
G1 X108.498 Y96.268 E12.02463
G1 X107.761 Y96.268 E12.05658
G1 X100.347 Y103.682 E12.51101
G1 X99.610 Y103.682 E12.54296
G1 X107.024 Y96.268 E12.99739
G1 X106.287 Y96.268 E13.02934
G1 X98.873 Y103.682 E13.48377
G1 X98.136 Y103.682 E13.51572
G1 X105.550 Y96.268 E13.97016
G1 X104.813 Y96.268 E14.00211
G1 X97.399 Y103.682 E14.45654
G1 X96.662 Y103.682 E14.48849
G1 X104.076 Y96.268 E14.94292
G1 X103.338 Y96.268 E14.97487
G1 X95.924 Y103.682 E15.42930
G1 X95.187 Y103.682 E15.46125
G1 X102.601 Y96.268 E15.91568
G1 X101.864 Y96.268 E15.94763
G1 X94.450 Y103.682 E16.40206
G1 X93.713 Y103.682 E16.43401
G1 X101.127 Y96.268 E16.88845
G1 X100.390 Y96.268 E16.92040
G1 X92.976 Y103.682 E17.37483
G1 X92.239 Y103.682 E17.40678
G1 X99.653 Y96.268 E17.86121
G1 X98.916 Y96.268 E17.89316
G1 X91.502 Y103.682 E18.34759
G1 X90.764 Y103.682 E18.37954
G1 X98.178 Y96.268 E18.83397
G1 X97.441 Y96.268 E18.86592
G1 X90.027 Y103.682 E19.32035
G1 X89.290 Y103.682 E19.35230
G1 X96.704 Y96.268 E19.80674
G1 X95.967 Y96.268 E19.83869
G1 X88.553 Y103.682 E20.29312
G1 X88.193 Y103.682 E20.30872
G1 X88.193 Y103.305 E20.32507
G1 X95.230 Y96.268 E20.75638
G1 X94.493 Y96.268 E20.78833
G1 X88.193 Y102.568 E21.17445
G1 X88.193 Y101.830 E21.20640
G1 X93.755 Y96.268 E21.54735
G1 X93.018 Y96.268 E21.57930
G1 X88.193 Y101.093 E21.87506
G1 X88.193 Y100.356 E21.90701
G1 X92.281 Y96.268 E22.15759
G1 X91.544 Y96.268 E22.18954
G1 X88.193 Y99.619 E22.39493
G1 X88.193 Y98.882 E22.42688
G1 X90.807 Y96.268 E22.58709
G1 X90.070 Y96.268 E22.61904
G1 X88.193 Y98.145 E22.73407
G1 X88.193 Y97.408 E22.76602
G1 X89.333 Y96.268 E22.83587
G1 X88.595 Y96.268 E22.86782
G1 X88.193 Y96.670 E22.89247
G1 Z0.750 F7800.000
G1 E20.89247 F2400.00000
G92 E0
G1 X87.760 Y94.615 F7800.000
G1 E2.00000 F2400.00000
G1 F3600
G1 X87.760 Y94.125 E2.02296
G1 X85.700 Y94.125 E2.11947
G1 X85.700 Y96.185 E2.21598
G1 X86.540 Y96.185 E2.25533
G1 X86.540 Y94.615 E2.32888
G1 X87.760 Y94.615 E2.38604
G1 E0.38604 F2400.00000
G92 E0
G1 X86.540 Y99.935 F7800.000
G1 E2.00000 F2400.00000
G1 F3600
G1 X86.540 Y97.514 E2.11344
G1 X85.700 Y98.354 E2.16909
G1 X85.700 Y99.935 E2.24317
G1 X86.540 Y99.935 E2.28253
G1 E0.28253 F2400.00000
G92 E0
G1 X97.760 Y94.615 F7800.000
G1 E2.00000 F2400.00000
G1 F3600
G1 X97.760 Y94.125 E2.02296
G1 X95.700 Y94.125 E2.11947
G1 X95.700 Y94.615 E2.14242
G1 X97.760 Y94.615 E2.23893
G1 X107.760 Y94.615 F7800.000
G1 F3600
G1 X107.760 Y94.125 E2.26189
G1 X105.700 Y94.125 E2.35840
G1 X105.700 Y94.615 E2.38135
G1 X107.760 Y94.615 E2.47786
