; generated by Slic3r 1.3.0 on 2019-01-22 at 15:40:04

; external perimeters extrusion width = 0.44mm (2.18mm^3/s)
; perimeters extrusion width = 0.56mm (5.69mm^3/s)
; infill extrusion width = 0.50mm (7.31mm^3/s)
; solid infill extrusion width = 0.56mm (2.07mm^3/s)
; top infill extrusion width = 0.56mm (1.55mm^3/s)
; support material extrusion width = 0.44mm (4.76mm^3/s)

M107
M104 S200 ; set temperature
G28 ; home all axes
M150 B180 G210
M150 B180 G210
G92 E0
G1 E6 F1800
; Filament gcode

M109 S200 ; set temperature and wait for it to be reached
G21 ; set units to millimeters
G90 ; use absolute coordinates
M82 ; use absolute distances for extrusion
G92 E0
G1 Z0.250 F7800.000
G1 E-2.00000 F2400.00000
G92 E0
G1 X92.548 Y42.922 F7800.000
G1 E2.00000 F2400.00000
G1 F1800
G1 X93.094 Y41.792 E2.05821
G1 X93.535 Y41.029 E2.09912
G1 X93.859 Y40.564 E2.12539
G1 X94.489 Y39.839 E2.16997
G1 X94.828 Y39.522 E2.19150
G1 X96.027 Y38.687 E2.25927
G1 X96.235 Y38.578 E2.27016
G1 X97.272 Y38.168 E2.32193
G1 X98.087 Y37.978 E2.36071
G1 X99.087 Y37.891 E2.40730
G1 X100.436 Y38.015 E2.47015
G1 X100.926 Y38.133 E2.49353
G1 X102.074 Y38.574 E2.55059
G1 X103.268 Y39.334 E2.61624
G1 X103.715 Y39.725 E2.64379
G1 X104.087 Y40.105 E2.66845
G1 X104.628 Y40.784 E2.70873
G1 X104.887 Y41.171 E2.73036
G1 X105.179 Y41.662 E2.75685
G1 X105.762 Y42.762 E2.81462
G1 X106.632 Y44.571 E2.90774
G1 X107.490 Y46.487 E3.00512
G1 X108.289 Y48.383 E3.10060
G1 X109.043 Y50.290 E3.19572
G1 X109.755 Y52.219 E3.29111
G1 X110.468 Y54.290 E3.39275
G1 X111.085 Y56.233 E3.48730
G1 X111.661 Y58.192 E3.58204
G1 X112.159 Y60.037 E3.67069
G1 X112.643 Y61.999 E3.76442
G1 X113.083 Y63.973 E3.85827
G1 X113.479 Y65.965 E3.95249
G1 X113.861 Y68.158 E4.05578
G1 X114.134 Y69.972 E4.14087
G1 X114.391 Y71.975 E4.23454
G1 X114.609 Y74.043 E4.33100
G1 X122.113 Y153.341 E8.02631
G1 X122.113 Y154.528 E8.08135
G1 X122.081 Y154.874 E8.09747
G1 X121.894 Y155.929 E8.14721
G1 X121.805 Y156.264 E8.16327
G1 X121.426 Y157.318 E8.21526
G1 X121.264 Y157.665 E8.23299
G1 X120.721 Y158.608 E8.28347
G1 X120.516 Y158.902 E8.30014
G1 X119.781 Y159.779 E8.35320
G1 X119.535 Y160.024 E8.36933
G1 X118.683 Y160.739 E8.42090
G1 X118.383 Y160.948 E8.43787
G1 X117.415 Y161.506 E8.48971
G1 X117.085 Y161.658 E8.50657
G1 X116.053 Y162.032 E8.55747
G1 X115.718 Y162.122 E8.57356
G1 X114.639 Y162.315 E8.62443
G1 X113.676 Y162.373 E8.66917
G1 X86.274 Y162.272 E9.94043
G1 X85.395 Y162.218 E9.98129
G1 X84.284 Y162.023 E10.03365
G1 X83.940 Y161.931 E10.05015
G1 X82.914 Y161.558 E10.10079
G1 X82.585 Y161.406 E10.11762
G1 X81.607 Y160.842 E10.17002
G1 X81.320 Y160.641 E10.18625
G1 X80.453 Y159.913 E10.23877
G1 X80.209 Y159.668 E10.25480
G1 X79.507 Y158.834 E10.30538
G1 X79.289 Y158.523 E10.32299
G1 X78.725 Y157.543 E10.37546
G1 X78.579 Y157.229 E10.39155
G1 X78.201 Y156.189 E10.44285
G1 X78.111 Y155.855 E10.45893
G1 X77.914 Y154.737 E10.51159
G1 X77.884 Y154.391 E10.52770
G1 X77.891 Y153.185 E10.58363
G1 X85.380 Y70.552 E14.43292
G1 X85.583 Y68.603 E14.52383
G1 X85.835 Y66.600 E14.61747
G1 X86.178 Y64.352 E14.72300
G1 X86.481 Y62.602 E14.80539
G1 X86.898 Y60.499 E14.90485
G1 X87.314 Y58.626 E14.99383
G1 X87.755 Y56.822 E15.08000
G1 X88.364 Y54.555 E15.18891
G1 X88.898 Y52.739 E15.27673
G1 X89.460 Y50.977 E15.36253
G1 X90.230 Y48.727 E15.47286
G1 X90.889 Y46.941 E15.56118
G1 X91.564 Y45.227 E15.64664
G1 X92.523 Y42.977 E15.76011
G1 E13.76011 F2400.00000
G92 E0
G1 X114.533 Y152.942 F7800.000
G1 E2.00000 F2400.00000
G1 F1800
G1 X114.692 Y153.100 E2.01040
G1 X114.821 Y153.285 E2.02087
G1 X114.916 Y153.490 E2.03134
G1 X114.974 Y153.709 E2.04186
G1 X114.995 Y153.934 E2.05234
G1 X114.974 Y154.158 E2.06278
G1 X114.916 Y154.376 E2.07326
G1 X114.820 Y154.582 E2.08378
G1 X114.692 Y154.767 E2.09423
G1 X114.533 Y154.925 E2.10464
G1 X114.348 Y155.054 E2.11509
G1 X114.143 Y155.149 E2.12559
G1 X113.923 Y155.208 E2.13616
G1 X113.700 Y155.228 E2.14651
G1 X113.475 Y155.208 E2.15702
G1 X113.255 Y155.149 E2.16757
G1 X113.051 Y155.054 E2.17802
G1 X112.865 Y154.925 E2.18853
G1 X112.706 Y154.767 E2.19892
G1 X112.578 Y154.582 E2.20936
G1 X112.481 Y154.374 E2.22000
G1 X112.422 Y154.159 E2.23036
G1 X112.403 Y153.934 E2.24082
G1 X112.422 Y153.708 E2.25131
G1 X112.481 Y153.492 E2.26172
G1 X112.578 Y153.284 E2.27236
G1 X112.967 Y152.721 E2.30411
G1 X113.710 Y152.639 E2.33880
G1 X113.925 Y152.657 E2.34879
G1 X114.141 Y152.716 E2.35917
G1 X114.348 Y152.812 E2.36976
G1 X114.484 Y152.907 E2.37748
G1 E0.37748 F2400.00000
G92 E0
G1 X87.593 Y153.834 F7800.000
G1 E2.00000 F2400.00000
G1 F1800
G1 X87.575 Y154.059 E2.01045
G1 X87.516 Y154.274 E2.02082
G1 X87.420 Y154.480 E2.03135
G1 X87.290 Y154.666 E2.04189
G1 X87.131 Y154.825 E2.05229
G1 X86.946 Y154.955 E2.06279
G1 X86.742 Y155.049 E2.07322
G1 X86.524 Y155.108 E2.08373
G1 X86.298 Y155.127 E2.09423
G1 X86.073 Y155.108 E2.10468
G1 X85.856 Y155.049 E2.11512
G1 X85.652 Y154.954 E2.12557
G1 X85.466 Y154.824 E2.13610
G1 X85.307 Y154.665 E2.14654
G1 X85.178 Y154.480 E2.15700
G1 X85.083 Y154.276 E2.16747
G1 X85.024 Y154.059 E2.17790
G1 X85.005 Y153.834 E2.18836
G1 X85.024 Y153.608 E2.19886
G1 X85.083 Y153.390 E2.20937
G1 X85.177 Y153.186 E2.21980
G1 X85.308 Y153.000 E2.23031
G1 X85.466 Y152.842 E2.24068
G1 X85.652 Y152.712 E2.25122
G1 X85.858 Y152.616 E2.26177
G1 X86.073 Y152.557 E2.27213
G1 X86.298 Y152.539 E2.28259
G1 X86.520 Y152.557 E2.29291
G1 X87.096 Y152.720 E2.32072
G1 X87.420 Y153.185 E2.34697
G1 X87.516 Y153.391 E2.35754
G1 X87.575 Y153.608 E2.36798
G1 X87.589 Y153.774 E2.37569
G1 E0.37569 F2400.00000
G92 E0
G1 X96.600 Y136.505 F7800.000
G1 E2.00000 F2400.00000
G1 F1800
G1 X95.488 Y135.876 E2.05926
G1 X94.830 Y135.414 E2.09655
G1 X92.302 Y122.107 E2.72492
G1 X93.878 Y122.636 E2.80203
G1 X94.601 Y122.835 E2.83681
G1 X95.347 Y123.012 E2.87242
G1 X96.111 Y123.165 E2.90855
G1 X97.283 Y123.341 E2.96355
G1 X97.281 Y129.222 E3.23641
G1 X102.680 Y129.222 E3.48688
G1 X102.680 Y123.336 E3.75994
G1 X103.755 Y123.177 E3.81036
G1 X104.516 Y123.027 E3.84634
G1 X105.321 Y122.836 E3.88472
G1 X106.162 Y122.603 E3.92522
G1 X107.067 Y122.309 E3.96933
G1 X107.600 Y122.108 E3.99577
G1 X105.079 Y135.448 E4.62559
G1 X104.464 Y135.876 E4.66033
G1 X103.325 Y136.517 E4.72099
G1 X106.333 Y141.404 E4.98720
G1 X108.834 Y145.568 E5.21255
G1 X111.038 Y149.355 E5.41587
G1 X111.865 Y150.854 E5.49525
G1 X111.656 Y150.989 E5.50679
G1 X110.642 Y149.657 E5.58447
G1 X108.070 Y146.119 E5.78740
G1 X105.275 Y142.154 E6.01244
G1 X101.714 Y136.979 E6.30388
G1 X100.653 Y137.103 E6.35345
G1 X99.976 Y137.125 E6.38487
G1 X99.299 Y137.103 E6.41630
G1 X98.200 Y136.975 E6.46763
G1 X94.720 Y142.068 E6.75380
G1 X91.933 Y146.047 E6.97917
G1 X89.370 Y149.600 E7.18242
G1 X88.334 Y150.971 E7.26213
G1 X88.125 Y150.835 E7.27368
G1 X88.933 Y149.361 E7.35170
G1 X91.119 Y145.572 E7.55464
G1 X93.604 Y141.406 E7.77967
G1 X96.569 Y136.556 E8.04339
G1 X95.978 Y136.666 F7800.000
G1 F1800
G1 X95.253 Y136.255 E8.08207
G1 X94.683 Y135.869 E8.11398
G1 X94.422 Y135.659 E8.12953
G1 X91.709 Y121.380 E8.80380
G1 X92.435 Y121.681 E8.84026
G1 X92.879 Y121.842 E8.86215
G1 X94.006 Y122.209 E8.91714
G1 X94.711 Y122.403 E8.95108
G1 X95.443 Y122.576 E8.98595
G1 X96.191 Y122.726 E9.02136
G1 X96.965 Y122.854 E9.05775
G1 X97.730 Y122.944 E9.09348
G1 X97.728 Y128.776 E9.36404
G1 X102.234 Y128.776 E9.57309
G1 X102.234 Y122.940 E9.84383
G1 X102.961 Y122.854 E9.87779
G1 X103.676 Y122.738 E9.91141
G1 X104.421 Y122.590 E9.94665
G1 X105.210 Y122.403 E9.98426
G1 X106.034 Y122.175 E10.02391
G1 X106.919 Y121.888 E10.06708
G1 X108.189 Y121.394 E10.13029
G1 X105.487 Y135.691 E10.80530
G1 X105.268 Y135.869 E10.81840
G1 X104.700 Y136.255 E10.85028
G1 X103.948 Y136.678 E10.89028
G1 X106.714 Y141.172 E11.13507
G1 X109.218 Y145.340 E11.36067
G1 X111.427 Y149.135 E11.56437
G1 X113.146 Y152.252 E11.72951
G1 X113.704 Y152.191 E11.75555
G1 X114.002 Y152.215 E11.76946
G1 X114.295 Y152.295 E11.78352
G1 X114.571 Y152.424 E11.79767
G1 X114.821 Y152.598 E11.81178
G1 X115.035 Y152.812 E11.82584
G1 X115.209 Y153.062 E11.83994
G1 X115.338 Y153.337 E11.85404
G1 X115.415 Y153.631 E11.86815
G1 X115.443 Y153.934 E11.88227
G1 X115.415 Y154.236 E11.89635
G1 X115.338 Y154.529 E11.91040
G1 X115.209 Y154.805 E11.92454
G1 X115.035 Y155.054 E11.93863
G1 X114.821 Y155.269 E11.95270
G1 X114.572 Y155.443 E11.96679
G1 X114.296 Y155.570 E11.98090
G1 X114.002 Y155.649 E11.99501
G1 X113.700 Y155.676 E12.00906
G1 X113.397 Y155.649 E12.02317
G1 X113.102 Y155.570 E12.03732
G1 X112.827 Y155.443 E12.05139
G1 X112.578 Y155.269 E12.06551
G1 X112.363 Y155.054 E12.07958
G1 X112.190 Y154.805 E12.09365
G1 X112.060 Y154.528 E12.10785
G1 X111.981 Y154.236 E12.12188
G1 X111.955 Y153.934 E12.13596
G1 X111.981 Y153.631 E12.15007
G1 X112.060 Y153.338 E12.16415
G1 X112.190 Y153.061 E12.17832
G1 X112.419 Y152.728 E12.19708
G1 X110.284 Y149.924 E12.36064
G1 X107.707 Y146.379 E12.56395
G1 X104.909 Y142.409 E12.78925
G1 X101.499 Y137.454 E13.06833
G1 X100.686 Y137.548 E13.10630
G1 X99.976 Y137.571 E13.13926
G1 X99.266 Y137.548 E13.17222
G1 X98.416 Y137.450 E13.21191
G1 X95.087 Y142.322 E13.48569
G1 X92.297 Y146.305 E13.71131
G1 X89.729 Y149.866 E13.91495
G1 X87.606 Y152.672 E14.07818
G1 X87.808 Y152.961 E14.09456
G1 X87.937 Y153.238 E14.10869
G1 X88.016 Y153.531 E14.12279
G1 X88.041 Y153.834 E14.13690
G1 X88.016 Y154.136 E14.15098
G1 X87.937 Y154.428 E14.16501
G1 X87.808 Y154.704 E14.17911
G1 X87.633 Y154.954 E14.19327
G1 X87.420 Y155.168 E14.20729
G1 X87.170 Y155.343 E14.22143
G1 X86.895 Y155.470 E14.23551
G1 X86.601 Y155.549 E14.24962
G1 X86.298 Y155.575 E14.26374
G1 X85.996 Y155.549 E14.27782
G1 X85.703 Y155.470 E14.29187
G1 X85.428 Y155.343 E14.30593
G1 X85.178 Y155.167 E14.32011
G1 X84.964 Y154.954 E14.33413
G1 X84.789 Y154.704 E14.34828
G1 X84.662 Y154.429 E14.36234
G1 X84.583 Y154.136 E14.37639
G1 X84.557 Y153.834 E14.39048
G1 X84.583 Y153.531 E14.40459
G1 X84.662 Y153.237 E14.41871
G1 X84.789 Y152.962 E14.43278
G1 X84.965 Y152.712 E14.44692
G1 X85.178 Y152.499 E14.46092
G1 X85.428 Y152.324 E14.47510
G1 X85.704 Y152.195 E14.48920
G1 X85.996 Y152.116 E14.50324
G1 X86.298 Y152.091 E14.51731
G1 X86.600 Y152.116 E14.53136
G1 X86.872 Y152.193 E14.54449
G1 X88.544 Y149.142 E14.70589
G1 X90.734 Y145.346 E14.90921
G1 X93.222 Y141.175 E15.13450
G1 X95.947 Y136.717 E15.37691
G1 X96.179 Y136.320 F7800.000
G1 E13.37691 F2400.00000
G92 E0
G1 X92.963 Y143.587 F7800.000
G1 E2.00000 F2400.00000
G1 F1800
G1 X92.256 Y144.680 E2.08257
G1 F1800
G1 X91.548 Y145.773 E2.15389
G1 F1800
G1 X91.264 Y146.211 E2.17796
G1 F1800
G1 X90.744 Y147.015 E2.21696
G1 F1800
G1 X90.224 Y147.819 E2.24636
G1 F1800
G1 X89.705 Y148.624 E2.26618
G1 F1800
G1 X89.185 Y149.428 E2.27640
G1 X88.108 Y151.090 F7800.000
G1 F1800
G1 X87.711 Y151.704 E2.31920
G1 F1800
G1 X87.313 Y152.318 E2.35557
G1 X85.843 Y153.209 F7800.000
G1 F1800
G1 X85.702 Y153.274 E2.36424
G1 X85.580 Y153.359 E2.37252
G1 X85.477 Y153.462 E2.38062
G1 X85.392 Y153.583 E2.38887
G1 X85.328 Y153.724 E2.39746
G1 X86.191 Y152.862 E2.46534
G1 X86.325 Y152.825 E2.47309
G1 X86.472 Y152.813 E2.48129
G1 X86.613 Y152.824 E2.48921
G1 X86.903 Y152.907 E2.50597
G1 X85.388 Y154.421 E2.62524
G1 X85.585 Y154.658 E2.64235
G1 X85.788 Y154.780 E2.65552
G1 X87.245 Y153.322 E2.77030
G1 X87.307 Y153.512 E2.78146
G1 X87.319 Y153.660 E2.78972
G1 X87.307 Y153.807 E2.79792
G1 X87.269 Y153.946 E2.80595
G1 X87.206 Y154.082 E2.81431
G1 X87.121 Y154.204 E2.82257
G1 X86.669 Y154.656 E2.85812
G1 E0.85812 F2400.00000
G92 E0
G1 X93.198 Y142.839 F7800.000
G1 E2.00000 F2400.00000
G1 F1800
G1 X94.805 Y141.233 E2.10626
G1 X96.178 Y139.223 E2.22017
G1 X94.160 Y141.241 E2.35368
G1 X95.161 Y139.603 E2.44348
G1 X97.552 Y137.213 E2.60163
G1 E0.60163 F2400.00000
G92 E0
G1 X102.590 Y136.630 F7800.000
G1 E2.00000 F2400.00000
G1 F1800
G1 X102.528 Y136.529 E2.00555
G1 X102.902 Y136.319 E2.02561
G1 X104.997 Y134.223 E2.16425
G1 X104.849 Y135.008 E2.20162
G1 X104.491 Y135.366 E2.22531
G1 E0.22531 F2400.00000
G92 E0
G1 X102.953 Y129.265 F7800.000
G1 E2.00000 F2400.00000
G1 F1800
G1 X106.628 Y125.590 E2.24317
G1 X106.777 Y124.805 E2.28054
G1 X102.953 Y128.629 E2.53352
G1 X102.953 Y127.992 E2.56330
G1 X106.925 Y124.020 E2.82610
G1 X107.073 Y123.235 E2.86347
G1 X102.953 Y127.356 E3.13608
G1 X102.953 Y126.719 E3.16586
G1 X106.984 Y122.688 E3.43254
G1 X106.069 Y122.966 E3.47726
G1 X102.953 Y126.082 E3.68343
G1 X102.953 Y125.446 E3.71321
G1 X105.211 Y123.188 E3.86260
G1 X104.396 Y123.366 E3.90161
G1 X102.953 Y124.809 E3.99709
G1 X102.953 Y124.173 E4.02687
G1 X103.626 Y123.500 E4.07139
G1 E2.07139 F2400.00000
G92 E0
G1 X93.058 Y122.609 F7800.000
G1 E2.00000 F2400.00000
G1 F1800
G1 X92.711 Y122.957 E2.02298
G1 X92.813 Y123.492 E2.04845
G1 X93.539 Y122.766 E2.09649
G1 X94.023 Y122.918 E2.12023
G1 X92.914 Y124.027 E2.19358
G1 X93.016 Y124.562 E2.21905
G1 X94.522 Y123.055 E2.31870
G1 X95.032 Y123.182 E2.34329
G1 X93.118 Y125.096 E2.46997
G1 X93.219 Y125.631 E2.49545
G1 X95.551 Y123.300 E2.64970
G1 X96.081 Y123.406 E2.67501
G1 X93.321 Y126.166 E2.85763
G1 X93.423 Y126.701 E2.88310
G1 X96.629 Y123.494 E3.09527
G1 X97.011 Y123.552 E3.11331
G1 X97.010 Y123.750 E3.12258
G1 X93.524 Y127.236 E3.35324
G1 X93.626 Y127.771 E3.37872
G1 X97.010 Y124.387 E3.60264
G1 X97.010 Y125.023 E3.63243
G1 X93.727 Y128.306 E3.84962
G1 X93.829 Y128.841 E3.87510
G1 X97.010 Y125.660 E4.08554
G1 X97.010 Y126.297 E4.11533
G1 X93.931 Y129.376 E4.31904
G1 X94.032 Y129.911 E4.34452
G1 X97.009 Y126.934 E4.54149
G1 X97.009 Y127.570 E4.57128
G1 X94.134 Y130.446 E4.76151
G1 X94.236 Y130.981 E4.78698
G1 X97.009 Y128.207 E4.97047
G1 X97.009 Y128.844 E5.00026
G1 X94.337 Y131.515 E5.17701
G1 X94.439 Y132.050 E5.20249
G1 X97.009 Y129.481 E5.37250
G1 X97.009 Y129.495 E5.37317
G1 X97.631 Y129.495 E5.40228
G1 X94.541 Y132.585 E5.60674
G1 X94.642 Y133.120 E5.63221
G1 X98.267 Y129.495 E5.87206
G1 X98.904 Y129.495 E5.90184
G1 X94.744 Y133.655 E6.17708
G1 X94.845 Y134.190 E6.20255
G1 X99.540 Y129.495 E6.51318
G1 X100.177 Y129.495 E6.54296
G1 X94.947 Y134.725 E6.88898
G1 X95.049 Y135.260 E6.91446
G1 X100.814 Y129.495 E7.29587
G1 X101.450 Y129.495 E7.32565
G1 X95.389 Y135.556 E7.72668
G1 X95.781 Y135.801 E7.74830
G1 X102.087 Y129.495 E8.16549
G1 X102.723 Y129.495 E8.19527
G1 X96.188 Y136.031 E8.62767
G1 X96.594 Y136.260 E8.64952
G1 X106.480 Y126.375 E9.30359
G1 X106.332 Y127.160 E9.34096
G1 X97.001 Y136.490 E9.95831
G1 X97.048 Y136.517 E9.96084
G1 X96.163 Y137.965 E10.04025
G1 X106.184 Y127.944 E10.70326
G1 X106.035 Y128.729 E10.74063
G1 X98.061 Y136.703 E11.26821
G1 X98.631 Y136.770 E11.29506
G1 X105.887 Y129.514 E11.77510
G1 X105.739 Y130.299 E11.81247
G1 X99.205 Y136.833 E12.24475
G1 X99.823 Y136.851 E12.27367
G1 X105.590 Y131.084 E12.65525
G1 X105.442 Y131.869 E12.69261
G1 X100.484 Y136.827 E13.02064
G1 X101.205 Y136.742 E13.05459
G1 X105.294 Y132.654 E13.32511
G1 X105.145 Y133.438 E13.36248
G1 X101.817 Y136.767 E13.58269
G1 X102.076 Y137.144 E13.60411
G1 X102.937 Y136.283 E13.66107
G1 X103.180 Y136.677 E13.68272
G1 X102.336 Y137.521 E13.73856
G1 X102.595 Y137.898 E13.75997
G1 X103.422 Y137.071 E13.81469
G1 X103.665 Y137.465 E13.83634
G1 X102.855 Y138.275 E13.88994
G1 X103.114 Y138.652 E13.91135
G1 X103.908 Y137.859 E13.96383
G1 X104.150 Y138.253 E13.98548
G1 X103.374 Y139.029 E14.03683
G1 X103.633 Y139.407 E14.05825
G1 X104.393 Y138.647 E14.10848
G1 X104.635 Y139.041 E14.13013
G1 X103.893 Y139.784 E14.17924
G1 X104.152 Y140.161 E14.20066
G1 X104.878 Y139.435 E14.24865
G1 X105.120 Y139.829 E14.27030
G1 X104.412 Y140.538 E14.31717
G1 X104.671 Y140.915 E14.33859
G1 X105.363 Y140.223 E14.38434
G1 X105.605 Y140.617 E14.40598
G1 X104.931 Y141.292 E14.45061
G1 X105.190 Y141.669 E14.47203
G1 X105.848 Y141.011 E14.51554
G1 X106.090 Y141.406 E14.53718
G1 X105.450 Y142.046 E14.57957
G1 X105.712 Y142.420 E14.60094
G1 X106.330 Y141.803 E14.64177
G1 X106.568 Y142.200 E14.66348
G1 X105.976 Y142.793 E14.70270
G1 X106.239 Y143.167 E14.72407
G1 X106.807 Y142.598 E14.76168
G1 X107.046 Y142.996 E14.78338
G1 X106.699 Y143.343 E14.80637
G1 X107.001 Y143.618 F7800.000
G1 F1800
G1 X107.358 Y144.166 E14.84780
G1 F1800
