; generated by Slic3r 1.3.0 on 2019-01-27 at 16:10:26

; external perimeters extrusion width = 0.44mm (1.19mm^3/s)
; perimeters extrusion width = 0.56mm (3.10mm^3/s)
; infill extrusion width = 0.50mm (5.48mm^3/s)
; solid infill extrusion width = 0.56mm (3.72mm^3/s)
; top infill extrusion width = 0.56mm (1.55mm^3/s)

M107
M104 S200 ; set temperature
G28 ; home all axes
M150 B180 G210
M150 B180 G210
G92 E0
G1 E6 F1800
; Filament gcode

M109 S200 ; set temperature and wait for it to be reached
G21 ; set units to millimeters
G90 ; use absolute coordinates
M82 ; use absolute distances for extrusion
G92 E0
G1 Z0.250 F7800.000
G1 E-1.20000 F2400.00000
G92 E0
G1 X45.031 Y91.231 F7800.000
G1 E1.20000 F2400.00000
G1 F1560
G1 X48.192 Y90.402 E1.35162
G1 X153.263 Y90.402 E6.22613
G1 X155.490 Y90.799 E6.33108
G1 X157.443 Y91.941 E6.43602
G1 X158.881 Y93.687 E6.54097
G1 X159.709 Y96.849 E6.69259
G1 X159.709 Y103.249 E6.98950
G1 X159.312 Y105.476 E7.09445
G1 X158.171 Y107.428 E7.19939
G1 X156.424 Y108.866 E7.30434
G1 X153.263 Y109.695 E7.45596
G1 X48.192 Y109.695 E12.33047
G1 X45.965 Y109.298 E12.43541
G1 X44.012 Y108.156 E12.54036
G1 X42.574 Y106.410 E12.64530
G1 X41.746 Y103.249 E12.79692
G1 X41.746 Y96.849 E13.09384
G1 X42.143 Y94.622 E13.19878
G1 X43.285 Y92.669 E13.30373
G1 X44.984 Y91.269 E13.40589
G1 E12.20589 F2400.00000
G92 E0
G1 X48.889 Y102.552 F7800.000
G1 E1.20000 F2400.00000
G1 F1560
G1 X48.889 Y97.545 E1.43230
G1 X152.567 Y97.545 E6.24220
G1 X152.567 Y102.552 E6.47450
G1 X48.949 Y102.552 E11.28162
G1 X48.442 Y102.999 F7800.000
G1 F1560
G1 X48.442 Y97.099 E11.55533
G1 X153.013 Y97.099 E16.40665
G1 X153.013 Y102.999 E16.68036
G1 X48.502 Y102.999 E21.52889
G1 X48.636 Y102.648 F7800.000
G1 E20.32889 F2400.00000
G92 E0
G1 X49.161 Y98.165 F7800.000
G1 E1.20000 F2400.00000
G1 F1560
G1 X49.509 Y97.818 E1.22283
G1 X50.141 Y97.818 E1.25223
G1 X49.161 Y98.798 E1.31666
G1 X49.161 Y99.430 E1.34606
G1 X50.774 Y97.818 E1.45208
G1 X51.406 Y97.818 E1.48148
G1 X49.161 Y100.063 E1.62908
G1 X49.161 Y100.695 E1.65849
G1 X52.039 Y97.818 E1.84767
G1 X52.671 Y97.818 E1.87708
G1 X49.161 Y101.328 E2.10785
G1 X49.161 Y101.960 E2.13726
G1 X53.304 Y97.818 E2.40961
G1 X53.936 Y97.818 E2.43902
G1 X49.475 Y102.279 E2.73236
G1 X50.107 Y102.279 E2.76177
G1 X54.569 Y97.818 E3.05511
G1 X55.202 Y97.818 E3.08452
G1 X50.740 Y102.279 E3.37786
G1 X51.372 Y102.279 E3.40727
G1 X55.834 Y97.818 E3.70061
G1 X56.467 Y97.818 E3.73002
G1 X52.005 Y102.279 E4.02336
G1 X52.637 Y102.279 E4.05277
G1 X57.099 Y97.818 E4.34611
G1 X57.732 Y97.818 E4.37552
G1 X53.270 Y102.279 E4.66886
G1 X53.902 Y102.279 E4.69827
G1 X58.364 Y97.818 E4.99161
G1 X58.997 Y97.818 E5.02102
G1 X54.535 Y102.279 E5.31436
G1 X55.167 Y102.279 E5.34376
G1 X59.629 Y97.818 E5.63711
G1 X60.262 Y97.818 E5.66651
G1 X55.800 Y102.279 E5.95986
G1 X56.433 Y102.279 E5.98926
G1 X60.894 Y97.818 E6.28261
G1 X61.527 Y97.818 E6.31201
G1 X57.065 Y102.279 E6.60536
G1 X57.698 Y102.279 E6.63476
G1 X62.159 Y97.818 E6.92811
G1 X62.792 Y97.818 E6.95751
G1 X58.330 Y102.279 E7.25086
G1 X58.963 Y102.279 E7.28026
G1 X63.425 Y97.818 E7.57360
G1 X64.057 Y97.818 E7.60301
G1 X59.595 Y102.279 E7.89635
G1 X60.228 Y102.279 E7.92576
G1 X64.690 Y97.818 E8.21910
G1 X65.322 Y97.818 E8.24851
G1 X60.860 Y102.279 E8.54185
G1 X61.493 Y102.279 E8.57126
G1 X65.955 Y97.818 E8.86460
G1 X66.587 Y97.818 E8.89401
G1 X62.125 Y102.279 E9.18735
G1 X62.758 Y102.279 E9.21676
G1 X67.220 Y97.818 E9.51010
G1 X67.852 Y97.818 E9.53951
G1 X63.391 Y102.279 E9.83285
G1 X64.023 Y102.279 E9.86226
G1 X68.485 Y97.818 E10.15560
G1 X69.117 Y97.818 E10.18501
G1 X64.656 Y102.279 E10.47835
G1 X65.288 Y102.279 E10.50776
G1 X69.750 Y97.818 E10.80110
G1 X70.383 Y97.818 E10.83051
G1 X65.921 Y102.279 E11.12385
G1 X66.553 Y102.279 E11.15325
G1 X71.015 Y97.818 E11.44660
G1 X71.648 Y97.818 E11.47600
G1 X67.186 Y102.279 E11.76935
G1 X67.818 Y102.279 E11.79875
G1 X72.280 Y97.818 E12.09210
G1 X72.913 Y97.818 E12.12150
G1 X68.451 Y102.279 E12.41485
G1 X69.083 Y102.279 E12.44425
G1 X73.545 Y97.818 E12.73760
G1 X74.178 Y97.818 E12.76700
G1 X69.716 Y102.279 E13.06035
G1 X70.349 Y102.279 E13.08975
G1 X74.810 Y97.818 E13.38309
G1 X75.443 Y97.818 E13.41250
G1 X70.981 Y102.279 E13.70584
G1 X71.614 Y102.279 E13.73525
G1 X76.075 Y97.818 E14.02859
G1 X76.708 Y97.818 E14.05800
G1 X72.246 Y102.279 E14.35134
G1 X72.879 Y102.279 E14.38075
G1 X77.341 Y97.818 E14.67409
G1 X77.973 Y97.818 E14.70350
G1 X73.511 Y102.279 E14.99684
G1 X74.144 Y102.279 E15.02625
G1 X78.606 Y97.818 E15.31959
G1 X79.238 Y97.818 E15.34900
G1 X74.776 Y102.279 E15.64234
G1 X75.409 Y102.279 E15.67175
G1 X79.871 Y97.818 E15.96509
G1 X80.503 Y97.818 E15.99450
G1 X76.041 Y102.279 E16.28784
G1 X76.674 Y102.279 E16.31725
G1 X81.136 Y97.818 E16.61059
G1 X81.768 Y97.818 E16.64000
G1 X77.306 Y102.279 E16.93334
G1 X77.939 Y102.279 E16.96275
G1 X82.401 Y97.818 E17.25609
G1 X83.033 Y97.818 E17.28549
G1 X78.572 Y102.279 E17.57884
G1 X79.204 Y102.279 E17.60824
G1 X83.666 Y97.818 E17.90159
G1 X84.298 Y97.818 E17.93099
G1 X79.837 Y102.279 E18.22434
G1 X80.469 Y102.279 E18.25374
G1 X84.931 Y97.818 E18.54709
G1 X85.564 Y97.818 E18.57649
G1 X81.102 Y102.279 E18.86984
G1 X81.734 Y102.279 E18.89924
G1 X86.196 Y97.818 E19.19259
G1 X86.829 Y97.818 E19.22199
G1 X82.367 Y102.279 E19.51533
G1 X82.999 Y102.279 E19.54474
G1 X87.461 Y97.818 E19.83808
G1 X88.094 Y97.818 E19.86749
G1 X83.632 Y102.279 E20.16083
G1 X84.264 Y102.279 E20.19024
G1 X88.726 Y97.818 E20.48358
G1 X89.359 Y97.818 E20.51299
G1 X84.897 Y102.279 E20.80633
G1 X85.530 Y102.279 E20.83574
G1 X89.991 Y97.818 E21.12908
G1 X90.624 Y97.818 E21.15849
G1 X86.162 Y102.279 E21.45183
G1 X86.795 Y102.279 E21.48124
G1 X91.256 Y97.818 E21.77458
G1 X91.889 Y97.818 E21.80399
G1 X87.427 Y102.279 E22.09733
G1 X88.060 Y102.279 E22.12674
G1 X92.522 Y97.818 E22.42008
G1 X93.154 Y97.818 E22.44949
G1 X88.692 Y102.279 E22.74283
G1 X89.325 Y102.279 E22.77224
G1 X93.787 Y97.818 E23.06558
G1 X94.419 Y97.818 E23.09499
G1 X89.957 Y102.279 E23.38833
G1 X90.590 Y102.279 E23.41773
G1 X95.052 Y97.818 E23.71108
G1 X95.684 Y97.818 E23.74048
G1 X91.222 Y102.279 E24.03383
G1 X91.855 Y102.279 E24.06323
G1 X96.317 Y97.818 E24.35658
G1 X96.949 Y97.818 E24.38598
G1 X92.487 Y102.279 E24.67933
G1 X93.120 Y102.279 E24.70873
G1 X97.582 Y97.818 E25.00208
G1 X98.214 Y97.818 E25.03148
G1 X93.753 Y102.279 E25.32483
G1 X94.385 Y102.279 E25.35423
G1 X98.847 Y97.818 E25.64757
G1 X99.479 Y97.818 E25.67698
G1 X95.018 Y102.279 E25.97032
G1 X95.650 Y102.279 E25.99973
G1 X100.112 Y97.818 E26.29307
G1 X100.745 Y97.818 E26.32248
G1 X96.283 Y102.279 E26.61582
G1 X96.915 Y102.279 E26.64523
G1 X101.377 Y97.818 E26.93857
G1 X102.010 Y97.818 E26.96798
G1 X97.548 Y102.279 E27.26132
G1 X98.180 Y102.279 E27.29073
G1 X102.642 Y97.818 E27.58407
G1 X103.275 Y97.818 E27.61348
G1 X98.813 Y102.279 E27.90682
G1 X99.445 Y102.279 E27.93623
G1 X103.907 Y97.818 E28.22957
G1 X104.540 Y97.818 E28.25898
G1 X100.078 Y102.279 E28.55232
G1 X100.711 Y102.279 E28.58173
G1 X105.172 Y97.818 E28.87507
G1 X105.805 Y97.818 E28.90448
G1 X101.343 Y102.279 E29.19782
G1 X101.976 Y102.279 E29.22722
G1 X106.437 Y97.818 E29.52057
G1 X107.070 Y97.818 E29.54997
G1 X102.608 Y102.279 E29.84332
G1 X103.241 Y102.279 E29.87272
G1 X107.703 Y97.818 E30.16607
G1 X108.335 Y97.818 E30.19547
G1 X103.873 Y102.279 E30.48882
G1 X104.506 Y102.279 E30.51822
G1 X108.968 Y97.818 E30.81157
G1 X109.600 Y97.818 E30.84097
G1 X105.138 Y102.279 E31.13432
G1 X105.771 Y102.279 E31.16372
G1 X110.233 Y97.818 E31.45707
G1 X110.865 Y97.818 E31.48647
G1 X106.403 Y102.279 E31.77981
G1 X107.036 Y102.279 E31.80922
G1 X111.498 Y97.818 E32.10256
G1 X112.130 Y97.818 E32.13197
G1 X107.669 Y102.279 E32.42531
G1 X108.301 Y102.279 E32.45472
G1 X112.763 Y97.818 E32.74806
G1 X113.395 Y97.818 E32.77747
G1 X108.934 Y102.279 E33.07081
G1 X109.566 Y102.279 E33.10022
G1 X114.028 Y97.818 E33.39356
G1 X114.661 Y97.818 E33.42297
G1 X110.199 Y102.279 E33.71631
G1 X110.831 Y102.279 E33.74572
G1 X115.293 Y97.818 E34.03906
G1 X115.926 Y97.818 E34.06847
G1 X111.464 Y102.279 E34.36181
G1 X112.096 Y102.279 E34.39122
G1 X116.558 Y97.818 E34.68456
G1 X117.191 Y97.818 E34.71397
G1 X112.729 Y102.279 E35.00731
G1 X113.361 Y102.279 E35.03672
G1 X117.823 Y97.818 E35.33006
G1 X118.456 Y97.818 E35.35947
G1 X113.994 Y102.279 E35.65281
G1 X114.626 Y102.279 E35.68221
G1 X119.088 Y97.818 E35.97556
G1 X119.721 Y97.818 E36.00496
G1 X115.259 Y102.279 E36.29831
G1 X115.892 Y102.279 E36.32771
G1 X120.353 Y97.818 E36.62106
G1 X120.986 Y97.818 E36.65046
G1 X116.524 Y102.279 E36.94381
G1 X117.157 Y102.279 E36.97321
G1 X121.618 Y97.818 E37.26656
G1 X122.251 Y97.818 E37.29596
G1 X117.789 Y102.279 E37.58931
G1 X118.422 Y102.279 E37.61871
G1 X122.884 Y97.818 E37.91205
G1 X123.516 Y97.818 E37.94146
G1 X119.054 Y102.279 E38.23480
G1 X119.687 Y102.279 E38.26421
G1 X124.149 Y97.818 E38.55755
G1 X124.781 Y97.818 E38.58696
G1 X120.319 Y102.279 E38.88030
G1 X120.952 Y102.279 E38.90971
G1 X125.414 Y97.818 E39.20305
G1 X126.046 Y97.818 E39.23246
G1 X121.584 Y102.279 E39.52580
G1 X122.217 Y102.279 E39.55521
G1 X126.679 Y97.818 E39.84855
G1 X127.311 Y97.818 E39.87796
G1 X122.850 Y102.279 E40.17130
G1 X123.482 Y102.279 E40.20071
G1 X127.944 Y97.818 E40.49405
G1 X128.576 Y97.818 E40.52346
G1 X124.115 Y102.279 E40.81680
G1 X124.747 Y102.279 E40.84621
G1 X129.209 Y97.818 E41.13955
G1 X129.842 Y97.818 E41.16896
G1 X125.380 Y102.279 E41.46230
G1 X126.012 Y102.279 E41.49170
G1 X130.474 Y97.818 E41.78505
G1 X131.107 Y97.818 E41.81445
G1 X126.645 Y102.279 E42.10780
G1 X127.277 Y102.279 E42.13720
G1 X131.739 Y97.818 E42.43055
G1 X132.372 Y97.818 E42.45995
G1 X127.910 Y102.279 E42.75330
G1 X128.542 Y102.279 E42.78270
G1 X133.004 Y97.818 E43.07605
G1 X133.637 Y97.818 E43.10545
G1 X129.175 Y102.279 E43.39880
G1 X129.808 Y102.279 E43.42820
G1 X134.269 Y97.818 E43.72154
G1 X134.902 Y97.818 E43.75095
G1 X130.440 Y102.279 E44.04429
G1 X131.073 Y102.279 E44.07370
G1 X135.534 Y97.818 E44.36704
G1 X136.167 Y97.818 E44.39645
G1 X131.705 Y102.279 E44.68979
G1 X132.338 Y102.279 E44.71920
G1 X136.799 Y97.818 E45.01254
G1 X137.432 Y97.818 E45.04195
G1 X132.970 Y102.279 E45.33529
G1 X133.603 Y102.279 E45.36470
G1 X138.065 Y97.818 E45.65804
G1 X138.697 Y97.818 E45.68745
G1 X134.235 Y102.279 E45.98079
G1 X134.868 Y102.279 E46.01020
G1 X139.330 Y97.818 E46.30354
G1 X139.962 Y97.818 E46.33295
G1 X135.500 Y102.279 E46.62629
G1 X136.133 Y102.279 E46.65570
G1 X140.595 Y97.818 E46.94904
G1 X141.227 Y97.818 E46.97845
G1 X136.765 Y102.279 E47.27179
G1 X137.398 Y102.279 E47.30120
G1 X141.860 Y97.818 E47.59454
G1 X142.492 Y97.818 E47.62394
G1 X138.031 Y102.279 E47.91729
G1 X138.663 Y102.279 E47.94669
G1 X143.125 Y97.818 E48.24004
G1 X143.757 Y97.818 E48.26944
G1 X139.296 Y102.279 E48.56279
G1 X139.928 Y102.279 E48.59219
G1 X144.390 Y97.818 E48.88554
G1 X145.023 Y97.818 E48.91494
G1 X140.561 Y102.279 E49.20829
G1 X141.193 Y102.279 E49.23769
G1 X145.655 Y97.818 E49.53104
G1 X146.288 Y97.818 E49.56044
G1 X141.826 Y102.279 E49.85378
G1 X142.458 Y102.279 E49.88319
G1 X146.920 Y97.818 E50.17653
G1 X147.553 Y97.818 E50.20594
G1 X143.091 Y102.279 E50.49928
G1 X143.723 Y102.279 E50.52869
G1 X148.185 Y97.818 E50.82203
G1 X148.818 Y97.818 E50.85144
G1 X144.356 Y102.279 E51.14478
G1 X144.989 Y102.279 E51.17419
G1 X149.450 Y97.818 E51.46753
G1 X150.083 Y97.818 E51.49694
G1 X145.621 Y102.279 E51.79028
G1 X146.254 Y102.279 E51.81969
G1 X150.715 Y97.818 E52.11303
G1 X151.348 Y97.818 E52.14244
G1 X146.886 Y102.279 E52.43578
G1 X147.519 Y102.279 E52.46519
G1 X151.981 Y97.818 E52.75853
G1 X152.294 Y97.818 E52.77309
G1 X152.294 Y98.137 E52.78793
G1 X148.151 Y102.279 E53.06029
G1 X148.784 Y102.279 E53.08970
G1 X152.294 Y98.769 E53.32046
G1 X152.294 Y99.402 E53.34987
G1 X149.416 Y102.279 E53.53905
G1 X150.049 Y102.279 E53.56846
G1 X152.294 Y100.035 E53.71605
G1 X152.294 Y100.667 E53.74546
G1 X150.681 Y102.279 E53.85146
G1 X151.314 Y102.279 E53.88087
G1 X152.294 Y101.300 E53.94529
G1 X152.294 Y101.932 E53.97470
G1 X151.946 Y102.279 E53.99753
M104 S195 ; set temperature
G1 Z0.450 F7800.000
G1 X48.869 Y102.571 F7800.000
G1 F1800
G1 X48.869 Y97.526 E54.21448
G1 X152.586 Y97.526 E58.67381
G1 X152.586 Y102.571 E58.89076
G1 X48.929 Y102.571 E63.34751
G1 X48.412 Y103.029 F7800.000
G1 F900
G1 X48.412 Y97.069 E63.54429
G1 X153.043 Y97.069 E66.99892
G1 X153.043 Y103.029 E67.19570
G1 X48.472 Y103.029 E70.64834
G1 X48.606 Y102.678 F7800.000
G1 X49.587 Y102.255 F7800.000
G1 F2160
G1 X49.185 Y101.853 E70.67295
G1 X49.185 Y101.117 E70.70479
G1 X50.323 Y102.256 E70.77443
G1 X51.059 Y102.256 E70.80626
G1 X49.185 Y100.381 E70.92092
G1 X49.185 Y99.646 E70.95275
G1 X51.795 Y102.256 E71.11244
G1 X52.531 Y102.256 E71.14427
G1 X49.185 Y98.910 E71.34897
G1 X49.185 Y98.174 E71.38081
G1 X53.267 Y102.256 E71.63053
G1 X54.003 Y102.256 E71.66236
G1 X49.589 Y97.842 E71.93242
G1 X50.324 Y97.842 E71.96425
G1 X54.738 Y102.256 E72.23431
G1 X55.474 Y102.256 E72.26615
G1 X51.060 Y97.842 E72.53621
G1 X51.796 Y97.842 E72.56804
G1 X56.210 Y102.256 E72.83810
G1 X56.946 Y102.256 E72.86994
G1 X52.532 Y97.842 E73.14000
G1 X53.268 Y97.842 E73.17183
G1 X57.682 Y102.256 E73.44189
G1 X58.417 Y102.256 E73.47372
G1 X54.004 Y97.842 E73.74378
G1 X54.739 Y97.842 E73.77562
G1 X59.153 Y102.256 E74.04568
G1 X59.889 Y102.256 E74.07751
G1 X55.475 Y97.842 E74.34757
G1 X56.211 Y97.842 E74.37941
G1 X60.625 Y102.256 E74.64946
G1 X61.361 Y102.256 E74.68130
G1 X56.947 Y97.842 E74.95136
G1 X57.683 Y97.842 E74.98319
G1 X62.097 Y102.256 E75.25325
G1 X62.832 Y102.256 E75.28509
G1 X58.418 Y97.842 E75.55515
G1 X59.154 Y97.842 E75.58698
G1 X63.568 Y102.256 E75.85704
G1 X64.304 Y102.256 E75.88887
G1 X59.890 Y97.842 E76.15893
G1 X60.626 Y97.842 E76.19077
G1 X65.040 Y102.256 E76.46083
G1 X65.776 Y102.256 E76.49266
G1 X61.362 Y97.842 E76.76272
G1 X62.098 Y97.842 E76.79456
G1 X66.511 Y102.256 E77.06462
G1 X67.247 Y102.256 E77.09645
G1 X62.833 Y97.842 E77.36651
G1 X63.569 Y97.842 E77.39834
G1 X67.983 Y102.256 E77.66840
G1 X68.719 Y102.256 E77.70024
G1 X64.305 Y97.842 E77.97030
G1 X65.041 Y97.842 E78.00213
G1 X69.455 Y102.256 E78.27219
G1 X70.191 Y102.256 E78.30403
G1 X65.777 Y97.842 E78.57409
G1 X66.512 Y97.842 E78.60592
G1 X70.926 Y102.256 E78.87598
G1 X71.662 Y102.256 E78.90781
G1 X67.248 Y97.842 E79.17787
G1 X67.984 Y97.842 E79.20971
G1 X72.398 Y102.256 E79.47977
G1 X73.134 Y102.256 E79.51160
G1 X68.720 Y97.842 E79.78166
G1 X69.456 Y97.842 E79.81349
G1 X73.870 Y102.256 E80.08355
G1 X74.605 Y102.256 E80.11539
G1 X70.192 Y97.842 E80.38545
G1 X70.927 Y97.842 E80.41728
G1 X75.341 Y102.256 E80.68734
G1 X76.077 Y102.256 E80.71918
G1 X71.663 Y97.842 E80.98924
G1 X72.399 Y97.842 E81.02107
G1 X76.813 Y102.256 E81.29113
G1 X77.549 Y102.256 E81.32296
G1 X73.135 Y97.842 E81.59302
G1 X73.871 Y97.842 E81.62486
G1 X78.285 Y102.256 E81.89492
G1 X79.020 Y102.256 E81.92675
G1 X74.606 Y97.842 E82.19681
G1 X75.342 Y97.842 E82.22865
G1 X79.756 Y102.256 E82.49871
G1 X80.492 Y102.256 E82.53054
G1 X76.078 Y97.842 E82.80060
G1 X76.814 Y97.842 E82.83243
G1 X81.228 Y102.256 E83.10249
G1 X81.964 Y102.256 E83.13433
G1 X77.550 Y97.842 E83.40439
G1 X78.286 Y97.842 E83.43622
G1 X82.699 Y102.256 E83.70628
G1 X83.435 Y102.256 E83.73812
G1 X79.021 Y97.842 E84.00818
G1 X79.757 Y97.842 E84.04001
G1 X84.171 Y102.256 E84.31007
G1 X84.907 Y102.256 E84.34190
G1 X80.493 Y97.842 E84.61196
G1 X81.229 Y97.842 E84.64380
G1 X85.643 Y102.256 E84.91386
G1 X86.379 Y102.256 E84.94569
G1 X81.965 Y97.842 E85.21575
G1 X82.700 Y97.842 E85.24758
G1 X87.114 Y102.256 E85.51764
G1 X87.850 Y102.256 E85.54948
G1 X83.436 Y97.842 E85.81954
G1 X84.172 Y97.842 E85.85137
G1 X88.586 Y102.256 E86.12143
G1 X89.322 Y102.256 E86.15327
G1 X84.908 Y97.842 E86.42333
G1 X85.644 Y97.842 E86.45516
G1 X90.058 Y102.256 E86.72522
G1 X90.794 Y102.256 E86.75705
G1 X86.380 Y97.842 E87.02711
G1 X87.115 Y97.842 E87.05895
G1 X91.529 Y102.256 E87.32901
G1 X92.265 Y102.256 E87.36084
G1 X87.851 Y97.842 E87.63090
G1 X88.587 Y97.842 E87.66273
G1 X93.001 Y102.256 E87.93279
G1 X93.737 Y102.256 E87.96463
G1 X89.323 Y97.842 E88.23469
G1 X90.059 Y97.842 E88.26652
