; generated by Slic3r 1.3.0 on 2019-01-11 at 10:45:09

; external perimeters extrusion width = 0.44mm (2.18mm^3/s)
; perimeters extrusion width = 0.56mm (5.69mm^3/s)
; infill extrusion width = 0.50mm (7.31mm^3/s)
; solid infill extrusion width = 0.56mm (2.07mm^3/s)
; top infill extrusion width = 0.56mm (1.55mm^3/s)
; support material extrusion width = 0.44mm (4.76mm^3/s)

M107
M104 S200 ; set temperature
G28
; Filament gcode

M109 S200 ; set temperature and wait for it to be reached
G21 ; set units to millimeters
G90 ; use absolute coordinates
M82 ; use absolute distances for extrusion
G92 E0
G1 Z0.250 F7800.000
G1 E-2.00000 F2400.00000
G92 E0
G1 X70.786 Y71.184 F7800.000
G1 E2.00000 F2400.00000
G1 F1800
G1 X71.408 Y70.581 E2.04016
G1 X71.838 Y70.219 E2.06625
G1 X72.540 Y69.712 E2.10642
G1 X73.283 Y69.268 E2.14659
G1 X74.062 Y68.890 E2.18676
G1 X74.343 Y68.773 E2.20085
G1 X75.127 Y68.501 E2.23936
G1 X76.000 Y68.279 E2.28118
G1 X76.856 Y68.141 E2.32137
G1 X77.415 Y68.092 E2.34744
G1 X77.984 Y68.073 E2.37384
G1 X121.183 Y68.071 E4.37795
G1 X122.585 Y68.092 E4.44298
G1 X123.446 Y68.181 E4.48314
G1 X124.296 Y68.344 E4.52332
G1 X125.129 Y68.581 E4.56349
G1 X125.938 Y68.890 E4.60367
G1 X126.717 Y69.268 E4.64382
G1 X127.460 Y69.712 E4.68399
G1 X128.162 Y70.219 E4.72416
G1 X128.816 Y70.786 E4.76433
G1 X129.419 Y71.407 E4.80449
G1 X129.965 Y72.079 E4.84466
G1 X130.451 Y72.796 E4.88484
G1 X130.856 Y73.521 E4.92335
G1 X131.110 Y74.062 E4.95108
G1 X131.226 Y74.343 E4.96517
G1 X131.510 Y75.161 E5.00535
G1 X131.722 Y76.001 E5.04554
G1 X131.859 Y76.855 E5.08569
G1 X131.908 Y77.415 E5.11177
G1 X131.927 Y77.984 E5.13817
G1 X131.929 Y121.183 E7.14228
G1 X131.908 Y122.585 E7.20731
G1 X131.819 Y123.446 E7.24751
G1 X131.656 Y124.296 E7.28765
G1 X131.419 Y125.129 E7.32782
G1 X131.110 Y125.939 E7.36801
G1 X130.732 Y126.717 E7.40816
G1 X130.288 Y127.460 E7.44832
G1 X129.781 Y128.162 E7.48849
G1 X129.214 Y128.816 E7.52866
G1 X128.592 Y129.419 E7.56883
G1 X127.921 Y129.966 E7.60900
G1 X127.460 Y130.288 E7.63509
G1 X126.717 Y130.732 E7.67525
G1 X125.938 Y131.110 E7.71543
G1 X125.129 Y131.419 E7.75560
G1 X124.839 Y131.510 E7.76969
G1 X124.000 Y131.721 E7.80984
G1 X123.145 Y131.859 E7.85002
G1 X122.585 Y131.908 E7.87611
G1 X122.016 Y131.927 E7.90251
G1 X78.817 Y131.929 E9.90662
G1 X77.415 Y131.908 E9.97164
G1 X76.554 Y131.819 E10.01181
G1 X75.703 Y131.656 E10.05202
G1 X74.871 Y131.419 E10.09214
G1 X74.062 Y131.110 E10.13232
G1 X73.283 Y130.732 E10.17249
G1 X72.540 Y130.288 E10.21266
G1 X71.838 Y129.781 E10.25282
G1 X71.184 Y129.214 E10.29300
G1 X70.581 Y128.592 E10.33317
G1 X70.056 Y127.949 E10.37169
G1 X69.712 Y127.460 E10.39942
G1 X69.268 Y126.717 E10.43959
G1 X68.890 Y125.938 E10.47976
G1 X68.773 Y125.657 E10.49385
G1 X68.490 Y124.839 E10.53401
G1 X68.279 Y123.999 E10.57419
G1 X68.141 Y123.145 E10.61435
G1 X68.092 Y122.585 E10.64044
G1 X68.073 Y122.016 E10.66684
G1 X68.071 Y78.817 E12.67095
G1 X68.092 Y77.415 E12.73598
G1 X68.181 Y76.554 E12.77615
G1 X68.344 Y75.704 E12.81632
G1 X68.581 Y74.871 E12.85648
G1 X68.890 Y74.062 E12.89666
G1 X69.268 Y73.283 E12.93682
G1 X69.712 Y72.540 E12.97699
G1 X70.219 Y71.838 E13.01716
G1 X70.746 Y71.228 E13.05455
G1 E11.05455 F2400.00000
G92 E0
G1 X117.396 Y117.333 F7800.000
G1 E2.00000 F2400.00000
G1 F1800
G1 X116.697 Y118.009 E2.04510
G1 X116.082 Y118.560 E2.08341
G1 X115.450 Y119.090 E2.12169
G1 X114.800 Y119.598 E2.15997
G1 X114.133 Y120.084 E2.19825
G1 X113.450 Y120.548 E2.23653
G1 X112.041 Y121.404 E2.31305
G1 X111.314 Y121.797 E2.35136
G1 X110.574 Y122.165 E2.38971
G1 X109.825 Y122.508 E2.42791
G1 X109.064 Y122.825 E2.46619
G1 X107.511 Y123.382 E2.54272
G1 X106.721 Y123.621 E2.58102
G1 X105.923 Y123.834 E2.61930
G1 X105.119 Y124.019 E2.65758
G1 X104.310 Y124.177 E2.69586
G1 X103.495 Y124.309 E2.73414
G1 X102.676 Y124.412 E2.77242
G1 X101.855 Y124.488 E2.81070
G1 X100.207 Y124.558 E2.88723
G1 X99.381 Y124.551 E2.92553
G1 X98.557 Y124.516 E2.96381
G1 X97.734 Y124.454 E3.00209
G1 X96.914 Y124.364 E3.04037
G1 X96.097 Y124.246 E3.07865
G1 X95.285 Y124.102 E3.11693
G1 X94.478 Y123.930 E3.15521
G1 X93.677 Y123.731 E3.19349
G1 X92.883 Y123.505 E3.23177
G1 X92.098 Y123.253 E3.27005
G1 X90.555 Y122.670 E3.34658
G1 X89.798 Y122.339 E3.38488
G1 X89.053 Y121.984 E3.42316
G1 X88.321 Y121.604 E3.46144
G1 X87.602 Y121.199 E3.49972
G1 X86.897 Y120.771 E3.53800
G1 X86.206 Y120.319 E3.57628
G1 X85.531 Y119.844 E3.61456
G1 X84.873 Y119.347 E3.65284
G1 X84.232 Y118.828 E3.69112
G1 X83.608 Y118.287 E3.72940
G1 X83.003 Y117.726 E3.76768
G1 X82.417 Y117.145 E3.80596
G1 X81.851 Y116.545 E3.84424
G1 X81.305 Y115.926 E3.88252
G1 X80.781 Y115.289 E3.92082
G1 X80.278 Y114.635 E3.95908
G1 X79.798 Y113.964 E3.99736
G1 X79.340 Y113.277 E4.03564
G1 X78.906 Y112.576 E4.07392
G1 X78.495 Y111.860 E4.11220
G1 X78.109 Y111.131 E4.15048
G1 X77.411 Y109.636 E4.22701
G1 X77.100 Y108.872 E4.26531
G1 X76.815 Y108.097 E4.30359
G1 X76.556 Y107.314 E4.34187
G1 X76.323 Y106.522 E4.38015
G1 X76.118 Y105.723 E4.41843
G1 X75.939 Y104.918 E4.45671
G1 X75.787 Y104.106 E4.49499
G1 X75.663 Y103.291 E4.53327
G1 X75.566 Y102.471 E4.57155
G1 X75.497 Y101.649 E4.60983
G1 X75.441 Y100.000 E4.68635
G1 X75.455 Y99.175 E4.72465
G1 X75.497 Y98.351 E4.76293
G1 X75.566 Y97.529 E4.80121
G1 X75.663 Y96.709 E4.83949
G1 X75.787 Y95.894 E4.87777
G1 X76.117 Y94.277 E4.95430
G1 X76.323 Y93.478 E4.99260
G1 X76.556 Y92.686 E5.03088
G1 X76.815 Y91.903 E5.06916
G1 X77.100 Y91.128 E5.10744
G1 X77.411 Y90.364 E5.14572
G1 X77.747 Y89.611 E5.18400
G1 X78.109 Y88.869 E5.22228
G1 X78.495 Y88.140 E5.26056
G1 X78.906 Y87.424 E5.29884
G1 X79.340 Y86.723 E5.33712
G1 X79.798 Y86.036 E5.37540
G1 X80.278 Y85.365 E5.41368
G1 X80.781 Y84.711 E5.45194
G1 X81.305 Y84.074 E5.49024
G1 X81.851 Y83.455 E5.52852
G1 X82.417 Y82.855 E5.56680
G1 X83.003 Y82.274 E5.60508
G1 X83.608 Y81.713 E5.64336
G1 X84.232 Y81.172 E5.68164
G1 X84.873 Y80.653 E5.71992
G1 X85.531 Y80.156 E5.75820
G1 X86.206 Y79.681 E5.79648
G1 X86.897 Y79.229 E5.83476
G1 X87.602 Y78.801 E5.87304
G1 X88.321 Y78.396 E5.91132
G1 X89.053 Y78.016 E5.94960
G1 X89.798 Y77.661 E5.98788
G1 X90.554 Y77.331 E6.02616
G1 X91.321 Y77.026 E6.06444
G1 X91.974 Y76.792 E6.09664
G1 X92.883 Y76.495 E6.14097
G1 X93.677 Y76.269 E6.17928
G1 X94.385 Y76.093 E6.21311
G1 X95.284 Y75.898 E6.25581
G1 X96.097 Y75.754 E6.29411
G1 X96.819 Y75.650 E6.32795
G1 X97.734 Y75.546 E6.37065
G1 X98.557 Y75.484 E6.40895
G1 X99.381 Y75.449 E6.44723
G1 X101.031 Y75.463 E6.52376
G1 X101.855 Y75.512 E6.56206
G1 X102.676 Y75.588 E6.60034
G1 X103.495 Y75.691 E6.63862
G1 X104.310 Y75.822 E6.67690
G1 X105.119 Y75.981 E6.71518
G1 X105.923 Y76.166 E6.75346
G1 X106.721 Y76.379 E6.79174
G1 X107.511 Y76.618 E6.83002
G1 X108.292 Y76.884 E6.86830
G1 X109.064 Y77.175 E6.90658
G1 X109.825 Y77.492 E6.94486
G1 X110.574 Y77.835 E6.98306
G1 X111.314 Y78.203 E7.02142
G1 X112.040 Y78.595 E7.05970
G1 X113.450 Y79.452 E7.13623
G1 X114.133 Y79.916 E7.17453
G1 X114.800 Y80.402 E7.21281
G1 X115.450 Y80.910 E7.25109
G1 X116.082 Y81.440 E7.28937
G1 X117.292 Y82.561 E7.36590
G1 X117.869 Y83.152 E7.40420
G1 X118.424 Y83.762 E7.44248
G1 X118.959 Y84.390 E7.48076
G1 X119.473 Y85.036 E7.51904
G1 X119.965 Y85.699 E7.55732
G1 X120.880 Y87.071 E7.63384
G1 X121.303 Y87.780 E7.67214
G1 X121.701 Y88.503 E7.71042
G1 X122.074 Y89.235 E7.74854
G1 X122.424 Y89.986 E7.78698
G1 X122.748 Y90.745 E7.82526
G1 X123.046 Y91.514 E7.86354
G1 X123.318 Y92.293 E7.90182
G1 X123.564 Y93.081 E7.94010
G1 X123.783 Y93.877 E7.97838
G1 X123.975 Y94.679 E8.01666
G1 X124.140 Y95.487 E8.05494
G1 X124.278 Y96.301 E8.09322
G1 X124.389 Y97.119 E8.13150
G1 X124.472 Y97.939 E8.16978
G1 X124.555 Y99.587 E8.24631
G1 X124.555 Y100.413 E8.28461
G1 X124.527 Y101.237 E8.32289
G1 X124.472 Y102.060 E8.36117
G1 X124.389 Y102.881 E8.39945
G1 X124.278 Y103.699 E8.43773
G1 X124.140 Y104.513 E8.47601
G1 X123.975 Y105.321 E8.51429
G1 X123.783 Y106.123 E8.55257
G1 X123.564 Y106.919 E8.59085
G1 X123.318 Y107.707 E8.62913
G1 X123.046 Y108.486 E8.66741
G1 X122.748 Y109.255 E8.70569
G1 X122.424 Y110.014 E8.74397
G1 X122.074 Y110.765 E8.78241
G1 X121.701 Y111.497 E8.82053
G1 X121.303 Y112.220 E8.85881
G1 X120.880 Y112.928 E8.89709
G1 X120.434 Y113.623 E8.93537
G1 X119.965 Y114.301 E8.97365
G1 X119.473 Y114.964 E9.01193
G1 X118.959 Y115.610 E9.05021
G1 X118.423 Y116.239 E9.08858
G1 X117.437 Y117.289 E9.15541
G1 X117.396 Y117.333 F7800.000
G1 E7.15541 F2400.00000
G92 E0
G1 X95.223 Y75.455 F7800.000
G1 E2.00000 F2400.00000
G1 F1800
G1 X94.284 Y75.659 E2.04462
G1 X93.562 Y75.838 E2.07911
G1 X92.752 Y76.068 E2.11816
G1 X91.830 Y76.369 E2.16319
G1 X91.163 Y76.608 E2.19603
G1 X90.383 Y76.919 E2.23501
G1 X89.613 Y77.255 E2.27398
G1 X88.854 Y77.616 E2.31296
G1 X88.109 Y78.003 E2.35193
G1 X87.376 Y78.415 E2.39091
G1 X86.658 Y78.852 E2.42989
G1 X85.956 Y79.312 E2.46886
G1 X85.268 Y79.795 E2.50784
G1 X84.598 Y80.302 E2.54681
G1 X83.945 Y80.830 E2.58579
G1 X83.310 Y81.380 E2.62476
G1 X82.694 Y81.951 E2.66374
G1 X82.097 Y82.543 E2.70272
G1 X81.521 Y83.154 E2.74169
G1 X80.966 Y83.785 E2.78067
G1 X80.431 Y84.434 E2.81967
G1 X79.920 Y85.099 E2.85862
G1 X79.430 Y85.782 E2.89759
G1 X78.964 Y86.481 E2.93657
G1 X78.522 Y87.196 E2.97555
G1 X78.104 Y87.924 E3.01452
G1 X77.711 Y88.667 E3.05350
G1 X77.343 Y89.422 E3.09247
G1 X77.000 Y90.189 E3.13145
G1 X76.684 Y90.967 E3.17042
G1 X76.393 Y91.756 E3.20940
G1 X76.130 Y92.553 E3.24838
G1 X75.893 Y93.359 E3.28735
G1 X75.683 Y94.174 E3.32638
G1 X75.458 Y95.226 E3.37628
G1 X75.215 Y95.203 E3.38761
G1 X75.216 Y78.015 E4.18500
G1 X75.259 Y77.517 E4.20822
G1 X75.384 Y77.048 E4.23073
G1 X75.472 Y76.837 E4.24134
G1 X75.712 Y76.418 E4.26375
G1 X76.032 Y76.032 E4.28700
G1 X76.403 Y75.720 E4.30951
G1 X76.608 Y75.589 E4.32078
G1 X77.035 Y75.390 E4.34263
G1 X77.501 Y75.263 E4.36504
G1 X78.015 Y75.216 E4.38900
G1 X95.198 Y75.216 E5.18614
G1 X95.217 Y75.395 E5.19452
G1 E3.19452 F2400.00000
G92 E0
G1 X104.769 Y75.458 F7800.000
G1 E2.00000 F2400.00000
G1 F1800
G1 X104.793 Y75.216 E2.01128
G1 X121.985 Y75.216 E2.80887
G1 X122.483 Y75.259 E2.83209
G1 X122.952 Y75.384 E2.85460
G1 X123.392 Y75.589 E2.87711
G1 X123.585 Y75.712 E2.88771
G1 X123.956 Y76.022 E2.91013
G1 X124.280 Y76.403 E2.93338
G1 X124.523 Y76.824 E2.95589
G1 X124.689 Y77.280 E2.97840
G1 X124.772 Y77.747 E3.00043
G1 X124.786 Y78.822 E3.05029
G1 X124.786 Y95.212 E3.81070
G1 X124.545 Y95.237 E3.82193
G1 X124.411 Y94.582 E3.85292
G1 X124.215 Y93.765 E3.89189
G1 X123.992 Y92.955 E3.93087
G1 X123.742 Y92.153 E3.96984
G1 X123.465 Y91.360 E4.00882
G1 X123.161 Y90.577 E4.04779
G1 X122.832 Y89.804 E4.08677
G1 X122.475 Y89.040 E4.12591
G1 X122.096 Y88.294 E4.16472
G1 X121.690 Y87.558 E4.20370
G1 X121.259 Y86.835 E4.24273
G1 X120.751 Y86.050 E4.28613
G1 X120.328 Y85.439 E4.32062
G1 X119.827 Y84.764 E4.35960
G1 X119.304 Y84.107 E4.39857
G1 X118.759 Y83.467 E4.43755
G1 X118.193 Y82.846 E4.47653
G1 X117.606 Y82.244 E4.51556
G1 X116.375 Y81.102 E4.59344
G1 X115.731 Y80.563 E4.63242
G1 X115.069 Y80.046 E4.67139
G1 X114.390 Y79.551 E4.71037
G1 X113.694 Y79.078 E4.74940
G1 X112.901 Y78.582 E4.79280
G1 X112.259 Y78.206 E4.82729
G1 X111.520 Y77.807 E4.86627
G1 X110.767 Y77.432 E4.90532
G1 X110.004 Y77.083 E4.94422
G1 X109.228 Y76.760 E4.98320
G1 X108.442 Y76.463 E5.02217
G1 X107.647 Y76.193 E5.06115
G1 X106.843 Y75.950 E5.10012
G1 X106.031 Y75.733 E5.13910
G1 X104.828 Y75.469 E5.19624
G1 E3.19624 F2400.00000
G92 E0
G1 X124.544 Y104.766 F7800.000
G1 E2.00000 F2400.00000
G1 F1800
G1 X124.785 Y104.790 E2.01123
G1 X124.784 Y121.985 E2.80895
G1 X124.741 Y122.483 E2.83216
G1 X124.616 Y122.952 E2.85468
G1 X124.528 Y123.163 E2.86528
G1 X124.288 Y123.582 E2.88769
G1 X123.968 Y123.968 E2.91094
G1 X123.597 Y124.280 E2.93346
G1 X123.176 Y124.523 E2.95597
G1 X122.720 Y124.689 E2.97848
G1 X122.253 Y124.772 E3.00050
G1 X121.178 Y124.786 E3.05036
G1 X104.786 Y124.786 E3.81084
G1 X104.763 Y124.544 E3.82212
G1 X106.031 Y124.267 E3.88235
G1 X106.843 Y124.050 E3.92133
G1 X107.648 Y123.807 E3.96036
G1 X108.533 Y123.503 E4.00376
G1 X109.228 Y123.240 E4.03825
G1 X110.004 Y122.917 E4.07723
G1 X110.767 Y122.568 E4.11613
G1 X111.520 Y122.193 E4.15518
G1 X112.260 Y121.793 E4.19421
G1 X113.695 Y120.921 E4.27209
G1 X114.390 Y120.449 E4.31107
G1 X115.069 Y119.954 E4.35005
G1 X115.731 Y119.437 E4.38902
G1 X116.375 Y118.898 E4.42800
G1 X117.002 Y118.336 E4.46705
G1 X117.714 Y117.646 E4.51304
G1 X118.756 Y116.537 E4.58364
G1 X119.304 Y115.893 E4.62286
G1 X119.827 Y115.236 E4.66184
G1 X120.328 Y114.561 E4.70081
G1 X120.805 Y113.870 E4.73979
G1 X121.260 Y113.163 E4.77877
G1 X121.690 Y112.442 E4.81774
G1 X122.096 Y111.706 E4.85672
G1 X122.475 Y110.960 E4.89553
G1 X122.832 Y110.196 E4.93467
G1 X123.161 Y109.423 E4.97364
G1 X123.465 Y108.640 E5.01262
G1 X123.742 Y107.847 E5.05160
G1 X123.992 Y107.045 E5.09057
G1 X124.215 Y106.235 E5.12955
G1 X124.532 Y104.824 E5.19661
G1 E3.19661 F2400.00000
G92 E0
G1 X95.226 Y124.545 F7800.000
G1 E2.00000 F2400.00000
G1 F1800
G1 X95.200 Y124.785 E2.01118
G1 X78.015 Y124.784 E2.80845
G1 X77.517 Y124.741 E2.83166
G1 X77.048 Y124.616 E2.85418
G1 X76.608 Y124.411 E2.87669
G1 X76.211 Y124.132 E2.89920
G1 X76.032 Y123.968 E2.91046
G1 X75.720 Y123.597 E2.93298
G1 X75.477 Y123.176 E2.95549
G1 X75.311 Y122.720 E2.97800
G1 X75.228 Y122.253 E3.00002
G1 X75.214 Y121.178 E3.04988
G1 X75.214 Y104.794 E3.80998
G1 X75.457 Y104.772 E3.82131
G1 X75.683 Y105.827 E3.87138
G1 X75.893 Y106.641 E3.91035
G1 X76.130 Y107.447 E3.94933
G1 X76.393 Y108.244 E3.98830
G1 X76.684 Y109.033 E4.02728
G1 X77.001 Y109.812 E4.06631
G1 X77.711 Y111.333 E4.14420
G1 X78.104 Y112.076 E4.18317
G1 X78.522 Y112.804 E4.22215
G1 X78.964 Y113.519 E4.26112
G1 X79.430 Y114.218 E4.30010
G1 X79.920 Y114.901 E4.33907
G1 X80.431 Y115.566 E4.37803
G1 X80.966 Y116.215 E4.41703
G1 X81.521 Y116.846 E4.45600
G1 X82.097 Y117.457 E4.49498
G1 X82.694 Y118.049 E4.53395
G1 X83.310 Y118.620 E4.57293
G1 X83.945 Y119.170 E4.61191
G1 X84.598 Y119.698 E4.65088
G1 X85.268 Y120.205 E4.68986
G1 X85.956 Y120.688 E4.72883
G1 X86.658 Y121.148 E4.76781
G1 X87.376 Y121.585 E4.80678
G1 X88.109 Y121.997 E4.84576
G1 X88.854 Y122.384 E4.88474
G1 X89.613 Y122.745 E4.92371
G1 X90.384 Y123.082 E4.96274
G1 X91.254 Y123.424 E5.00614
G1 X91.954 Y123.675 E5.04064
G1 X92.754 Y123.932 E5.07961
G1 X93.562 Y124.162 E5.11859
G1 X94.377 Y124.365 E5.15756
G1 X95.167 Y124.533 E5.19501
G1 X95.226 Y125.232 F7800.000
G1 F1800
G1 X77.718 Y125.218 E6.00722
G1 X77.439 Y125.181 E6.02029
G1 X76.895 Y125.036 E6.04642
G1 X76.635 Y124.928 E6.05949
G1 X76.147 Y124.646 E6.08561
G1 X75.923 Y124.475 E6.09869
G1 X75.525 Y124.077 E6.12481
G1 X75.354 Y123.853 E6.13789
G1 X75.072 Y123.365 E6.16401
G1 X74.880 Y122.836 E6.19014
G1 X74.819 Y122.561 E6.20321
G1 X74.782 Y122.285 E6.21611
G1 X74.767 Y121.181 E6.26733
G1 X74.769 Y78.005 E8.27037
G1 X74.819 Y77.439 E8.29675
G1 X74.880 Y77.164 E8.30983
G1 X75.070 Y76.639 E8.33571
G1 X75.339 Y76.171 E8.36075
G1 X75.526 Y75.923 E8.37520
G1 X75.923 Y75.525 E8.40127
G1 X76.147 Y75.354 E8.41434
G1 X76.385 Y75.202 E8.42742
G1 X76.890 Y74.966 E8.45330
G1 X77.411 Y74.825 E8.47834
G1 X77.720 Y74.782 E8.49279
G1 X78.005 Y74.769 E8.50606
G1 X121.995 Y74.769 E10.54683
G1 X122.282 Y74.782 E10.56016
G1 X122.836 Y74.880 E10.58628
G1 X123.365 Y75.072 E10.61241
G1 X123.615 Y75.202 E10.62548
G1 X123.849 Y75.351 E10.63832
G1 X124.263 Y75.697 E10.66335
G1 X124.475 Y75.924 E10.67780
G1 X124.646 Y76.147 E10.69082
G1 X124.928 Y76.635 E10.71695
G1 X125.036 Y76.895 E10.73002
G1 X125.120 Y77.164 E10.74310
G1 X125.218 Y77.715 E10.76905
G1 X125.233 Y78.819 E10.82026
G1 X125.231 Y121.995 E12.82331
G1 X125.181 Y122.561 E12.84969
G1 X125.120 Y122.836 E12.86276
G1 X124.930 Y123.361 E12.88865
G1 X124.661 Y123.829 E12.91368
G1 X124.474 Y124.077 E12.92813
G1 X124.077 Y124.475 E12.95420
G1 X123.853 Y124.646 E12.96728
G1 X123.365 Y124.928 E12.99340
G1 X123.105 Y125.036 E13.00648
G1 X122.836 Y125.120 E13.01955
G1 X122.285 Y125.218 E13.04550
G1 X121.181 Y125.233 E13.09672
G1 X95.286 Y125.232 E14.29809
G1 X95.026 Y124.885 F7800.000
G1 X95.435 Y124.684 F7800.000
G1 F1800
G1 X96.014 Y124.736 E14.33080
