; generated by Slic3r 1.3.0 on 2019-04-29 at 19:26:47

; external perimeters extrusion width = 0.44mm (1.19mm^3/s)
; perimeters extrusion width = 0.56mm (3.10mm^3/s)
; infill extrusion width = 0.50mm (5.48mm^3/s)
; solid infill extrusion width = 0.56mm (3.72mm^3/s)
; top infill extrusion width = 0.56mm (1.55mm^3/s)

M107
M104 S200 ; set temperature
G28 ; home all axes
M150 B180 G210
M150 B180 G210
G92 E0
G1 E6 F1800
; Filament gcode

M109 S200 ; set temperature and wait for it to be reached
G21 ; set units to millimeters
G90 ; use absolute coordinates
M82 ; use absolute distances for extrusion
G92 E0
G1 Z0.250 F7800.000
G1 E-1.20000 F2400.00000
G92 E0
G1 X92.967 Y76.020 F7800.000
G1 E1.20000 F2400.00000
G1 F1560
G1 X94.714 Y74.582 E1.28396
G1 X97.875 Y73.754 E1.40525
G1 X102.125 Y73.754 E1.56299
G1 X104.352 Y74.151 E1.64694
G1 X106.305 Y75.292 E1.73090
G1 X107.743 Y77.039 E1.81486
G1 X108.571 Y80.200 E1.93615
G1 X108.571 Y119.800 E3.40587
G1 X108.174 Y122.027 E3.48983
G1 X107.033 Y123.980 E3.57378
G1 X105.286 Y125.418 E3.65774
G1 X102.125 Y126.246 E3.77904
G1 X97.875 Y126.246 E3.93677
G1 X95.648 Y125.849 E4.02073
G1 X93.695 Y124.708 E4.10468
G1 X92.257 Y122.961 E4.18864
G1 X91.429 Y119.800 E4.30994
G1 X91.429 Y80.200 E5.77966
G1 X91.826 Y77.973 E5.86361
G1 X92.937 Y76.072 E5.94534
G1 E4.74534 F2400.00000
G92 E0
G1 X101.429 Y119.104 F7800.000
G1 E1.20000 F2400.00000
G1 F1560
G1 X98.571 Y119.104 E1.30605
G1 X98.571 Y116.196 E1.41395
G1 X101.429 Y116.196 E1.51999
G1 X101.429 Y119.044 E1.62567
G1 X101.875 Y119.550 F7800.000
G1 F1560
G1 X98.125 Y119.550 E1.76485
G1 X98.125 Y115.750 E1.90588
G1 X101.875 Y115.750 E2.04506
G1 X101.875 Y119.490 E2.18387
G1 X101.489 Y119.446 F7800.000
G1 X100.809 Y118.831 F7800.000
G1 F1560
G1 X101.156 Y118.484 E2.20302
G1 X101.156 Y117.820 E2.22888
G1 X100.145 Y118.831 E2.28460
G1 X99.482 Y118.831 E2.31045
G1 X101.156 Y117.157 E2.40274
G1 X101.156 Y116.494 E2.42860
G1 X98.844 Y118.806 E2.55608
G1 X98.844 Y118.143 E2.58194
G1 X100.518 Y116.469 E2.67423
G1 X99.855 Y116.469 E2.70009
G1 X98.844 Y117.480 E2.75581
G1 X98.844 Y116.816 E2.78167
G1 X99.191 Y116.469 E2.80082
G1 E1.60082 F2400.00000
G92 E0
G1 X101.429 Y107.804 F7800.000
G1 E1.20000 F2400.00000
G1 F1560
G1 X98.571 Y107.804 E1.30605
G1 X98.571 Y90.196 E1.95953
G1 X101.429 Y90.196 E2.06557
G1 X101.429 Y107.744 E2.71682
G1 X101.875 Y108.250 F7800.000
G1 F1560
G1 X98.125 Y108.250 E2.85600
G1 X98.125 Y89.750 E3.54261
G1 X101.875 Y89.750 E3.68179
G1 X101.875 Y108.190 E4.36618
G1 X101.516 Y108.074 F7800.000
G1 X100.809 Y107.531 F7800.000
G1 F1560
G1 X101.156 Y107.184 E4.38478
G1 X101.156 Y106.539 E4.40917
G1 X100.164 Y107.531 E4.46227
G1 X99.520 Y107.531 E4.48666
G1 X101.156 Y105.895 E4.57426
G1 X101.156 Y105.251 E4.59865
G1 X98.876 Y107.531 E4.72074
G1 X98.844 Y107.531 E4.72196
G1 X98.844 Y106.919 E4.74513
G1 X101.156 Y104.607 E4.86895
G1 X101.156 Y103.963 E4.89334
G1 X98.844 Y106.275 E5.01716
G1 X98.844 Y105.631 E5.04155
G1 X101.156 Y103.319 E5.16536
G1 X101.156 Y102.675 E5.18976
G1 X98.844 Y104.987 E5.31357
G1 X98.844 Y104.343 E5.33796
G1 X101.156 Y102.031 E5.46178
G1 X101.156 Y101.387 E5.48617
G1 X98.844 Y103.698 E5.60999
G1 X98.844 Y103.054 E5.63438
G1 X101.156 Y100.743 E5.75820
G1 X101.156 Y100.098 E5.78259
G1 X98.844 Y102.410 E5.90640
G1 X98.844 Y101.766 E5.93080
G1 X101.156 Y99.454 E6.05461
G1 X101.156 Y98.810 E6.07900
G1 X98.844 Y101.122 E6.20282
G1 X98.844 Y100.478 E6.22721
G1 X101.156 Y98.166 E6.35103
G1 X101.156 Y97.522 E6.37542
G1 X98.844 Y99.834 E6.49924
G1 X98.844 Y99.190 E6.52363
G1 X101.156 Y96.878 E6.64744
G1 X101.156 Y96.234 E6.67184
G1 X98.844 Y98.546 E6.79565
G1 X98.844 Y97.902 E6.82004
G1 X101.156 Y95.590 E6.94386
G1 X101.156 Y94.946 E6.96825
G1 X98.844 Y97.257 E7.09207
G1 X98.844 Y96.613 E7.11646
G1 X101.156 Y94.302 E7.24028
G1 X101.156 Y93.657 E7.26467
G1 X98.844 Y95.969 E7.38848
G1 X98.844 Y95.325 E7.41288
G1 X101.156 Y93.013 E7.53669
G1 X101.156 Y92.369 E7.56108
G1 X98.844 Y94.681 E7.68490
G1 X98.844 Y94.037 E7.70929
G1 X101.156 Y91.725 E7.83311
G1 X101.156 Y91.081 E7.85750
G1 X98.844 Y93.393 E7.98132
G1 X98.844 Y92.749 E8.00571
G1 X101.124 Y90.469 E8.12780
G1 X100.480 Y90.469 E8.15219
G1 X98.844 Y92.105 E8.23979
G1 X98.844 Y91.461 E8.26418
G1 X99.836 Y90.469 E8.31728
G1 X99.191 Y90.469 E8.34167
G1 X98.844 Y90.816 E8.36027
G1 E7.16027 F2400.00000
G92 E0
G1 X101.429 Y81.804 F7800.000
G1 E1.20000 F2400.00000
G1 F1560
G1 X98.571 Y81.804 E1.30605
G1 X98.571 Y80.896 E1.33972
G1 X101.429 Y80.896 E1.44577
G1 X101.429 Y81.744 E1.47721
G1 X101.875 Y82.250 F7800.000
G1 F1560
G1 X98.125 Y82.250 E1.61639
G1 X98.125 Y80.450 E1.68320
G1 X101.875 Y80.450 E1.82237
G1 X101.875 Y82.190 E1.88695
G1 X101.479 Y82.191 F7800.000
G1 X101.205 Y81.350 F7800.000
G1 F1560
G1 X98.795 Y81.350 E1.96861
G1 Z0.450 F7800.000
G1 E0.76861 F2400.00000
G92 E0
G1 X101.673 Y116.177 F7800.000
G1 E1.20000 F2400.00000
G1 F360
G1 X101.673 Y119.123 E1.30133
G1 X98.327 Y119.123 E1.41641
G1 X98.327 Y116.177 E1.51774
G1 X101.613 Y116.177 E1.63076
G1 X102.130 Y115.720 F7800.000
G1 F360
G1 X102.130 Y119.580 E1.73272
G1 X97.870 Y119.580 E1.84524
G1 X97.870 Y115.720 E1.94720
G1 X102.070 Y115.720 E2.05813
G1 X102.020 Y116.105 F7800.000
G1 X101.357 Y116.895 F7800.000
G1 F2160
G1 X100.955 Y116.493 E2.08074
G1 X100.110 Y116.493 E2.11430
G1 X101.357 Y117.740 E2.18436
G1 X101.357 Y118.585 E2.21791
G1 X99.265 Y116.493 E2.33543
G1 X98.643 Y116.493 E2.36015
G1 X98.643 Y116.715 E2.36899
G1 X100.735 Y118.807 E2.48650
G1 X99.890 Y118.807 E2.52006
G1 X98.643 Y117.560 E2.59012
G1 X98.643 Y118.405 E2.62368
G1 X99.045 Y118.807 E2.64627
G1 E1.44627 F2400.00000
G92 E0
G1 X101.673 Y107.823 F7800.000
G1 E1.20000 F2400.00000
G1 F1800
G1 X98.327 Y107.823 E1.31508
G1 X98.327 Y90.177 E1.92204
G1 X101.673 Y90.177 E2.03712
G1 X101.673 Y107.763 E2.64201
G1 X102.130 Y108.280 F7800.000
G1 F900
G1 X97.870 Y108.280 E2.75453
G1 X97.870 Y89.720 E3.24477
G1 X102.130 Y89.720 E3.35730
G1 X102.130 Y108.220 E3.84595
G1 X101.770 Y108.107 F7800.000
G1 E2.64595 F2400.00000
G92 E0
G1 X99.045 Y107.507 F7800.000
G1 E1.20000 F2400.00000
G1 F2160
G1 X98.643 Y107.105 E1.22025
G1 X98.643 Y106.348 E1.24720
G1 X99.802 Y107.507 E1.30557
G1 X100.559 Y107.507 E1.33252
G1 X98.643 Y105.591 E1.42900
G1 X98.643 Y104.834 E1.45595
G1 X101.316 Y107.507 E1.59054
G1 X101.357 Y107.507 E1.59200
G1 X101.357 Y106.791 E1.61749
G1 X98.643 Y104.077 E1.75414
G1 X98.643 Y103.320 E1.78109
G1 X101.357 Y106.034 E1.91774
G1 X101.357 Y105.277 E1.94469
G1 X98.643 Y102.563 E2.08134
G1 X98.643 Y101.806 E2.10829
G1 X101.357 Y104.520 E2.24494
G1 X101.357 Y103.763 E2.27189
G1 X98.643 Y101.049 E2.40853
G1 X98.643 Y100.292 E2.43548
G1 X101.357 Y103.006 E2.57213
G1 X101.357 Y102.249 E2.59908
G1 X98.643 Y99.535 E2.73573
G1 X98.643 Y98.778 E2.76268
G1 X101.357 Y101.492 E2.89933
G1 X101.357 Y100.735 E2.92628
G1 X98.643 Y98.021 E3.06293
G1 X98.643 Y97.265 E3.08987
G1 X101.357 Y99.978 E3.22652
G1 X101.357 Y99.222 E3.25347
G1 X98.643 Y96.508 E3.39012
G1 X98.643 Y95.751 E3.41707
G1 X101.357 Y98.465 E3.55372
G1 X101.357 Y97.708 E3.58067
G1 X98.643 Y94.994 E3.71732
G1 X98.643 Y94.237 E3.74427
G1 X101.357 Y96.951 E3.88091
G1 X101.357 Y96.194 E3.90786
G1 X98.643 Y93.480 E4.04451
G1 X98.643 Y92.723 E4.07146
G1 X101.357 Y95.437 E4.20811
G1 X101.357 Y94.680 E4.23506
G1 X98.643 Y91.966 E4.37171
G1 X98.643 Y91.209 E4.39866
G1 X101.357 Y93.923 E4.53531
G1 X101.357 Y93.166 E4.56226
G1 X98.684 Y90.493 E4.69685
G1 X99.441 Y90.493 E4.72380
G1 X101.357 Y92.409 E4.82028
G1 X101.357 Y91.652 E4.84723
G1 X100.198 Y90.493 E4.90560
G1 X100.955 Y90.493 E4.93255
G1 X101.357 Y90.895 E4.95281
G1 E3.75281 F2400.00000
G92 E0
G1 X101.673 Y81.823 F7800.000
G1 E1.20000 F2400.00000
G1 F360
G1 X98.327 Y81.823 E1.31508
G1 X98.327 Y80.877 E1.34762
G1 X101.673 Y80.877 E1.46270
G1 X101.673 Y81.763 E1.49317
G1 X102.130 Y82.280 F7800.000
G1 F360
G1 X97.870 Y82.280 E1.60570
G1 X97.870 Y80.420 E1.65483
G1 X102.130 Y80.420 E1.76735
G1 X102.130 Y82.220 E1.81489
G1 X101.734 Y82.225 F7800.000
G1 X101.414 Y81.350 F7800.000
G1 F1200
G1 X98.586 Y81.350 E1.88750
G1 Z0.650 F7800.000
G1 E0.68750 F2400.00000
G92 E0
G1 X101.873 Y116.177 F7800.000
G1 E1.20000 F2400.00000
G1 F360
G1 X101.873 Y119.123 E1.30133
G1 X98.127 Y119.123 E1.43017
G1 X98.127 Y116.177 E1.53150
G1 X101.813 Y116.177 E1.65827
G1 X102.330 Y115.720 F7800.000
G1 F360
G1 X102.330 Y119.580 E1.76023
G1 X97.670 Y119.580 E1.88332
G1 X97.670 Y115.720 E1.98528
G1 X102.270 Y115.720 E2.10678
G1 X102.214 Y116.103 F7800.000
G1 X101.155 Y118.807 F7800.000
G1 F2160
G1 X101.557 Y118.405 E2.12740
G1 X101.557 Y117.634 E2.15533
G1 X100.384 Y118.807 E2.21545
G1 X99.614 Y118.807 E2.24337
G1 X101.557 Y116.864 E2.34298
G1 X101.557 Y116.493 E2.35641
G1 X101.157 Y116.493 E2.37091
G1 X98.843 Y118.807 E2.48951
G1 X98.443 Y118.807 E2.50400
G1 X98.443 Y118.436 E2.51743
G1 X100.386 Y116.493 E2.61704
G1 X99.616 Y116.493 E2.64497
G1 X98.443 Y117.666 E2.70508
G1 X98.443 Y116.895 E2.73301
G1 X98.845 Y116.493 E2.75363
G1 E1.55363 F2400.00000
G92 E0
G1 X101.873 Y107.823 F7800.000
G1 E1.20000 F2400.00000
G1 F1800
G1 X98.127 Y107.823 E1.32884
G1 X98.127 Y90.177 E1.93579
G1 X101.873 Y90.177 E2.06464
G1 X101.873 Y107.763 E2.66953
G1 X102.330 Y108.280 F7800.000
G1 F900
G1 X97.670 Y108.280 E2.79261
G1 X97.670 Y89.720 E3.28285
G1 X102.330 Y89.720 E3.40594
G1 X102.330 Y108.220 E3.89460
G1 X101.968 Y108.109 F7800.000
G1 X101.155 Y107.507 F7800.000
G1 F2160
G1 X101.557 Y107.105 E3.91449
G1 X101.557 Y106.361 E3.94047
G1 X100.411 Y107.507 E3.99710
G1 X99.668 Y107.507 E4.02308
G1 X101.557 Y105.618 E4.11646
G1 X101.557 Y104.875 E4.14244
G1 X98.925 Y107.507 E4.27256
G1 X98.443 Y107.507 E4.28940
G1 X98.443 Y107.246 E4.29854
G1 X101.557 Y104.132 E4.45248
G1 X101.557 Y103.389 E4.47846
G1 X98.443 Y106.503 E4.63240
G1 X98.443 Y105.759 E4.65839
G1 X101.557 Y102.645 E4.81233
G1 X101.557 Y101.902 E4.83831
G1 X98.443 Y105.016 E4.99225
G1 X98.443 Y104.273 E5.01823
G1 X101.557 Y101.159 E5.17218
G1 X101.557 Y100.416 E5.19816
G1 X98.443 Y103.530 E5.35210
G1 X98.443 Y102.787 E5.37808
G1 X101.557 Y99.673 E5.53203
G1 X101.557 Y98.929 E5.55801
G1 X98.443 Y102.043 E5.71195
G1 X98.443 Y101.300 E5.73793
G1 X101.557 Y98.186 E5.89188
G1 X101.557 Y97.443 E5.91786
G1 X98.443 Y100.557 E6.07180
G1 X98.443 Y99.814 E6.09778
G1 X101.557 Y96.700 E6.25173
G1 X101.557 Y95.957 E6.27771
G1 X98.443 Y99.071 E6.43165
G1 X98.443 Y98.327 E6.45763
G1 X101.557 Y95.213 E6.61158
G1 X101.557 Y94.470 E6.63756
G1 X98.443 Y97.584 E6.79150
G1 X98.443 Y96.841 E6.81748
G1 X101.557 Y93.727 E6.97142
G1 X101.557 Y92.984 E6.99740
G1 X98.443 Y96.098 E7.15135
G1 X98.443 Y95.355 E7.17733
G1 X101.557 Y92.241 E7.33127
G1 X101.557 Y91.497 E7.35725
G1 X98.443 Y94.611 E7.51120
G1 X98.443 Y93.868 E7.53718
G1 X101.557 Y90.754 E7.69112
G1 X101.557 Y90.493 E7.70025
G1 X101.075 Y90.493 E7.71710
G1 X98.443 Y93.125 E7.84722
G1 X98.443 Y92.382 E7.87320
G1 X100.332 Y90.493 E7.96658
G1 X99.589 Y90.493 E7.99256
G1 X98.443 Y91.639 E8.04919
G1 X98.443 Y90.895 E8.07517
G1 X98.845 Y90.493 E8.09506
G1 E6.89506 F2400.00000
G92 E0
G1 X101.873 Y81.823 F7800.000
G1 E1.20000 F2400.00000
G1 F360
G1 X98.127 Y81.823 E1.32884
G1 X98.127 Y80.877 E1.36138
G1 X101.873 Y80.877 E1.49022
G1 X101.873 Y81.763 E1.52069
G1 X102.330 Y82.280 F7800.000
G1 F360
G1 X97.670 Y82.280 E1.64378
G1 X97.670 Y80.420 E1.69291
G1 X102.330 Y80.420 E1.81600
G1 X102.330 Y82.220 E1.86354
G1 X101.933 Y82.230 F7800.000
G1 X101.614 Y81.350 F7800.000
G1 F1200
G1 X98.386 Y81.350 E1.94641
M106 S214.2
G1 Z0.850 F7800.000
G1 E0.74641 F2400.00000
G92 E0
G1 X102.073 Y116.177 F7800.000
G1 E1.20000 F2400.00000
G1 F360
G1 X102.073 Y119.123 E1.30133
G1 X97.927 Y119.123 E1.44393
G1 X97.927 Y116.177 E1.54525
G1 X102.013 Y116.177 E1.68579
G1 X102.530 Y115.720 F7800.000
G1 F360
G1 X102.530 Y119.580 E1.78775
G1 X97.470 Y119.580 E1.92140
G1 X97.470 Y115.720 E2.02336
G1 X102.470 Y115.720 E2.15543
G1 X102.409 Y116.101 F7800.000
G1 X101.757 Y116.895 F7800.000
G1 F2160
G1 X101.355 Y116.493 E2.17784
G1 X100.517 Y116.493 E2.21080
G1 X101.757 Y117.733 E2.27983
G1 X101.757 Y118.570 E2.31280
G1 X99.680 Y116.493 E2.42845
G1 X98.843 Y116.493 E2.46142
G1 X101.157 Y118.807 E2.59028
G1 X100.320 Y118.807 E2.62325
G1 X98.243 Y116.730 E2.73890
G1 X98.243 Y117.567 E2.77187
G1 X99.483 Y118.807 E2.84090
G1 X98.645 Y118.807 E2.87386
G1 X98.243 Y118.405 E2.89627
G1 E1.69627 F2400.00000
G92 E0
G1 X102.073 Y107.823 F7800.000
G1 E1.20000 F2400.00000
G1 F1800
G1 X97.927 Y107.823 E1.34260
G1 X97.927 Y90.177 E1.94955
G1 X102.073 Y90.177 E2.09215
G1 X102.073 Y107.763 E2.69704
G1 X102.530 Y108.280 F7800.000
G1 F900
G1 X97.470 Y108.280 E2.83070
G1 X97.470 Y89.720 E3.32094
G1 X102.530 Y89.720 E3.45459
G1 X102.530 Y108.220 E3.94325
G1 X102.167 Y108.111 F7800.000
G1 X98.243 Y107.105 F7800.000
G1 F2160
G1 X98.645 Y107.507 E3.96355
G1 X99.404 Y107.507 E3.99062
G1 X98.243 Y106.346 E4.04920
G1 X98.243 Y105.587 E4.07627
G1 X100.163 Y107.507 E4.17313
G1 X100.921 Y107.507 E4.20019
G1 X98.243 Y104.829 E4.33533
G1 X98.243 Y104.070 E4.36240
G1 X101.680 Y107.507 E4.53582
G1 X101.757 Y107.507 E4.53858
G1 X101.757 Y106.826 E4.56289
G1 X98.243 Y103.312 E4.74020
G1 X98.243 Y102.553 E4.76727
G1 X101.757 Y106.067 E4.94458
G1 X101.757 Y105.308 E4.97165
G1 X98.243 Y101.795 E5.14897
G1 X98.243 Y101.036 E5.17603
G1 X101.757 Y104.550 E5.35335
G1 X101.757 Y103.791 E5.38042
G1 X98.243 Y100.277 E5.55773
G1 X98.243 Y99.519 E5.58480
G1 X101.757 Y103.033 E5.76211
G1 X101.757 Y102.274 E5.78918
G1 X98.243 Y98.760 E5.96650
G1 X98.243 Y98.002 E5.99356
G1 X101.757 Y101.516 E6.17088
G1 X101.757 Y100.757 E6.19795
G1 X98.243 Y97.243 E6.37526
G1 X98.243 Y96.484 E6.40233
G1 X101.757 Y99.998 E6.57964
G1 X101.757 Y99.240 E6.60671
G1 X98.243 Y95.726 E6.78402
G1 X98.243 Y94.967 E6.81109
G1 X101.757 Y98.481 E6.98841
G1 X101.757 Y97.723 E7.01547
G1 X98.243 Y94.209 E7.19279
G1 X98.243 Y93.450 E7.21986
G1 X101.757 Y96.964 E7.39717
G1 X101.757 Y96.205 E7.42424
G1 X98.243 Y92.692 E7.60155
G1 X98.243 Y91.933 E7.62862
G1 X101.757 Y95.447 E7.80594
G1 X101.757 Y94.688 E7.83300
G1 X98.243 Y91.174 E8.01032
G1 X98.243 Y90.493 E8.03463
G1 X98.320 Y90.493 E8.03739
G1 X101.757 Y93.930 E8.21080
G1 X101.757 Y93.171 E8.23787
G1 X99.079 Y90.493 E8.37301
G1 X99.837 Y90.493 E8.40008
G1 X101.757 Y92.413 E8.49694
G1 X101.757 Y91.654 E8.52400
G1 X100.596 Y90.493 E8.58258
G1 X101.355 Y90.493 E8.60965
G1 X101.757 Y90.895 E8.62995
G1 E7.42995 F2400.00000
G92 E0
G1 X102.073 Y81.823 F7800.000
G1 E1.20000 F2400.00000
G1 F360
G1 X97.927 Y81.823 E1.34260
G1 X97.927 Y80.877 E1.37514
G1 X102.073 Y80.877 E1.51774
G1 X102.073 Y81.763 E1.54821
G1 X102.530 Y82.280 F7800.000
G1 F360
G1 X97.470 Y82.280 E1.68186
G1 X97.470 Y80.420 E1.73099
G1 X102.530 Y80.420 E1.86464
G1 X102.530 Y82.220 E1.91219
G1 X102.133 Y82.233 F7800.000
G1 X101.814 Y81.350 F7800.000
G1 F1200
G1 X98.186 Y81.350 E2.00533
M106 S209.1
G1 Z1.050 F7800.000
G1 E0.80533 F2400.00000
G92 E0
G1 X102.273 Y116.177 F7800.000
G1 E1.20000 F2400.00000
G1 F360
G1 X102.273 Y119.123 E1.30133
G1 X97.727 Y119.123 E1.45769
G1 X97.727 Y116.177 E1.55901
G1 X102.213 Y116.177 E1.71331
G1 X102.730 Y115.720 F7800.000
G1 F360
G1 X102.730 Y119.580 E1.81527
G1 X97.270 Y119.580 E1.95949
G1 X97.270 Y115.720 E2.06144
G1 X102.670 Y115.720 E2.20408
G1 X102.605 Y116.100 F7800.000
G1 X101.555 Y118.807 F7800.000
G1 F2160
G1 X101.957 Y118.405 E2.22481
G1 X101.957 Y117.630 E2.25304
G1 X100.780 Y118.807 E2.31371
G1 X100.005 Y118.807 E2.34194
G1 X101.957 Y116.855 E2.44252
G1 X101.957 Y116.493 E2.45572
G1 X101.544 Y116.493 E2.47076
G1 X99.230 Y118.807 E2.59000
G1 X98.456 Y118.807 E2.61824
G1 X100.770 Y116.493 E2.73748
G1 X99.995 Y116.493 E2.76572
G1 X98.043 Y118.445 E2.86630
G1 X98.043 Y117.670 E2.89454
G1 X99.220 Y116.493 E2.95520
G1 X98.445 Y116.493 E2.98343
G1 X98.043 Y116.895 E3.00416
G1 E1.80416 F2400.00000
G92 E0
G1 X102.273 Y107.823 F7800.000
G1 E1.20000 F2400.00000
G1 F1800
G1 X97.727 Y107.823 E1.35636
G1 X97.727 Y90.177 E1.96331
G1 X102.273 Y90.177 E2.11967
G1 X102.273 Y107.763 E2.72456
G1 X102.730 Y108.280 F7800.000
G1 F900
G1 X97.270 Y108.280 E2.86878
