; generated by Slic3r 1.3.1-dev (Build (Unknown revision)) on 2018-12-26 at 17:30:32

; external perimeters extrusion width = 0.55mm (4.37mm^3/s)
; perimeters extrusion width = 0.70mm (11.44mm^3/s)
; infill extrusion width = 0.62mm (13.45mm^3/s)
; solid infill extrusion width = 0.70mm (3.81mm^3/s)
; top infill extrusion width = 0.70mm (2.86mm^3/s)

M107
M104 S200 ; set temperature
G28 ; home all axes
G1 Z5 F5000 ; lift nozzle

; Filament gcode

M109 S200 ; set temperature and wait for it to be reached
G21 ; set units to millimeters
G90 ; use absolute coordinates
M82 ; use absolute distances for extrusion
G92 E0
G92 E0
G1 Z0.350 F7800.000
G1 E-2.00000 F2400.00000
G92 E0
G1 X75.075 Y74.755 F7800.000
G1 E2.00000 F2400.00000
G1 F1800
G1 X75.996 Y73.885 E2.03917
G1 X76.764 Y73.219 E2.07063
G1 X77.549 Y72.588 E2.10179
G1 X78.148 Y72.139 E2.12496
G1 X78.758 Y71.731 E2.14766
G1 X79.406 Y71.388 E2.17036
G1 X81.008 Y70.865 E2.22251
G1 X81.148 Y70.838 E2.22690
G1 X82.958 Y70.745 E2.28300
G1 X83.097 Y70.757 E2.28732
G1 X84.844 Y71.151 E2.34272
G1 X84.979 Y71.201 E2.34717
G1 X86.366 Y71.915 E2.39543
G1 X129.904 Y101.275 E4.02024
G1 X130.322 Y101.590 E4.03644
G1 X130.839 Y102.056 E4.05797
G1 X131.116 Y102.347 E4.07041
G1 X131.543 Y102.869 E4.09127
G1 X131.703 Y103.096 E4.09988
G1 X132.035 Y103.636 E4.11949
G1 X132.372 Y104.324 E4.14318
G1 X132.616 Y104.970 E4.16454
G1 X132.754 Y105.459 E4.18028
G1 X132.888 Y106.102 E4.20060
G1 X132.937 Y106.446 E4.21133
G1 X132.987 Y107.067 E4.23062
G1 X132.995 Y107.421 E4.24157
G1 X132.995 Y110.613 E4.34034
G1 X132.970 Y111.190 E4.35822
G1 X132.915 Y111.668 E4.37308
G1 X132.796 Y112.302 E4.39306
G1 X132.693 Y112.695 E4.40564
G1 X132.561 Y113.106 E4.41899
G1 X132.393 Y113.536 E4.43328
G1 X132.163 Y114.024 E4.44996
G1 X131.841 Y114.585 E4.46998
G1 X131.584 Y114.961 E4.48407
G1 X130.954 Y115.711 E4.51438
G1 X130.202 Y116.388 E4.54568
G1 X129.770 Y116.699 E4.56215
G1 X128.544 Y117.342 E4.60498
G1 X105.185 Y125.372 E5.36927
G1 X104.288 Y125.611 E5.39798
G1 X103.652 Y125.707 E5.41789
G1 X102.961 Y125.744 E5.43929
G1 X84.938 Y125.744 E5.99697
G1 X84.247 Y125.707 E6.01837
G1 X83.568 Y125.603 E6.03963
G1 X81.519 Y124.824 E6.10743
G1 X81.352 Y124.726 E6.11343
G1 X79.598 Y123.238 E6.18460
G1 X78.966 Y122.352 E6.21830
G1 X78.719 Y121.928 E6.23345
G1 X70.330 Y106.520 E6.77628
G1 X69.903 Y105.691 E6.80515
G1 X69.471 Y104.772 E6.83656
G1 X69.074 Y103.838 E6.86797
G1 X68.712 Y102.889 E6.89938
G1 X68.312 Y101.689 E6.93854
G1 X68.032 Y100.713 E6.96995
G1 X67.846 Y99.971 E6.99360
G1 X67.655 Y99.092 E7.02143
G1 X67.455 Y97.980 E7.05642
G1 X67.316 Y96.974 E7.08783
G1 X67.196 Y95.714 E7.12700
G1 X67.143 Y94.700 E7.15840
G1 X67.129 Y93.936 E7.18206
G1 X67.153 Y92.670 E7.22122
G1 X67.196 Y91.907 E7.24487
G1 X67.287 Y90.896 E7.27628
G1 X67.455 Y89.641 E7.31545
G1 X67.584 Y88.888 E7.33910
G1 X67.789 Y87.894 E7.37051
G1 X68.098 Y86.666 E7.40968
G1 X68.312 Y85.932 E7.43333
G1 X68.628 Y84.968 E7.46474
G1 X69.074 Y83.783 E7.50390
G1 X69.369 Y83.078 E7.52756
G1 X69.793 Y82.156 E7.55896
G1 X70.370 Y81.029 E7.59813
G1 X70.744 Y80.362 E7.62178
G1 X71.269 Y79.494 E7.65319
G1 X71.970 Y78.439 E7.69236
G1 X72.417 Y77.819 E7.71601
G1 X73.038 Y77.016 E7.74742
G1 X73.853 Y76.048 E7.78658
G1 X74.368 Y75.483 E7.81024
G1 X75.023 Y74.808 E7.83933
G1 E5.83933 F2400.00000
G92 E0
G1 X124.769 Y109.627 F7800.000
G1 E2.00000 F2400.00000
G1 F1800
G1 X103.307 Y109.627 E2.66407
G1 X102.587 Y110.317 E2.69492
G1 X102.259 Y110.787 E2.71265
G1 X102.032 Y111.317 E2.73048
G1 X101.916 Y111.881 E2.74829
G1 X101.912 Y117.521 E2.92281
G1 X85.987 Y117.520 E3.41553
G1 X85.987 Y112.093 E3.58344
G1 X85.940 Y111.601 E3.59874
G1 X85.762 Y111.034 E3.61713
G1 X85.435 Y110.467 E3.63738
G1 X84.950 Y109.965 E3.65899
G1 X84.619 Y109.735 E3.67146
G1 X84.109 Y109.484 E3.68903
G1 X83.879 Y109.435 E3.69632
G1 X83.066 Y108.890 E3.72661
G1 X82.512 Y108.475 E3.74801
G1 X81.966 Y108.031 E3.76979
G1 X81.436 Y107.568 E3.79157
G1 X80.924 Y107.084 E3.81335
G1 X80.431 Y106.582 E3.83513
G1 X79.958 Y106.061 E3.85691
G1 X79.504 Y105.523 E3.87868
G1 X78.725 Y104.488 E3.91878
G1 X78.268 Y103.807 E3.94413
G1 X77.903 Y103.210 E3.96579
G1 X77.559 Y102.596 E3.98757
G1 X77.238 Y101.970 E4.00934
G1 X76.667 Y100.679 E4.05302
G1 X76.421 Y100.024 E4.07467
G1 X76.199 Y99.356 E4.09645
G1 X76.002 Y98.680 E4.11823
G1 X75.684 Y97.305 E4.16190
G1 X75.565 Y96.615 E4.18355
G1 X75.472 Y95.918 E4.20533
G1 X75.406 Y95.217 E4.22711
G1 X75.366 Y94.514 E4.24889
G1 X75.353 Y93.810 E4.27067
G1 X75.366 Y93.107 E4.29245
G1 X75.406 Y92.404 E4.31422
G1 X75.472 Y91.703 E4.33600
G1 X75.565 Y91.006 E4.35778
G1 X75.685 Y90.312 E4.37956
G1 X75.830 Y89.623 E4.40134
G1 X76.002 Y88.941 E4.42311
G1 X76.423 Y87.593 E4.46679
G1 X76.669 Y86.938 E4.48844
G1 X76.941 Y86.289 E4.51022
G1 X77.238 Y85.651 E4.53200
G1 X77.559 Y85.025 E4.55378
G1 X77.903 Y84.411 E4.57555
G1 X78.270 Y83.810 E4.59733
G1 X78.660 Y83.224 E4.61911
G1 X79.071 Y82.653 E4.64089
G1 X79.504 Y82.098 E4.66267
G1 X79.958 Y81.560 E4.68445
G1 X80.431 Y81.039 E4.70622
G1 X80.924 Y80.537 E4.72800
G1 X81.436 Y80.053 E4.74978
G1 X82.152 Y79.438 E4.77900
G1 X83.092 Y80.858 E4.83167
G1 X82.639 Y81.249 E4.85019
G1 X82.123 Y81.734 E4.87209
G1 X81.627 Y82.239 E4.89400
G1 X81.154 Y82.765 E4.91591
G1 X80.702 Y83.311 E4.93781
G1 X80.274 Y83.875 E4.95972
G1 X79.870 Y84.456 E4.98163
G1 X79.491 Y85.054 E5.00353
G1 X79.137 Y85.667 E5.02544
G1 X78.809 Y86.295 E5.04734
G1 X78.501 Y86.949 E5.06973
G1 X78.028 Y88.138 E5.10932
G1 X77.764 Y88.935 E5.13530
G1 X77.442 Y90.178 E5.17503
G1 X77.280 Y91.002 E5.20101
G1 X77.117 Y92.276 E5.24074
G1 X77.060 Y93.113 E5.26672
G1 X77.058 Y94.398 E5.30645
G1 X77.105 Y95.220 E5.33195
G1 X77.181 Y95.944 E5.35447
G1 X77.392 Y97.206 E5.39406
G1 X77.576 Y98.010 E5.41957
G1 X77.768 Y98.696 E5.44161
G1 X77.986 Y99.369 E5.46352
G1 X78.238 Y100.047 E5.48590
G1 X78.757 Y101.217 E5.52549
G1 X79.135 Y101.950 E5.55099
G1 X79.491 Y102.567 E5.57304
G1 X79.870 Y103.165 E5.59494
G1 X80.274 Y103.746 E5.61685
G1 X80.702 Y104.310 E5.63876
G1 X81.154 Y104.855 E5.66066
G1 X81.627 Y105.382 E5.68257
G1 X82.123 Y105.887 E5.70447
G1 X82.639 Y106.372 E5.72638
G1 X83.175 Y106.835 E5.74829
G1 X83.730 Y107.274 E5.77019
G1 X84.302 Y107.691 E5.79210
G1 X84.892 Y108.082 E5.81400
G1 X85.498 Y108.449 E5.83591
G1 X86.118 Y108.790 E5.85782
G1 X86.752 Y109.105 E5.87972
G1 X87.399 Y109.393 E5.90163
G1 X88.057 Y109.654 E5.92354
G1 X88.726 Y109.886 E5.94544
G1 X89.404 Y110.091 E5.96735
G1 X90.089 Y110.267 E5.98925
G1 X90.782 Y110.414 E6.01116
G1 X91.480 Y110.532 E6.03307
G1 X92.182 Y110.621 E6.05497
G1 X92.888 Y110.680 E6.07688
G1 X93.595 Y110.710 E6.09879
G1 X94.307 Y110.710 E6.12080
G1 X95.026 Y110.680 E6.14308
G1 X96.299 Y110.548 E6.18267
G1 X97.112 Y110.415 E6.20817
G1 X97.809 Y110.267 E6.23021
G1 X98.495 Y110.091 E6.25212
G1 X99.173 Y109.886 E6.27402
G1 X99.841 Y109.654 E6.29593
G1 X100.500 Y109.393 E6.31784
G1 X101.146 Y109.105 E6.33974
G1 X101.781 Y108.790 E6.36165
G1 X102.710 Y108.260 E6.39477
G1 X124.767 Y108.263 E7.07723
G1 X124.769 Y109.552 E7.11712
G1 X125.395 Y110.252 F7800.000
G1 F1800
G1 X103.558 Y110.252 E7.79278
G1 X103.064 Y110.725 E7.81393
G1 X102.809 Y111.092 E7.82777
G1 X102.631 Y111.505 E7.84167
G1 X102.541 Y111.944 E7.85555
G1 X102.536 Y117.930 E8.04075
G1 X102.523 Y118.145 E8.04742
G1 X85.376 Y118.144 E8.57797
G1 X85.363 Y117.930 E8.58461
G1 X85.363 Y112.123 E8.76430
G1 X85.325 Y111.725 E8.77665
G1 X85.187 Y111.286 E8.79089
G1 X84.933 Y110.846 E8.80663
G1 X84.543 Y110.443 E8.82397
G1 X84.301 Y110.275 E8.83308
G1 X83.903 Y110.079 E8.84682
G1 X83.630 Y110.020 E8.85544
G1 X82.704 Y109.399 E8.88994
G1 X82.128 Y108.967 E8.91222
G1 X81.563 Y108.509 E8.93473
G1 X81.016 Y108.030 E8.95724
G1 X80.487 Y107.530 E8.97975
G1 X79.977 Y107.011 E9.00226
G1 X79.488 Y106.473 E9.02477
G1 X79.019 Y105.917 E9.04728
G1 X78.571 Y105.343 E9.06979
G1 X77.742 Y104.145 E9.11488
G1 X77.364 Y103.526 E9.13731
G1 X77.008 Y102.892 E9.15982
G1 X76.676 Y102.244 E9.18233
G1 X76.087 Y100.911 E9.22742
G1 X75.832 Y100.233 E9.24986
G1 X75.602 Y99.542 E9.27237
G1 X75.398 Y98.844 E9.29488
G1 X75.249 Y98.248 E9.31388
G1 X75.070 Y97.424 E9.33997
G1 X74.947 Y96.710 E9.36241
G1 X74.851 Y95.988 E9.38492
G1 X74.783 Y95.264 E9.40743
G1 X74.741 Y94.538 E9.42994
G1 X74.728 Y93.810 E9.45245
G1 X74.741 Y93.083 E9.47496
G1 X74.783 Y92.357 E9.49747
G1 X74.851 Y91.632 E9.51998
G1 X74.947 Y90.911 E9.54249
G1 X75.071 Y90.194 E9.56500
G1 X75.221 Y89.483 E9.58751
G1 X75.398 Y88.777 E9.61002
G1 X75.570 Y88.187 E9.62902
G1 X75.833 Y87.386 E9.65511
G1 X76.088 Y86.707 E9.67755
G1 X76.370 Y86.037 E9.70006
G1 X76.676 Y85.377 E9.72257
G1 X77.008 Y84.729 E9.74508
G1 X77.364 Y84.095 E9.76759
G1 X77.743 Y83.474 E9.79010
G1 X78.146 Y82.868 E9.81261
G1 X78.571 Y82.278 E9.83512
G1 X79.019 Y81.704 E9.85763
G1 X79.488 Y81.148 E9.88014
G1 X79.977 Y80.610 E9.90265
G1 X80.487 Y80.091 E9.92516
G1 X81.016 Y79.591 E9.94767
G1 X81.564 Y79.110 E9.97024
G1 X82.298 Y78.526 E9.99927
G1 X83.927 Y80.988 E10.09062
G1 X83.057 Y81.713 E10.12567
G1 X82.560 Y82.180 E10.14676
G1 X82.083 Y82.667 E10.16786
G1 X81.627 Y83.174 E10.18896
G1 X81.192 Y83.699 E10.21005
G1 X80.780 Y84.242 E10.23115
G1 X80.391 Y84.802 E10.25224
G1 X80.026 Y85.378 E10.27334
G1 X79.685 Y85.968 E10.29444
G1 X79.369 Y86.573 E10.31553
G1 X79.074 Y87.198 E10.33692
G1 X78.615 Y88.352 E10.37535
G1 X78.364 Y89.112 E10.40011
G1 X78.052 Y90.317 E10.43863
G1 X77.898 Y91.102 E10.46339
G1 X77.740 Y92.337 E10.50191
G1 X77.685 Y93.135 E10.52667
G1 X77.683 Y94.380 E10.56519
G1 X77.728 Y95.170 E10.58966
G1 X77.800 Y95.860 E10.61113
G1 X78.005 Y97.085 E10.64956
G1 X78.182 Y97.856 E10.67403
G1 X78.366 Y98.515 E10.69521
G1 X78.577 Y99.164 E10.71631
G1 X78.817 Y99.812 E10.73770
G1 X79.321 Y100.947 E10.77613
G1 X79.683 Y101.650 E10.80060
G1 X80.026 Y102.243 E10.82178
G1 X80.391 Y102.819 E10.84288
G1 X80.780 Y103.379 E10.86397
G1 X81.192 Y103.922 E10.88507
G1 X81.627 Y104.447 E10.90617
G1 X82.083 Y104.954 E10.92726
G1 X82.560 Y105.441 E10.94836
G1 X83.057 Y105.908 E10.96945
G1 X83.573 Y106.353 E10.99055
G1 X84.108 Y106.777 E11.01165
G1 X84.659 Y107.177 E11.03274
G1 X85.227 Y107.555 E11.05384
G1 X85.810 Y107.908 E11.07494
G1 X86.408 Y108.236 E11.09603
G1 X87.018 Y108.539 E11.11713
G1 X87.641 Y108.817 E11.13822
G1 X88.275 Y109.068 E11.15932
G1 X88.919 Y109.292 E11.18042
G1 X89.572 Y109.489 E11.20151
G1 X90.232 Y109.659 E11.22261
G1 X90.899 Y109.800 E11.24370
G1 X91.571 Y109.914 E11.26480
G1 X92.248 Y109.999 E11.28590
G1 X92.927 Y110.057 E11.30699
G1 X93.609 Y110.085 E11.32809
G1 X94.294 Y110.085 E11.34929
G1 X94.981 Y110.056 E11.37057
G1 X96.216 Y109.928 E11.40901
G1 X96.997 Y109.801 E11.43348
G1 X97.667 Y109.659 E11.45466
G1 X98.327 Y109.489 E11.47575
G1 X98.980 Y109.292 E11.49685
G1 X99.624 Y109.068 E11.51795
G1 X100.257 Y108.817 E11.53904
G1 X100.880 Y108.539 E11.56014
G1 X101.491 Y108.236 E11.58123
G1 X102.090 Y107.907 E11.60237
G1 X102.534 Y107.635 E11.61850
G1 X125.391 Y107.638 E12.32572
G1 X125.395 Y110.177 E12.40427
G1 E10.40427 F2400.00000
G92 E0
G1 X103.809 Y110.877 F7800.000
G1 E2.00000 F2400.00000
G1 F1800
G1 X103.541 Y111.133 E2.01146
G1 X103.358 Y111.397 E2.02140
G1 X103.231 Y111.693 E2.03137
G1 X103.166 Y112.008 E2.04133
G1 X103.161 Y117.949 E2.22516
G1 X103.143 Y118.236 E2.23404
G1 X103.080 Y118.515 E2.24290
G1 X103.047 Y118.602 E2.24577
G1 X102.939 Y118.769 E2.25192
G1 X84.960 Y118.769 E2.80824
G1 X84.852 Y118.602 E2.81439
G1 X84.755 Y118.236 E2.82610
G1 X84.738 Y117.950 E2.83498
G1 X84.738 Y112.153 E3.01434
G1 X84.709 Y111.850 E3.02375
G1 X84.611 Y111.539 E3.03384
G1 X84.430 Y111.225 E3.04506
G1 X84.136 Y110.921 E3.05813
G1 X83.983 Y110.815 E3.06390
G1 X83.696 Y110.674 E3.07380
G1 X83.381 Y110.606 E3.08376
G1 X82.342 Y109.909 E3.12245
G1 X81.744 Y109.460 E3.14561
G1 X81.160 Y108.987 E3.16886
G1 X80.595 Y108.492 E3.19210
G1 X80.049 Y107.976 E3.21534
G1 X79.523 Y107.440 E3.23858
G1 X79.017 Y106.885 E3.26183
G1 X78.533 Y106.310 E3.28507
G1 X78.071 Y105.718 E3.30831
G1 X77.699 Y105.202 E3.32800
G1 X77.216 Y104.482 E3.35482
G1 X76.824 Y103.842 E3.37803
G1 X76.457 Y103.187 E3.40128
G1 X76.115 Y102.518 E3.42452
G1 X75.847 Y101.941 E3.44421
G1 X75.507 Y101.144 E3.47103
G1 X75.243 Y100.441 E3.49424
G1 X75.006 Y99.729 E3.51748
G1 X74.795 Y99.008 E3.54073
G1 X74.640 Y98.390 E3.56042
G1 X74.457 Y97.543 E3.58723
G1 X74.330 Y96.804 E3.61045
G1 X74.230 Y96.059 E3.63369
G1 X74.159 Y95.311 E3.65693
G1 X74.117 Y94.561 E3.68018
G1 X74.103 Y93.810 E3.70342
G1 X74.117 Y93.059 E3.72666
G1 X74.159 Y92.309 E3.74990
G1 X74.230 Y91.562 E3.77314
G1 X74.330 Y90.817 E3.79639
G1 X74.457 Y90.077 E3.81963
G1 X74.612 Y89.342 E3.84287
G1 X74.795 Y88.613 E3.86611
G1 X75.243 Y87.179 E3.91262
G1 X75.507 Y86.476 E3.93583
G1 X75.798 Y85.784 E3.95907
G1 X76.115 Y85.103 E3.98231
G1 X76.457 Y84.434 E4.00556
G1 X76.824 Y83.779 E4.02880
G1 X77.216 Y83.138 E4.05204
G1 X77.632 Y82.512 E4.07528
G1 X78.071 Y81.903 E4.09853
G1 X78.533 Y81.311 E4.12177
G1 X79.017 Y80.736 E4.14501
G1 X79.523 Y80.181 E4.16825
G1 X80.049 Y79.644 E4.19149
G1 X80.595 Y79.129 E4.21474
G1 X81.162 Y78.632 E4.23804
G1 X81.741 Y78.162 E4.26113
G1 X82.415 Y77.657 E4.28720
G1 X82.560 Y77.790 E4.29329
G1 X84.765 Y81.122 E4.41693
G1 X83.972 Y81.749 E4.44822
G1 X83.475 Y82.178 E4.46852
G1 X82.997 Y82.627 E4.48880
G1 X82.539 Y83.095 E4.50909
G1 X82.100 Y83.582 E4.52938
G1 X81.682 Y84.087 E4.54966
G1 X81.286 Y84.610 E4.56995
G1 X80.911 Y85.148 E4.59023
G1 X80.560 Y85.702 E4.61052
G1 X80.232 Y86.269 E4.63081
G1 X79.929 Y86.850 E4.65109
G1 X79.648 Y87.447 E4.67148
G1 X79.203 Y88.566 E4.70876
G1 X78.963 Y89.288 E4.73230
G1 X78.662 Y90.456 E4.76960
G1 X78.515 Y91.202 E4.79315
G1 X78.362 Y92.398 E4.83045
G1 X78.310 Y93.157 E4.85400
G1 X78.308 Y94.363 E4.89130
G1 X78.351 Y95.119 E4.91474
G1 X78.420 Y95.776 E4.93516
G1 X78.619 Y96.964 E4.97243
G1 X78.788 Y97.702 E4.99588
G1 X78.964 Y98.335 E5.01619
G1 X79.167 Y98.958 E5.03648
G1 X79.397 Y99.576 E5.05687
G1 X79.885 Y100.677 E5.09414
G1 X80.232 Y101.351 E5.11758
G1 X80.560 Y101.919 E5.13790
G1 X80.911 Y102.473 E5.15819
G1 X81.286 Y103.011 E5.17847
G1 X81.682 Y103.533 E5.19876
G1 X82.100 Y104.039 E5.21904
G1 X82.539 Y104.526 E5.23933
G1 X82.997 Y104.994 E5.25962
G1 X83.475 Y105.443 E5.27990
G1 X83.972 Y105.871 E5.30019
G1 X84.485 Y106.279 E5.32047
G1 X85.016 Y106.664 E5.34076
G1 X85.562 Y107.027 E5.36105
G1 X86.123 Y107.367 E5.38133
G1 X86.697 Y107.682 E5.40162
G1 X87.285 Y107.974 E5.42191
G1 X87.883 Y108.241 E5.44219
G1 X88.493 Y108.482 E5.46248
G1 X89.112 Y108.698 E5.48276
G1 X89.740 Y108.887 E5.50305
G1 X90.375 Y109.050 E5.52334
G1 X91.016 Y109.186 E5.54362
G1 X91.663 Y109.296 E5.56391
G1 X92.313 Y109.378 E5.58419
G1 X92.966 Y109.433 E5.60448
G1 X93.622 Y109.460 E5.62477
G1 X94.281 Y109.460 E5.64516
G1 X94.936 Y109.433 E5.66544
G1 X96.134 Y109.309 E5.70272
G1 X96.882 Y109.187 E5.72616
G1 X97.524 Y109.050 E5.74647
G1 X98.159 Y108.887 E5.76676
G1 X98.786 Y108.698 E5.78705
G1 X99.406 Y108.482 E5.80733
G1 X100.015 Y108.241 E5.82762
G1 X100.614 Y107.974 E5.84790
G1 X101.201 Y107.682 E5.86819
G1 X101.776 Y107.367 E5.88847
G1 X102.358 Y107.010 E5.90960
G1 X125.957 Y107.014 E6.63977
G1 X126.015 Y107.319 E6.64940
G1 X126.020 Y110.587 E6.75051
G1 X125.965 Y110.877 E6.75965
G1 X103.884 Y110.877 E7.44286
G1 X103.490 Y110.689 F7800.000
G1 X103.012 Y109.393 F7800.000
G1 F1800
G1 X103.027 Y109.343 E7.44362
G1 F1800
G1 X103.056 Y109.243 E7.44562
G1 F1800
G1 X103.086 Y109.144 E7.44809
G1 F1800
G1 X103.115 Y109.044 E7.45105
G1 F1800
G1 X103.145 Y108.944 E7.45449
G1 X103.181 Y108.944 E7.45570
G1 X124.455 Y108.945 E8.15859
G1 E6.15859 F2400.00000
G92 E0
G1 X101.044 Y117.139 F7800.000
G1 E2.00000 F2400.00000
G1 F1800
G1 X101.530 Y116.653 E2.02141
G1 X101.531 Y115.763 E2.04912
G1 X100.155 Y117.139 E2.10972
G1 X99.266 Y117.139 E2.13741
G1 X101.532 Y114.873 E2.23720
G1 X101.532 Y113.983 E2.26492
G1 X98.376 Y117.139 E2.40390
G1 X97.487 Y117.139 E2.43159
G1 X101.533 Y113.093 E2.60976
G1 X101.534 Y112.203 E2.63748
G1 X96.598 Y117.139 E2.85484
G1 X95.709 Y117.139 E2.88253
G1 X101.602 Y111.245 E3.14205
G1 X101.676 Y110.886 E3.15348
