; generated by Slic3r 1.3.0 on 2019-01-05 at 15:22:52

; external perimeters extrusion width = 0.55mm (4.37mm^3/s)
; perimeters extrusion width = 0.70mm (11.44mm^3/s)
; infill extrusion width = 0.62mm (13.45mm^3/s)
; solid infill extrusion width = 0.70mm (3.81mm^3/s)
; top infill extrusion width = 0.70mm (2.86mm^3/s)

M107
M104 S200 ; set temperature
G28 ; home all axes
G1 Z5 F5000 ; lift nozzle

; Filament gcode

M109 S200 ; set temperature and wait for it to be reached
G21 ; set units to millimeters
G90 ; use absolute coordinates
M82 ; use absolute distances for extrusion
G92 E0
G1 Z0.350 F7800.000
G1 E-2.00000 F2400.00000
G92 E0
G1 X74.915 Y75.753 F7800.000
G1 E2.00000 F2400.00000
G1 F1800
G1 X76.668 Y74.274 E2.07096
G1 X78.820 Y73.481 E2.14192
G1 X80.000 Y73.375 E2.17858
G1 X120.000 Y73.375 E3.41623
G1 X122.259 Y73.772 E3.48719
G1 X124.247 Y74.915 E3.55815
G1 X125.726 Y76.668 E3.62912
G1 X126.519 Y78.820 E3.70008
G1 X126.625 Y80.000 E3.73673
G1 X126.625 Y120.000 E4.97438
G1 X126.228 Y122.259 E5.04534
G1 X125.085 Y124.247 E5.11631
G1 X123.332 Y125.726 E5.18727
G1 X121.180 Y126.519 E5.25823
G1 X120.000 Y126.625 E5.29488
G1 X80.000 Y126.625 E6.53253
G1 X77.741 Y126.228 E6.60350
G1 X75.753 Y125.085 E6.67446
G1 X74.274 Y123.332 E6.74542
G1 X73.481 Y121.180 E6.81638
G1 X73.375 Y120.000 E6.85303
G1 X73.375 Y80.000 E8.09069
G1 X73.772 Y77.741 E8.16165
G1 X74.878 Y75.818 E8.23029
G1 E6.23029 F2400.00000
G92 E0
G1 X118.400 Y118.400 F7800.000
G1 E2.00000 F2400.00000
G1 F1800
G1 X81.600 Y118.400 E3.13865
G1 X81.600 Y81.600 E4.27731
G1 X118.400 Y81.600 E5.41596
G1 X118.400 Y118.325 E6.55230
G1 X119.025 Y119.025 F7800.000
G1 F1800
G1 X80.975 Y119.025 E7.72962
G1 X80.975 Y80.975 E8.90694
G1 X119.025 Y80.975 E10.08427
G1 X119.025 Y118.950 E11.25927
G1 X119.650 Y119.650 F7800.000
G1 F1800
G1 X80.350 Y119.650 E12.47527
G1 X80.350 Y80.350 E13.69126
G1 X119.650 Y80.350 E14.90725
G1 X119.650 Y119.575 E16.12093
G1 X119.167 Y119.521 F7800.000
G1 E14.12093 F2400.00000
G92 E0
G1 X117.532 Y118.018 F7800.000
G1 E2.00000 F2400.00000
G1 F1800
G1 X118.018 Y117.532 E2.02140
G1 X118.018 Y116.643 E2.04905
G1 X116.643 Y118.018 E2.10956
G1 X115.755 Y118.018 E2.13722
G1 X118.018 Y115.755 E2.23684
G1 X118.018 Y114.866 E2.26449
G1 X114.866 Y118.018 E2.40322
G1 X113.977 Y118.018 E2.43088
G1 X118.018 Y113.977 E2.60872
G1 X118.018 Y113.088 E2.63638
G1 X113.088 Y118.018 E2.85333
G1 X112.200 Y118.018 E2.88099
G1 X118.018 Y112.200 E3.13706
G1 X118.018 Y111.311 E3.16471
G1 X111.311 Y118.018 E3.45989
G1 X110.422 Y118.018 E3.48755
G1 X118.018 Y110.422 E3.82184
G1 X118.018 Y109.533 E3.84950
G1 X109.533 Y118.018 E4.22290
G1 X108.645 Y118.018 E4.25055
G1 X118.018 Y108.645 E4.66307
G1 X118.018 Y107.756 E4.69072
G1 X107.756 Y118.018 E5.14235
G1 X106.867 Y118.018 E5.17001
G1 X118.018 Y106.867 E5.66075
G1 X118.018 Y105.978 E5.68840
G1 X105.978 Y118.018 E6.21825
G1 X105.089 Y118.018 E6.24591
G1 X118.018 Y105.089 E6.81487
G1 X118.018 Y104.201 E6.84253
G1 X104.201 Y118.018 E7.45060
G1 X103.312 Y118.018 E7.47826
G1 X118.018 Y103.312 E8.12544
G1 X118.018 Y102.423 E8.15310
G1 X102.423 Y118.018 E8.83940
G1 X101.534 Y118.018 E8.86705
G1 X118.018 Y101.534 E9.59246
G1 X118.018 Y100.646 E9.62012
G1 X100.646 Y118.018 E10.38464
G1 X99.757 Y118.018 E10.41229
G1 X118.018 Y99.757 E11.21593
G1 X118.018 Y98.868 E11.24358
G1 X98.868 Y118.018 E12.08633
G1 X97.979 Y118.018 E12.11398
G1 X118.018 Y97.979 E12.99584
G1 X118.018 Y97.091 E13.02350
G1 X97.091 Y118.018 E13.94447
G1 X96.202 Y118.018 E13.97212
G1 X118.018 Y96.202 E14.93220
G1 X118.018 Y95.313 E14.95986
G1 X95.313 Y118.018 E15.95905
G1 X94.424 Y118.018 E15.98671
G1 X118.018 Y94.424 E17.02501
G1 X118.018 Y93.536 E17.05267
G1 X93.536 Y118.018 E18.13008
G1 X92.647 Y118.018 E18.15774
G1 X118.018 Y92.647 E19.27427
G1 X118.018 Y91.758 E19.30192
G1 X91.758 Y118.018 E20.45756
G1 X90.869 Y118.018 E20.48522
G1 X118.018 Y90.869 E21.67997
G1 X118.018 Y89.981 E21.70763
G1 X89.981 Y118.018 E22.94149
G1 X89.092 Y118.018 E22.96915
G1 X118.018 Y89.092 E24.24212
G1 X118.018 Y88.203 E24.26978
G1 X88.203 Y118.018 E25.58187
G1 X87.314 Y118.018 E25.60952
G1 X118.018 Y87.314 E26.96072
G1 X118.018 Y86.425 E26.98838
G1 X86.425 Y118.018 E28.37869
G1 X85.537 Y118.018 E28.40634
G1 X118.018 Y85.537 E29.83577
G1 X118.018 Y84.648 E29.86342
G1 X84.648 Y118.018 E31.33196
G1 X83.759 Y118.018 E31.35961
G1 X118.018 Y83.759 E32.86726
G1 X118.018 Y82.870 E32.89492
G1 X82.870 Y118.018 E34.44168
G1 X81.982 Y118.018 E34.46933
G1 X118.018 Y81.982 E36.05520
G1 X117.130 Y81.982 E36.08286
G1 X81.982 Y117.130 E37.62962
G1 X81.982 Y116.241 E37.65727
G1 X116.241 Y81.982 E39.16492
G1 X115.352 Y81.982 E39.19258
G1 X81.982 Y115.352 E40.66111
G1 X81.982 Y114.463 E40.68877
G1 X114.463 Y81.982 E42.11819
G1 X113.575 Y81.982 E42.14585
G1 X81.982 Y113.575 E43.53616
G1 X81.982 Y112.686 E43.56382
G1 X112.686 Y81.982 E44.91502
G1 X111.797 Y81.982 E44.94267
G1 X81.982 Y111.797 E46.25476
G1 X81.982 Y110.908 E46.28242
G1 X110.908 Y81.982 E47.55539
G1 X110.020 Y81.982 E47.58305
G1 X81.982 Y110.020 E48.81691
G1 X81.982 Y109.131 E48.84457
G1 X109.131 Y81.982 E50.03932
G1 X108.242 Y81.982 E50.06698
G1 X81.982 Y108.242 E51.22262
G1 X81.982 Y107.353 E51.25028
G1 X107.353 Y81.982 E52.36680
G1 X106.464 Y81.982 E52.39446
G1 X81.982 Y106.464 E53.47188
G1 X81.982 Y105.576 E53.49953
G1 X105.576 Y81.982 E54.53784
G1 X104.687 Y81.982 E54.56550
G1 X81.982 Y104.687 E55.56469
G1 X81.982 Y103.798 E55.59235
G1 X103.798 Y81.982 E56.55243
G1 X102.909 Y81.982 E56.58008
G1 X81.982 Y102.909 E57.50105
G1 X81.982 Y102.021 E57.52871
G1 X102.021 Y81.982 E58.41057
G1 X101.132 Y81.982 E58.43822
G1 X81.982 Y101.132 E59.28097
G1 X81.982 Y100.243 E59.30862
G1 X100.243 Y81.982 E60.11226
G1 X99.354 Y81.982 E60.13992
G1 X81.982 Y99.354 E60.90444
G1 X81.982 Y98.466 E60.93209
G1 X98.466 Y81.982 E61.65750
G1 X97.577 Y81.982 E61.68516
G1 X81.982 Y97.577 E62.37146
G1 X81.982 Y96.688 E62.39911
G1 X96.688 Y81.982 E63.04630
G1 X95.799 Y81.982 E63.07396
G1 X81.982 Y95.799 E63.68203
G1 X81.982 Y94.911 E63.70969
G1 X94.911 Y81.982 E64.27865
G1 X94.022 Y81.982 E64.30631
G1 X81.982 Y94.022 E64.83616
G1 X81.982 Y93.133 E64.86381
G1 X93.133 Y81.982 E65.35455
G1 X92.244 Y81.982 E65.38221
G1 X81.982 Y92.244 E65.83384
G1 X81.982 Y91.355 E65.86149
G1 X91.355 Y81.982 E66.27401
G1 X90.467 Y81.982 E66.30167
G1 X81.982 Y90.467 E66.67507
G1 X81.982 Y89.578 E66.70273
G1 X89.578 Y81.982 E67.03702
G1 X88.689 Y81.982 E67.06467
G1 X81.982 Y88.689 E67.35985
G1 X81.982 Y87.800 E67.38751
G1 X87.800 Y81.982 E67.64358
G1 X86.912 Y81.982 E67.67123
G1 X81.982 Y86.912 E67.88819
G1 X81.982 Y86.023 E67.91585
G1 X86.023 Y81.982 E68.09369
G1 X85.134 Y81.982 E68.12135
G1 X81.982 Y85.134 E68.26008
G1 X81.982 Y84.245 E68.28773
G1 X84.245 Y81.982 E68.38736
G1 X83.357 Y81.982 E68.41501
G1 X81.982 Y83.357 E68.47552
G1 X81.982 Y82.468 E68.50318
G1 X82.468 Y81.982 E68.52457
G1 Z0.650 F7800.000
G1 X118.529 Y118.529 F7800.000
G1 F3600
G1 X81.471 Y118.529 E69.52426
G1 X81.471 Y81.471 E70.52394
G1 X118.529 Y81.471 E71.52362
G1 X118.529 Y118.454 E72.52128
G1 X119.164 Y119.164 F7800.000
G1 F3600
G1 X80.836 Y119.164 E73.55526
G1 X80.836 Y80.836 E74.58924
G1 X119.164 Y80.836 E75.62321
G1 X119.164 Y119.089 E76.65517
G1 X119.725 Y119.725 F7800.000
G1 F1800
G1 X80.275 Y119.725 E77.46825
G1 X80.275 Y80.275 E78.28132
G1 X119.725 Y80.275 E79.09440
G1 X119.725 Y119.650 E79.90593
G1 X119.242 Y119.596 F7800.000
G1 X118.140 Y82.354 F7800.000
G1 F1200
G1 X117.646 Y81.860 E79.92495
G1 X116.740 Y81.860 E79.94958
G1 X118.140 Y83.260 E80.00343
G1 X118.140 Y84.166 E80.02806
G1 X115.834 Y81.860 E80.11675
G1 X114.928 Y81.860 E80.14138
G1 X118.140 Y85.072 E80.26491
G1 X118.140 Y85.978 E80.28954
G1 X114.022 Y81.860 E80.44790
G1 X113.116 Y81.860 E80.47253
G1 X118.140 Y86.884 E80.66572
G1 X118.140 Y87.790 E80.69036
G1 X112.210 Y81.860 E80.91839
G1 X111.304 Y81.860 E80.94302
G1 X118.140 Y88.696 E81.20588
G1 X118.140 Y89.602 E81.23052
G1 X110.398 Y81.860 E81.52822
G1 X109.492 Y81.860 E81.55285
G1 X118.140 Y90.508 E81.88539
G1 X118.140 Y91.414 E81.91002
G1 X108.586 Y81.860 E82.27739
G1 X107.680 Y81.860 E82.30203
G1 X118.140 Y92.320 E82.70424
G1 X118.140 Y93.226 E82.72887
G1 X106.774 Y81.860 E83.16591
G1 X105.868 Y81.860 E83.19055
G1 X118.140 Y94.132 E83.66243
G1 X118.140 Y95.038 E83.68706
G1 X104.962 Y81.860 E84.19377
G1 X104.056 Y81.860 E84.21841
G1 X118.140 Y95.944 E84.75996
G1 X118.140 Y96.850 E84.78459
G1 X103.150 Y81.860 E85.36098
G1 X102.244 Y81.860 E85.38561
G1 X118.140 Y97.756 E85.99683
G1 X118.140 Y98.662 E86.02147
G1 X101.338 Y81.860 E86.66753
G1 X100.432 Y81.860 E86.69216
G1 X118.140 Y99.568 E87.37305
G1 X118.140 Y100.474 E87.39769
G1 X99.526 Y81.860 E88.11342
G1 X98.620 Y81.860 E88.13805
G1 X118.140 Y101.380 E88.88862
G1 X118.140 Y102.286 E88.91325
G1 X97.714 Y81.860 E89.69865
G1 X96.808 Y81.860 E89.72328
G1 X118.140 Y103.192 E90.54352
G1 X118.140 Y104.098 E90.56815
G1 X95.902 Y81.860 E91.42323
G1 X94.996 Y81.860 E91.44786
G1 X118.140 Y105.004 E92.33777
G1 X118.140 Y105.910 E92.36240
G1 X94.090 Y81.860 E93.28715
G1 X93.184 Y81.860 E93.31178
G1 X118.140 Y106.816 E94.27136
G1 X118.140 Y107.722 E94.29599
G1 X92.278 Y81.860 E95.29041
G1 X91.372 Y81.860 E95.31504
G1 X118.140 Y108.628 E96.34430
G1 X118.140 Y109.534 E96.36893
G1 X90.466 Y81.860 E97.43302
G1 X89.560 Y81.860 E97.45765
G1 X118.140 Y110.440 E98.55657
G1 X118.140 Y111.346 E98.58121
G1 X88.654 Y81.860 E99.71496
G1 X87.749 Y81.860 E99.73960
G1 X118.140 Y112.251 E100.90819
G1 X118.140 Y113.157 E100.93283
G1 X86.843 Y81.860 E102.13626
G1 X85.937 Y81.860 E102.16089
G1 X118.140 Y114.063 E103.39916
G1 X118.140 Y114.969 E103.42379
G1 X85.031 Y81.860 E104.69689
G1 X84.125 Y81.860 E104.72152
G1 X118.140 Y115.875 E106.02946
G1 X118.140 Y116.781 E106.05410
G1 X83.219 Y81.860 E107.39687
G1 X82.313 Y81.860 E107.42150
G1 X118.140 Y117.687 E108.79911
G1 X118.140 Y118.140 E108.81143
G1 X117.687 Y118.140 E108.82374
G1 X81.860 Y82.313 E110.20136
G1 X81.860 Y83.219 E110.22599
G1 X116.781 Y118.140 E111.56876
G1 X115.875 Y118.140 E111.59340
G1 X81.860 Y84.125 E112.90133
G1 X81.860 Y85.031 E112.92597
G1 X114.969 Y118.140 E114.19907
G1 X114.063 Y118.140 E114.22370
G1 X81.860 Y85.937 E115.46197
G1 X81.860 Y86.843 E115.48660
G1 X113.157 Y118.140 E116.69004
G1 X112.252 Y118.140 E116.71467
G1 X81.860 Y87.748 E117.88326
G1 X81.860 Y88.654 E117.90790
G1 X111.346 Y118.140 E119.04166
G1 X110.440 Y118.140 E119.06629
G1 X81.860 Y89.560 E120.16521
G1 X81.860 Y90.466 E120.18985
G1 X109.534 Y118.140 E121.25394
G1 X108.628 Y118.140 E121.27857
G1 X81.860 Y91.372 E122.30782
G1 X81.860 Y92.278 E122.33245
G1 X107.722 Y118.140 E123.32687
G1 X106.816 Y118.140 E123.35150
G1 X81.860 Y93.184 E124.31109
G1 X81.860 Y94.090 E124.33572
G1 X105.910 Y118.140 E125.26046
G1 X105.004 Y118.140 E125.28510
G1 X81.860 Y94.996 E126.17501
G1 X81.860 Y95.902 E126.19964
G1 X104.098 Y118.140 E127.05471
G1 X103.192 Y118.140 E127.07935
G1 X81.860 Y96.808 E127.89959
G1 X81.860 Y97.714 E127.92422
G1 X102.286 Y118.140 E128.70962
G1 X101.380 Y118.140 E128.73425
G1 X81.860 Y98.620 E129.48482
G1 X81.860 Y99.526 E129.50945
G1 X100.474 Y118.140 E130.22518
G1 X99.568 Y118.140 E130.24982
G1 X81.860 Y100.432 E130.93071
G1 X81.860 Y101.338 E130.95535
G1 X98.662 Y118.140 E131.60141
G1 X97.756 Y118.140 E131.62604
G1 X81.860 Y102.244 E132.23726
G1 X81.860 Y103.150 E132.26189
G1 X96.850 Y118.140 E132.83828
G1 X95.944 Y118.140 E132.86292
G1 X81.860 Y104.056 E133.40447
G1 X81.860 Y104.962 E133.42910
G1 X95.038 Y118.140 E133.93582
G1 X94.132 Y118.140 E133.96045
G1 X81.860 Y105.868 E134.43233
G1 X81.860 Y106.774 E134.45696
G1 X93.226 Y118.140 E134.89401
G1 X92.320 Y118.140 E134.91864
G1 X81.860 Y107.680 E135.32085
G1 X81.860 Y108.586 E135.34548
G1 X91.414 Y118.140 E135.71286
G1 X90.508 Y118.140 E135.73749
G1 X81.860 Y109.492 E136.07003
G1 X81.860 Y110.398 E136.09466
G1 X89.602 Y118.140 E136.39236
G1 X88.696 Y118.140 E136.41700
G1 X81.860 Y111.304 E136.67986
G1 X81.860 Y112.210 E136.70449
G1 X87.790 Y118.140 E136.93253
G1 X86.884 Y118.140 E136.95716
G1 X81.860 Y113.116 E137.15035
G1 X81.860 Y114.022 E137.17499
G1 X85.978 Y118.140 E137.33334
G1 X85.072 Y118.140 E137.35798
G1 X81.860 Y114.928 E137.48150
G1 X81.860 Y115.834 E137.50613
G1 X84.166 Y118.140 E137.59482
G1 X83.260 Y118.140 E137.61945
G1 X81.860 Y116.740 E137.67331
G1 X81.860 Y117.646 E137.69794
G1 X82.354 Y118.140 E137.71695
G1 Z0.950 F7800.000
G1 X118.529 Y118.529 F7800.000
G1 F3600
G1 X81.471 Y118.529 E138.71663
G1 X81.471 Y81.471 E139.71631
G1 X118.529 Y81.471 E140.71600
G1 X118.529 Y118.454 E141.71366
G1 X119.164 Y119.164 F7800.000
G1 F3600
G1 X80.836 Y119.164 E142.74764
G1 X80.836 Y80.836 E143.78161
G1 X119.164 Y80.836 E144.81559
G1 X119.164 Y119.089 E145.84754
G1 X119.725 Y119.725 F7800.000
G1 F1800
G1 X80.275 Y119.725 E146.66062
G1 X80.275 Y80.275 E147.47370
G1 X119.725 Y80.275 E148.28678
G1 X119.725 Y119.650 E149.09831
G1 X119.242 Y119.596 F7800.000
G1 X117.646 Y118.140 F7800.000
G1 F1200
G1 X118.140 Y117.646 E149.11732
G1 X118.140 Y116.740 E149.14196
G1 X116.740 Y118.140 E149.19581
G1 X115.834 Y118.140 E149.22044
G1 X118.140 Y115.834 E149.30913
G1 X118.140 Y114.928 E149.33376
G1 X114.928 Y118.140 E149.45728
G1 X114.022 Y118.140 E149.48191
G1 X118.140 Y114.022 E149.64027
G1 X118.140 Y113.116 E149.66490
G1 X113.116 Y118.140 E149.85810
G1 X112.210 Y118.140 E149.88273
G1 X118.140 Y112.210 E150.11076
G1 X118.140 Y111.304 E150.13539
G1 X111.304 Y118.140 E150.39826
G1 X110.398 Y118.140 E150.42289
G1 X118.140 Y110.398 E150.72059
G1 X118.140 Y109.492 E150.74523
G1 X109.492 Y118.140 E151.07776
G1 X108.586 Y118.140 E151.10240
G1 X118.140 Y108.586 E151.46977
G1 X118.140 Y107.680 E151.49440
G1 X107.680 Y118.140 E151.89661
G1 X106.774 Y118.140 E151.92124
G1 X118.140 Y106.774 E152.35829
G1 X118.140 Y105.868 E152.38292
G1 X105.868 Y118.140 E152.85480
G1 X104.962 Y118.140 E152.87943
G1 X118.140 Y104.962 E153.38615
G1 X118.140 Y104.056 E153.41078
G1 X104.056 Y118.140 E153.95233
G1 X103.150 Y118.140 E153.97697
G1 X118.140 Y103.150 E154.55335
G1 X118.140 Y102.244 E154.57799
G1 X102.244 Y118.140 E155.18921
G1 X101.338 Y118.140 E155.21384
G1 X118.140 Y101.338 E155.85990
G1 X118.140 Y100.432 E155.88453
G1 X100.432 Y118.140 E156.56543
G1 X99.526 Y118.140 E156.59006
G1 X118.140 Y99.526 E157.30579
G1 X118.140 Y98.620 E157.33042
G1 X98.620 Y118.140 E158.08099
G1 X97.714 Y118.140 E158.10562
G1 X118.140 Y97.714 E158.89102
G1 X118.140 Y96.808 E158.91566
G1 X96.808 Y118.140 E159.73589
G1 X95.902 Y118.140 E159.76053
G1 X118.140 Y95.902 E160.61560
G1 X118.140 Y94.996 E160.64023
G1 X94.996 Y118.140 E161.53014
G1 X94.090 Y118.140 E161.55478
G1 X118.140 Y94.090 E162.47952
G1 X118.140 Y93.184 E162.50415
G1 X93.184 Y118.140 E163.46373
G1 X92.278 Y118.140 E163.48837
G1 X118.140 Y92.278 E164.48278
G1 X118.140 Y91.372 E164.50742
G1 X91.372 Y118.140 E165.53667
G1 X90.466 Y118.140 E165.56130
G1 X118.140 Y90.466 E166.62539
G1 X118.140 Y89.560 E166.65002
G1 X89.560 Y118.140 E167.74895
G1 X88.654 Y118.140 E167.77358
G1 X118.140 Y88.654 E168.90734
G1 X118.140 Y87.749 E168.93197
G1 X87.749 Y118.140 E170.10057
G1 X86.843 Y118.140 E170.12520
G1 X118.140 Y86.843 E171.32863
G1 X118.140 Y85.937 E171.35326
G1 X85.937 Y118.140 E172.59153
G1 X85.031 Y118.140 E172.61616
G1 X118.140 Y85.031 E173.88926
G1 X118.140 Y84.125 E173.91390
G1 X84.125 Y118.140 E175.22183
G1 X83.219 Y118.140 E175.24647
G1 X118.140 Y83.219 E176.58924
G1 X118.140 Y82.313 E176.61387
G1 X82.313 Y118.140 E177.99148
G1 X81.860 Y118.140 E178.00380
G1 X81.860 Y117.687 E178.01612
G1 X117.687 Y81.860 E179.39373
G1 X116.781 Y81.860 E179.41836
G1 X81.860 Y116.781 E180.76114
G1 X81.860 Y115.875 E180.78577
G1 X115.875 Y81.860 E182.09371
G1 X114.969 Y81.860 E182.11834
G1 X81.860 Y114.969 E183.39144
G1 X81.860 Y114.063 E183.41608
G1 X114.063 Y81.860 E184.65434
G1 X113.157 Y81.860 E184.67898
G1 X81.860 Y113.157 E185.88241
G1 X81.860 Y112.251 E185.90704
G1 X112.252 Y81.860 E187.07564
G1 X111.346 Y81.860 E187.10027
G1 X81.860 Y111.346 E188.23403
G1 X81.860 Y110.440 E188.25866
G1 X110.440 Y81.860 E189.35759
