; generated by Slic3r 1.3.0 on 2019-01-08 at 20:30:35

; external perimeters extrusion width = 0.44mm (2.18mm^3/s)
; perimeters extrusion width = 0.56mm (5.69mm^3/s)
; infill extrusion width = 0.50mm (7.31mm^3/s)
; solid infill extrusion width = 0.56mm (2.07mm^3/s)
; top infill extrusion width = 0.56mm (1.55mm^3/s)
; support material extrusion width = 0.44mm (4.76mm^3/s)

M107
M104 S200 ; set temperature
G28
; Filament gcode

M109 S200 ; set temperature and wait for it to be reached
G21 ; set units to millimeters
G90 ; use absolute coordinates
M82 ; use absolute distances for extrusion
G92 E0
G1 Z0.250 F7800.000
G1 E-2.00000 F2400.00000
G92 E0
G1 X41.884 Y84.234 F7800.000
G1 E2.00000 F2400.00000
G1 F1800
G1 X44.565 Y83.650 E2.12730
G1 X67.930 Y83.659 E3.21126
G1 X145.864 Y87.733 E6.83178
G1 X146.900 Y87.809 E6.87995
G1 X147.624 Y87.898 E6.91383
G1 X148.684 Y88.122 E6.96405
G1 X149.380 Y88.328 E6.99774
G1 X155.686 Y90.875 E7.31328
G1 X157.601 Y92.080 E7.41822
G1 X158.981 Y93.872 E7.52317
G1 X159.709 Y96.849 E7.66531
G1 X159.709 Y103.249 E7.96223
G1 X159.312 Y105.476 E8.06717
G1 X158.171 Y107.428 E8.17212
G1 X155.558 Y109.273 E8.32049
G1 X150.329 Y111.264 E8.58006
G1 X148.405 Y111.676 E8.67133
G1 X57.521 Y116.915 E12.89467
G1 X56.073 Y116.834 E12.96199
G1 X55.180 Y116.683 E13.00399
G1 X53.051 Y115.919 E13.10894
G1 X52.006 Y115.172 E13.16853
G1 X43.940 Y108.094 E13.66640
G1 X42.528 Y106.326 E13.77134
G1 X41.978 Y104.962 E13.83956
G1 X38.351 Y91.811 E14.47249
G1 X38.141 Y89.558 E14.57744
G1 X38.723 Y87.372 E14.68238
G1 X40.024 Y85.522 E14.78733
G1 X41.834 Y84.269 E14.88949
G1 E12.88949 F2400.00000
G92 E0
G1 X48.889 Y102.552 F7800.000
G1 E2.00000 F2400.00000
G1 F1800
G1 X48.889 Y97.545 E2.23230
G1 X152.567 Y97.545 E7.04220
G1 X152.567 Y102.552 E7.27450
G1 X48.949 Y102.552 E12.08162
G1 X48.442 Y102.999 F7800.000
G1 F1800
G1 X48.442 Y97.099 E12.35533
G1 X153.013 Y97.099 E17.20665
G1 X153.013 Y102.999 E17.48036
G1 X48.502 Y102.999 E22.32889
G1 X48.636 Y102.648 F7800.000
G1 E20.32889 F2400.00000
G92 E0
G1 X49.161 Y98.165 F7800.000
G1 E2.00000 F2400.00000
G1 F1800
G1 X49.509 Y97.818 E2.02283
G1 X50.141 Y97.818 E2.05223
G1 X49.161 Y98.798 E2.11666
G1 X49.161 Y99.430 E2.14606
G1 X50.774 Y97.818 E2.25208
G1 X51.406 Y97.818 E2.28148
G1 X49.161 Y100.063 E2.42908
G1 X49.161 Y100.695 E2.45849
G1 X52.039 Y97.818 E2.64767
G1 X52.671 Y97.818 E2.67708
G1 X49.161 Y101.328 E2.90785
G1 X49.161 Y101.960 E2.93726
G1 X53.304 Y97.818 E3.20961
G1 X53.936 Y97.818 E3.23902
G1 X49.475 Y102.279 E3.53236
G1 X50.107 Y102.279 E3.56177
G1 X54.569 Y97.818 E3.85511
G1 X55.202 Y97.818 E3.88452
G1 X50.740 Y102.279 E4.17786
G1 X51.372 Y102.279 E4.20727
G1 X55.834 Y97.818 E4.50061
G1 X56.467 Y97.818 E4.53002
G1 X52.005 Y102.279 E4.82336
G1 X52.637 Y102.279 E4.85277
G1 X57.099 Y97.818 E5.14611
G1 X57.732 Y97.818 E5.17552
G1 X53.270 Y102.279 E5.46886
G1 X53.902 Y102.279 E5.49827
G1 X58.364 Y97.818 E5.79161
G1 X58.997 Y97.818 E5.82102
G1 X54.535 Y102.279 E6.11436
G1 X55.167 Y102.279 E6.14377
G1 X59.629 Y97.818 E6.43711
G1 X60.262 Y97.818 E6.46652
G1 X55.800 Y102.279 E6.75986
G1 X56.433 Y102.279 E6.78926
G1 X60.894 Y97.818 E7.08261
G1 X61.527 Y97.818 E7.11201
G1 X57.065 Y102.279 E7.40536
G1 X57.698 Y102.279 E7.43476
G1 X62.159 Y97.818 E7.72811
G1 X62.792 Y97.818 E7.75751
G1 X58.330 Y102.279 E8.05086
G1 X58.963 Y102.279 E8.08026
G1 X63.425 Y97.818 E8.37361
G1 X64.057 Y97.818 E8.40301
G1 X59.595 Y102.279 E8.69636
G1 X60.228 Y102.279 E8.72576
G1 X64.690 Y97.818 E9.01910
G1 X65.322 Y97.818 E9.04851
G1 X60.860 Y102.279 E9.34185
G1 X61.493 Y102.279 E9.37126
G1 X65.955 Y97.818 E9.66460
G1 X66.587 Y97.818 E9.69401
G1 X62.125 Y102.279 E9.98735
G1 X62.758 Y102.279 E10.01676
G1 X67.220 Y97.818 E10.31010
G1 X67.852 Y97.818 E10.33951
G1 X63.391 Y102.279 E10.63285
G1 X64.023 Y102.279 E10.66226
G1 X68.485 Y97.818 E10.95560
G1 X69.117 Y97.818 E10.98501
G1 X64.656 Y102.279 E11.27835
G1 X65.288 Y102.279 E11.30776
G1 X69.750 Y97.818 E11.60110
G1 X70.383 Y97.818 E11.63051
G1 X65.921 Y102.279 E11.92385
G1 X66.553 Y102.279 E11.95326
G1 X71.015 Y97.818 E12.24660
G1 X71.648 Y97.818 E12.27601
G1 X67.186 Y102.279 E12.56935
G1 X67.818 Y102.279 E12.59876
G1 X72.280 Y97.818 E12.89210
G1 X72.913 Y97.818 E12.92151
G1 X68.451 Y102.279 E13.21485
G1 X69.083 Y102.279 E13.24425
G1 X73.545 Y97.818 E13.53760
G1 X74.178 Y97.818 E13.56700
G1 X69.716 Y102.279 E13.86035
G1 X70.349 Y102.279 E13.88975
G1 X74.810 Y97.818 E14.18310
G1 X75.443 Y97.818 E14.21250
G1 X70.981 Y102.279 E14.50585
G1 X71.614 Y102.279 E14.53525
G1 X76.075 Y97.818 E14.82860
G1 X76.708 Y97.818 E14.85800
G1 X72.246 Y102.279 E15.15135
G1 X72.879 Y102.279 E15.18075
G1 X77.341 Y97.818 E15.47409
G1 X77.973 Y97.818 E15.50350
G1 X73.511 Y102.279 E15.79684
G1 X74.144 Y102.279 E15.82625
G1 X78.606 Y97.818 E16.11959
G1 X79.238 Y97.818 E16.14900
G1 X74.776 Y102.279 E16.44234
G1 X75.409 Y102.279 E16.47175
G1 X79.871 Y97.818 E16.76509
G1 X80.503 Y97.818 E16.79450
G1 X76.041 Y102.279 E17.08784
G1 X76.674 Y102.279 E17.11725
G1 X81.136 Y97.818 E17.41059
G1 X81.768 Y97.818 E17.44000
G1 X77.306 Y102.279 E17.73334
G1 X77.939 Y102.279 E17.76275
G1 X82.401 Y97.818 E18.05609
G1 X83.033 Y97.818 E18.08550
G1 X78.572 Y102.279 E18.37884
G1 X79.204 Y102.279 E18.40825
G1 X83.666 Y97.818 E18.70159
G1 X84.298 Y97.818 E18.73100
G1 X79.837 Y102.279 E19.02434
G1 X80.469 Y102.279 E19.05375
G1 X84.931 Y97.818 E19.34709
G1 X85.564 Y97.818 E19.37650
G1 X81.102 Y102.279 E19.66984
G1 X81.734 Y102.279 E19.69924
G1 X86.196 Y97.818 E19.99259
G1 X86.829 Y97.818 E20.02199
G1 X82.367 Y102.279 E20.31534
G1 X82.999 Y102.279 E20.34474
G1 X87.461 Y97.818 E20.63809
G1 X88.094 Y97.818 E20.66749
G1 X83.632 Y102.279 E20.96084
G1 X84.264 Y102.279 E20.99024
G1 X88.726 Y97.818 E21.28359
G1 X89.359 Y97.818 E21.31299
G1 X84.897 Y102.279 E21.60634
G1 X85.530 Y102.279 E21.63574
G1 X89.991 Y97.818 E21.92908
G1 X90.624 Y97.818 E21.95849
G1 X86.162 Y102.279 E22.25183
G1 X86.795 Y102.279 E22.28124
G1 X91.256 Y97.818 E22.57458
G1 X91.889 Y97.818 E22.60399
G1 X87.427 Y102.279 E22.89733
G1 X88.060 Y102.279 E22.92674
G1 X92.522 Y97.818 E23.22008
G1 X93.154 Y97.818 E23.24949
G1 X88.692 Y102.279 E23.54283
G1 X89.325 Y102.279 E23.57224
G1 X93.787 Y97.818 E23.86558
G1 X94.419 Y97.818 E23.89499
G1 X89.957 Y102.279 E24.18833
G1 X90.590 Y102.279 E24.21774
G1 X95.052 Y97.818 E24.51108
G1 X95.684 Y97.818 E24.54049
G1 X91.222 Y102.279 E24.83383
G1 X91.855 Y102.279 E24.86324
G1 X96.317 Y97.818 E25.15658
G1 X96.949 Y97.818 E25.18599
G1 X92.487 Y102.279 E25.47933
G1 X93.120 Y102.279 E25.50874
G1 X97.582 Y97.818 E25.80208
G1 X98.214 Y97.818 E25.83149
G1 X93.753 Y102.279 E26.12483
G1 X94.385 Y102.279 E26.15423
G1 X98.847 Y97.818 E26.44758
G1 X99.479 Y97.818 E26.47698
G1 X95.018 Y102.279 E26.77033
G1 X95.650 Y102.279 E26.79973
G1 X100.112 Y97.818 E27.09308
G1 X100.745 Y97.818 E27.12248
G1 X96.283 Y102.279 E27.41583
G1 X96.915 Y102.279 E27.44523
G1 X101.377 Y97.818 E27.73858
G1 X102.010 Y97.818 E27.76798
G1 X97.548 Y102.279 E28.06132
G1 X98.180 Y102.279 E28.09073
G1 X102.642 Y97.818 E28.38407
G1 X103.275 Y97.818 E28.41348
G1 X98.813 Y102.279 E28.70682
G1 X99.445 Y102.279 E28.73623
G1 X103.907 Y97.818 E29.02957
G1 X104.540 Y97.818 E29.05898
G1 X100.078 Y102.279 E29.35232
G1 X100.711 Y102.279 E29.38173
G1 X105.172 Y97.818 E29.67507
G1 X105.805 Y97.818 E29.70448
G1 X101.343 Y102.279 E29.99782
G1 X101.976 Y102.279 E30.02723
G1 X106.437 Y97.818 E30.32057
G1 X107.070 Y97.818 E30.34998
G1 X102.608 Y102.279 E30.64332
G1 X103.241 Y102.279 E30.67273
G1 X107.703 Y97.818 E30.96607
G1 X108.335 Y97.818 E30.99548
G1 X103.873 Y102.279 E31.28882
G1 X104.506 Y102.279 E31.31823
G1 X108.968 Y97.818 E31.61157
G1 X109.600 Y97.818 E31.64098
G1 X105.138 Y102.279 E31.93432
G1 X105.771 Y102.279 E31.96373
G1 X110.233 Y97.818 E32.25707
G1 X110.865 Y97.818 E32.28647
G1 X106.403 Y102.279 E32.57982
G1 X107.036 Y102.279 E32.60922
G1 X111.498 Y97.818 E32.90257
G1 X112.130 Y97.818 E32.93197
G1 X107.669 Y102.279 E33.22532
G1 X108.301 Y102.279 E33.25472
G1 X112.763 Y97.818 E33.54807
G1 X113.395 Y97.818 E33.57747
G1 X108.934 Y102.279 E33.87082
G1 X109.566 Y102.279 E33.90022
G1 X114.028 Y97.818 E34.19357
G1 X114.661 Y97.818 E34.22297
G1 X110.199 Y102.279 E34.51631
G1 X110.831 Y102.279 E34.54572
G1 X115.293 Y97.818 E34.83906
G1 X115.926 Y97.818 E34.86847
G1 X111.464 Y102.279 E35.16181
G1 X112.096 Y102.279 E35.19122
G1 X116.558 Y97.818 E35.48456
G1 X117.191 Y97.818 E35.51397
G1 X112.729 Y102.279 E35.80731
G1 X113.361 Y102.279 E35.83672
G1 X117.823 Y97.818 E36.13006
G1 X118.456 Y97.818 E36.15947
G1 X113.994 Y102.279 E36.45281
G1 X114.626 Y102.279 E36.48222
G1 X119.088 Y97.818 E36.77556
G1 X119.721 Y97.818 E36.80497
G1 X115.259 Y102.279 E37.09831
G1 X115.892 Y102.279 E37.12772
G1 X120.353 Y97.818 E37.42106
G1 X120.986 Y97.818 E37.45047
G1 X116.524 Y102.279 E37.74381
G1 X117.157 Y102.279 E37.77322
G1 X121.618 Y97.818 E38.06656
G1 X122.251 Y97.818 E38.09596
G1 X117.789 Y102.279 E38.38931
G1 X118.422 Y102.279 E38.41871
G1 X122.884 Y97.818 E38.71206
G1 X123.516 Y97.818 E38.74146
G1 X119.054 Y102.279 E39.03481
G1 X119.687 Y102.279 E39.06421
G1 X124.149 Y97.818 E39.35756
G1 X124.781 Y97.818 E39.38696
G1 X120.319 Y102.279 E39.68031
G1 X120.952 Y102.279 E39.70971
G1 X125.414 Y97.818 E40.00306
G1 X126.046 Y97.818 E40.03246
G1 X121.584 Y102.279 E40.32581
G1 X122.217 Y102.279 E40.35521
G1 X126.679 Y97.818 E40.64855
G1 X127.311 Y97.818 E40.67796
G1 X122.850 Y102.279 E40.97130
G1 X123.482 Y102.279 E41.00071
G1 X127.944 Y97.818 E41.29405
G1 X128.576 Y97.818 E41.32346
G1 X124.115 Y102.279 E41.61680
G1 X124.747 Y102.279 E41.64621
G1 X129.209 Y97.818 E41.93955
G1 X129.842 Y97.818 E41.96896
G1 X125.380 Y102.279 E42.26230
G1 X126.012 Y102.279 E42.29171
G1 X130.474 Y97.818 E42.58505
G1 X131.107 Y97.818 E42.61446
G1 X126.645 Y102.279 E42.90780
G1 X127.277 Y102.279 E42.93721
G1 X131.739 Y97.818 E43.23055
G1 X132.372 Y97.818 E43.25996
G1 X127.910 Y102.279 E43.55330
G1 X128.542 Y102.279 E43.58271
G1 X133.004 Y97.818 E43.87605
G1 X133.637 Y97.818 E43.90546
G1 X129.175 Y102.279 E44.19880
G1 X129.808 Y102.279 E44.22821
G1 X134.269 Y97.818 E44.52155
G1 X134.902 Y97.818 E44.55096
G1 X130.440 Y102.279 E44.84430
G1 X131.073 Y102.279 E44.87370
G1 X135.534 Y97.818 E45.16705
G1 X136.167 Y97.818 E45.19645
G1 X131.705 Y102.279 E45.48980
G1 X132.338 Y102.279 E45.51920
G1 X136.799 Y97.818 E45.81255
G1 X137.432 Y97.818 E45.84195
G1 X132.970 Y102.279 E46.13530
G1 X133.603 Y102.279 E46.16470
G1 X138.065 Y97.818 E46.45805
G1 X138.697 Y97.818 E46.48745
G1 X134.235 Y102.279 E46.78080
G1 X134.868 Y102.279 E46.81020
G1 X139.330 Y97.818 E47.10354
G1 X139.962 Y97.818 E47.13295
G1 X135.500 Y102.279 E47.42629
G1 X136.133 Y102.279 E47.45570
G1 X140.595 Y97.818 E47.74904
G1 X141.227 Y97.818 E47.77845
G1 X136.765 Y102.279 E48.07179
G1 X137.398 Y102.279 E48.10120
G1 X141.860 Y97.818 E48.39454
G1 X142.492 Y97.818 E48.42395
G1 X138.031 Y102.279 E48.71729
G1 X138.663 Y102.279 E48.74670
G1 X143.125 Y97.818 E49.04004
G1 X143.757 Y97.818 E49.06945
G1 X139.296 Y102.279 E49.36279
G1 X139.928 Y102.279 E49.39220
G1 X144.390 Y97.818 E49.68554
G1 X145.023 Y97.818 E49.71495
G1 X140.561 Y102.279 E50.00829
G1 X141.193 Y102.279 E50.03770
G1 X145.655 Y97.818 E50.33104
G1 X146.288 Y97.818 E50.36045
G1 X141.826 Y102.279 E50.65379
G1 X142.458 Y102.279 E50.68319
G1 X146.920 Y97.818 E50.97654
G1 X147.553 Y97.818 E51.00594
G1 X143.091 Y102.279 E51.29929
G1 X143.723 Y102.279 E51.32869
G1 X148.185 Y97.818 E51.62204
G1 X148.818 Y97.818 E51.65144
G1 X144.356 Y102.279 E51.94479
G1 X144.989 Y102.279 E51.97419
G1 X149.450 Y97.818 E52.26754
G1 X150.083 Y97.818 E52.29694
G1 X145.621 Y102.279 E52.59029
G1 X146.254 Y102.279 E52.61969
G1 X150.715 Y97.818 E52.91303
G1 X151.348 Y97.818 E52.94244
G1 X146.886 Y102.279 E53.23578
G1 X147.519 Y102.279 E53.26519
G1 X151.981 Y97.818 E53.55853
G1 X152.294 Y97.818 E53.57310
G1 X152.294 Y98.137 E53.58794
G1 X148.151 Y102.279 E53.86029
G1 X148.784 Y102.279 E53.88970
G1 X152.294 Y98.769 E54.12047
G1 X152.294 Y99.402 E54.14987
G1 X149.416 Y102.279 E54.33905
G1 X150.049 Y102.279 E54.36846
G1 X152.294 Y100.035 E54.51605
G1 X152.294 Y100.667 E54.54546
G1 X150.681 Y102.279 E54.65147
G1 X151.314 Y102.279 E54.68087
G1 X152.294 Y101.300 E54.74530
G1 X152.294 Y101.932 E54.77470
G1 X151.946 Y102.279 E54.79754
G1 Z0.250 F7800.000
G1 E52.79754 F2400.00000
G92 E0
G1 X149.098 Y104.372 F7800.000
G1 E2.00000 F2400.00000
G1 F1800
G1 X149.098 Y104.132 E2.01114
G1 X148.206 Y104.132 E2.05256
G1 X148.206 Y105.125 E2.09864
G1 X148.034 Y105.240 E2.10822
G1 X147.313 Y105.240 E2.14168
G1 X147.313 Y104.132 E2.19311
G1 X146.420 Y104.132 E2.23453
G1 X146.420 Y105.240 E2.28596
G1 X145.528 Y105.240 E2.32737
G1 X145.528 Y104.132 E2.37880
G1 X144.635 Y104.132 E2.42022
G1 X144.635 Y105.240 E2.47165
G1 X143.742 Y105.240 E2.51306
G1 X143.742 Y104.132 E2.56449
G1 X142.850 Y104.132 E2.60591
G1 X142.850 Y105.240 E2.65734
G1 X142.826 Y105.240 E2.65844
G1 X142.423 Y104.989 E2.68047
G1 X141.957 Y104.622 E2.70798
G1 X141.957 Y104.132 E2.73074
G1 E0.73074 F2400.00000
G92 E0
G1 X139.279 Y105.148 F7800.000
G1 E2.00000 F2400.00000
G1 F1800
G1 X139.279 Y104.132 E2.04715
G1 X138.386 Y104.132 E2.08856
G1 X138.386 Y105.240 E2.13999
G1 X137.493 Y105.240 E2.18141
G1 X137.493 Y104.132 E2.23284
G1 X136.601 Y104.132 E2.27425
G1 X136.601 Y105.240 E2.32568
G1 X135.708 Y105.240 E2.36710
G1 X135.708 Y104.132 E2.41853
G1 X134.815 Y104.132 E2.45994
G1 X134.815 Y105.240 E2.51137
G1 X133.923 Y105.240 E2.55279
G1 X133.923 Y104.132 E2.60422
G1 X133.030 Y104.132 E2.64563
G1 X133.030 Y105.240 E2.69706
G1 X132.640 Y105.240 E2.71516
G1 X132.137 Y104.406 E2.76035
G1 X132.137 Y104.132 E2.77307
G1 X131.244 Y105.702 F7800.000
G1 F1800
G1 X131.626 Y105.702 E2.79077
G1 X131.244 Y105.068 E2.82507
G1 X131.244 Y105.702 E2.85446
G1 E0.85446 F2400.00000
G92 E0
G1 X128.566 Y105.240 F7800.000
G1 E2.00000 F2400.00000
G1 F1800
G1 X128.566 Y104.132 E2.05143
G1 X127.674 Y104.132 E2.09284
G1 X127.674 Y105.240 E2.14428
G1 X126.781 Y105.240 E2.18569
G1 X126.781 Y104.132 E2.23712
G1 X125.888 Y104.132 E2.27853
G1 X125.888 Y105.240 E2.32996
G1 X124.996 Y105.240 E2.37138
G1 X124.996 Y104.132 E2.42281
G1 X124.103 Y104.132 E2.46422
G1 X124.103 Y105.240 E2.51565
G1 X123.605 Y105.240 E2.53876
G1 X123.210 Y105.001 E2.56018
G1 X123.210 Y104.132 E2.60049
G1 X122.317 Y104.132 E2.64191
G1 X122.317 Y104.241 E2.64698
G1 X122.214 Y104.132 E2.65397
G1 X122.317 Y104.132 E2.65878
G1 E0.65878 F2400.00000
G92 E0
G1 X114.283 Y104.216 F7800.000
G1 E2.00000 F2400.00000
G1 F1800
G1 X114.283 Y104.132 E2.00393
G1 X113.390 Y104.132 E2.04534
G1 X113.390 Y105.031 E2.08706
G1 X113.082 Y105.240 E2.10434
G1 X112.498 Y105.240 E2.13146
G1 X112.498 Y104.132 E2.18289
G1 X111.605 Y104.132 E2.22431
G1 X111.605 Y105.240 E2.27574
G1 X110.712 Y105.240 E2.31715
G1 X110.712 Y104.132 E2.36858
G1 X110.322 Y104.132 E2.38670
G1 X110.136 Y104.663 E2.41282
G1 X109.820 Y104.609 E2.42769
G1 X109.820 Y105.240 E2.45696
G1 X108.927 Y105.240 E2.49837
G1 X108.927 Y104.132 E2.54981
G1 X108.034 Y104.132 E2.59122
G1 X108.034 Y105.240 E2.64265
G1 X107.874 Y105.240 E2.65009
G1 X107.471 Y104.989 E2.67213
G1 X107.142 Y104.739 E2.69131
G1 X107.142 Y104.132 E2.71948
G1 E0.71948 F2400.00000
G92 E0
G1 X99.107 Y105.240 F7800.000
G1 E2.00000 F2400.00000
G1 F1800
G1 X99.107 Y104.132 E2.05143
G1 X98.215 Y104.132 E2.09284
G1 X98.215 Y105.240 E2.14428
G1 X97.322 Y105.240 E2.18569
G1 X97.322 Y104.132 E2.23712
G1 X96.429 Y104.132 E2.27853
G1 X96.429 Y105.240 E2.32996
G1 X95.537 Y105.240 E2.37138
G1 X95.537 Y104.132 E2.42281
G1 X94.644 Y104.132 E2.46422
G1 X94.644 Y105.240 E2.51565
G1 X93.751 Y105.240 E2.55707
G1 X93.751 Y104.132 E2.60850
G1 X92.858 Y104.132 E2.64991
G1 X92.858 Y104.963 E2.68849
G1 X92.364 Y104.132 E2.73336
G1 X92.858 Y104.132 E2.75628
G1 X91.073 Y104.132 F7800.000
G1 F1800
G1 X91.073 Y105.820 E2.83458
G1 X91.966 Y105.902 F7800.000
G1 F1800
G1 X92.131 Y105.905 E2.84224
G1 X91.966 Y105.627 E2.85724
G1 X91.966 Y105.902 E2.87000
G1 E0.87000 F2400.00000
G92 E0
G1 X89.288 Y105.240 F7800.000
G1 E2.00000 F2400.00000
G1 F1800
