; generated by Slic3r 1.3.0 on 2019-01-05 at 16:47:33

; external perimeters extrusion width = 0.44mm (2.18mm^3/s)
; perimeters extrusion width = 0.56mm (5.69mm^3/s)
; infill extrusion width = 0.50mm (7.31mm^3/s)
; solid infill extrusion width = 0.56mm (2.07mm^3/s)
; top infill extrusion width = 0.56mm (1.55mm^3/s)
; support material extrusion width = 0.44mm (4.76mm^3/s)

M107
M104 S200 ; set temperature
G28
; Filament gcode

M109 S200 ; set temperature and wait for it to be reached
G21 ; set units to millimeters
G90 ; use absolute coordinates
M82 ; use absolute distances for extrusion
G92 E0
G1 Z0.250 F7800.000
G1 E-2.00000 F2400.00000
G92 E0
G1 X84.834 Y85.431 F7800.000
G1 E2.00000 F2400.00000
G1 F1800
G1 X85.431 Y84.834 E2.01331
G1 X85.753 Y84.551 E2.02009
G1 X86.422 Y84.038 E2.03340
G1 X86.599 Y83.920 E2.03675
G1 X87.429 Y83.450 E2.05181
G1 X88.322 Y83.029 E2.06739
G1 X89.079 Y82.728 E2.08025
G1 X89.894 Y82.510 E2.09357
G1 X90.315 Y82.426 E2.10035
G1 X91.150 Y82.316 E2.11365
G1 X91.958 Y82.277 E2.12642
G1 X108.042 Y82.277 E2.38032
G1 X108.850 Y82.316 E2.39310
G1 X109.686 Y82.426 E2.40640
G1 X110.106 Y82.510 E2.41318
G1 X110.921 Y82.728 E2.42649
G1 X111.678 Y83.029 E2.43935
G1 X112.571 Y83.450 E2.45494
G1 X113.401 Y83.920 E2.46999
G1 X114.247 Y84.552 E2.48666
G1 X114.569 Y84.834 E2.49343
G1 X115.166 Y85.431 E2.50674
G1 X115.449 Y85.753 E2.51351
G1 X116.072 Y86.588 E2.52996
G1 X116.980 Y88.660 E2.56567
G1 X117.159 Y90.169 E2.58966
G1 X117.159 Y109.831 E2.90005
G1 X116.762 Y112.058 E2.93576
G1 X115.261 Y114.399 E2.97966
G1 X114.368 Y115.288 E2.99955
G1 X113.401 Y116.080 E3.01928
G1 X112.491 Y116.622 E3.03600
G1 X112.106 Y116.811 E3.04278
G1 X111.327 Y117.134 E3.05609
G1 X110.998 Y117.246 E3.06157
G1 X109.895 Y117.515 E3.07950
G1 X109.002 Y117.650 E3.09376
G1 X108.034 Y117.723 E3.10908
G1 X91.966 Y117.723 E3.36274
G1 X90.998 Y117.650 E3.37806
G1 X90.105 Y117.515 E3.39232
G1 X89.001 Y117.246 E3.41026
G1 X88.673 Y117.134 E3.41573
G1 X87.894 Y116.811 E3.42904
G1 X87.509 Y116.621 E3.43582
G1 X86.599 Y116.080 E3.45253
G1 X85.632 Y115.288 E3.47227
G1 X84.739 Y114.399 E3.49216
G1 X83.928 Y113.412 E3.51232
G1 X83.378 Y112.491 E3.52925
G1 X83.189 Y112.106 E3.53603
G1 X82.866 Y111.327 E3.54934
G1 X82.728 Y110.921 E3.55611
G1 X82.510 Y110.106 E3.56942
G1 X82.426 Y109.684 E3.57622
G1 X82.316 Y108.850 E3.58951
G1 X82.277 Y108.042 E3.60228
G1 X82.277 Y91.958 E3.85618
G1 X82.316 Y91.150 E3.86895
G1 X82.426 Y90.314 E3.88226
G1 X82.510 Y89.894 E3.88903
G1 X82.728 Y89.079 E3.90234
G1 X82.866 Y88.673 E3.90912
G1 X83.189 Y87.894 E3.92243
G1 X83.379 Y87.509 E3.92921
G1 X83.800 Y86.779 E3.94251
G1 X84.039 Y86.422 E3.94929
G1 X84.551 Y85.754 E3.96258
G1 X84.795 Y85.476 E3.96842
G1 E1.96842 F2400.00000
G92 E0
G1 X101.296 Y101.564 F7800.000
G1 E2.00000 F2400.00000
G1 F1800
G1 X98.704 Y101.564 E2.04093
G1 X98.704 Y103.949 E2.07858
G1 X98.171 Y103.949 E2.08698
G1 X98.171 Y101.171 E2.13083
G1 X101.829 Y101.171 E2.18857
G1 X101.829 Y103.949 E2.23242
G1 X101.296 Y103.949 E2.24082
G1 X101.296 Y101.624 E2.27753
G1 X100.850 Y102.011 F7800.000
G1 F1800
G1 X99.150 Y102.011 E2.30436
G1 X99.150 Y104.242 E2.33959
G1 X98.996 Y104.395 E2.34302
G1 X97.725 Y104.395 E2.36309
G1 X97.725 Y100.725 E2.42103
G1 X102.275 Y100.725 E2.49286
G1 X102.275 Y104.395 E2.55080
G1 X101.004 Y104.395 E2.57087
G1 X100.850 Y104.242 E2.57430
G1 X100.850 Y102.071 E2.60858
G1 X100.841 Y101.611 F7800.000
G1 X101.562 Y101.395 F7800.000
G1 F1800
G1 X101.562 Y103.726 E2.61124
G1 E0.61124 F2400.00000
G92 E0
G1 X98.438 Y103.726 F7800.000
G1 E2.00000 F2400.00000
G1 F1800
G1 X98.438 Y101.395 E2.00266
G1 Z0.250 F7800.000
G1 E0.00266 F2400.00000
G92 E0
G1 X95.537 Y104.087 F7800.000
G1 E2.00000 F2400.00000
G1 F1800
G1 X96.117 Y104.087 E2.00916
G1 X96.117 Y102.433 E2.03527
G1 X95.537 Y102.433 E2.04443
G1 X95.537 Y104.087 E2.07054
G1 X95.537 Y105.193 F7800.000
G1 F1800
G1 X95.193 Y105.193 E2.07596
G1 X95.193 Y111.277 E2.17200
G1 X95.537 Y111.277 E2.17742
G1 X95.537 Y105.193 E2.27346
G1 X96.117 Y105.193 E2.28262
G1 X96.117 Y105.529 E2.28791
G1 X96.429 Y105.529 E2.29284
G1 X96.429 Y111.277 E2.38359
G1 X96.929 Y111.277 E2.39147
G1 X97.322 Y110.884 E2.40025
G1 X97.322 Y105.529 E2.48479
G1 X98.215 Y105.529 E2.49888
G1 X98.215 Y109.991 E2.56933
G1 E0.56933 F2400.00000
G92 E0
G1 X93.751 Y111.277 F7800.000
G1 E2.00000 F2400.00000
G1 F1800
G1 X93.751 Y105.193 E2.09604
G1 X92.858 Y105.193 E2.11013
G1 X92.858 Y111.277 E2.20617
G1 X91.966 Y111.277 E2.22026
G1 X91.966 Y105.193 E2.31630
G1 X91.073 Y105.193 E2.33039
G1 X91.073 Y111.141 E2.42429
G1 X90.745 Y111.030 E2.42976
G1 X90.360 Y110.840 E2.43654
G1 X90.180 Y110.720 E2.43995
G1 X90.180 Y105.193 E2.52720
G1 X89.288 Y105.193 E2.54129
G1 X89.288 Y109.831 E2.61451
G1 X89.160 Y109.640 E2.61814
G1 X88.970 Y109.255 E2.62491
G1 X88.863 Y108.940 E2.63015
G1 X88.748 Y108.428 E2.63845
G1 X88.723 Y108.042 E2.64456
G1 X88.723 Y105.193 E2.68952
G1 X89.288 Y105.193 E2.69843
G1 E0.69843 F2400.00000
G92 E0
G1 X92.858 Y103.867 F7800.000
G1 E2.00000 F2400.00000
G1 F1800
G1 X92.858 Y95.193 E2.13693
G1 X91.966 Y95.193 E2.15102
G1 X91.966 Y103.867 E2.28794
G1 X91.073 Y103.867 E2.30204
G1 X91.073 Y95.193 E2.43896
G1 X90.180 Y95.193 E2.45305
G1 X90.180 Y103.867 E2.58998
G1 X89.288 Y103.867 E2.60407
G1 X89.288 Y95.193 E2.74100
G1 E0.74100 F2400.00000
G92 E0
G1 X93.751 Y93.714 F7800.000
G1 E2.00000 F2400.00000
G1 F1800
G1 X93.751 Y88.723 E2.07878
G1 X92.858 Y88.723 E2.09288
G1 X92.858 Y93.867 E2.17407
G1 X91.966 Y93.867 E2.18817
G1 X91.966 Y88.723 E2.26937
G1 X91.572 Y88.748 E2.27560
G1 X91.073 Y88.859 E2.28366
G1 X91.073 Y93.867 E2.36272
G1 X90.180 Y93.867 E2.37681
G1 X90.180 Y89.280 E2.44922
G1 X90.004 Y89.398 E2.45258
G1 X89.681 Y89.681 E2.45935
G1 X89.398 Y90.004 E2.46613
G1 X89.288 Y90.169 E2.46927
G1 X89.288 Y93.867 E2.52764
G1 X88.723 Y93.867 E2.53655
G1 X88.723 Y91.958 E2.56668
G1 X88.748 Y91.572 E2.57279
G1 X88.832 Y91.151 E2.57957
G1 X88.970 Y90.745 E2.58634
G1 X89.160 Y90.360 E2.59311
G1 X89.288 Y90.169 E2.59674
G1 E0.59674 F2400.00000
G92 E0
G1 X95.537 Y88.723 F7800.000
G1 E2.00000 F2400.00000
G1 F1800
G1 X94.973 Y88.723 E2.00889
G1 X94.973 Y93.715 E2.08769
G1 X95.537 Y93.715 E2.09658
G1 X95.537 Y88.723 E2.17539
G1 X96.429 Y88.723 E2.18948
G1 X96.429 Y93.867 E2.27068
G1 X97.322 Y93.867 E2.28477
G1 X97.322 Y88.723 E2.36597
G1 X98.215 Y88.723 E2.38006
G1 X98.215 Y93.867 E2.46126
G1 X99.107 Y93.867 E2.47536
G1 X99.107 Y88.723 E2.55656
G1 X100.000 Y88.723 E2.57065
G1 X100.000 Y93.663 E2.64863
G1 X100.212 Y93.691 E2.65201
G1 X100.314 Y93.726 E2.65371
G1 X100.538 Y93.867 E2.65789
G1 X100.893 Y93.867 E2.66349
G1 X100.893 Y88.723 E2.74469
G1 X101.785 Y88.723 E2.75878
G1 X101.785 Y93.867 E2.83998
G1 X102.678 Y93.867 E2.85407
G1 X102.678 Y88.723 E2.93527
G1 X103.571 Y88.723 E2.94936
G1 X103.571 Y93.867 E3.03056
G1 E1.03056 F2400.00000
G92 E0
G1 X108.034 Y95.193 F7800.000
G1 E2.00000 F2400.00000
G1 F1800
G1 X107.788 Y95.193 E2.00389
G1 X107.788 Y103.867 E2.14082
G1 X108.034 Y103.867 E2.14471
G1 X108.034 Y95.193 E2.28164
G1 X108.927 Y95.193 E2.29573
G1 X108.927 Y103.867 E2.43266
G1 X109.820 Y103.867 E2.44675
G1 X109.820 Y95.193 E2.58368
G1 X110.712 Y95.193 E2.59777
G1 X110.712 Y103.867 E2.73469
G1 E0.73469 F2400.00000
G92 E0
G1 X105.356 Y106.283 F7800.000
G1 E2.00000 F2400.00000
G1 F1800
G1 X105.356 Y111.277 E2.07883
G1 X106.249 Y111.277 E2.09292
G1 X106.249 Y106.280 E2.17180
G1 X107.142 Y106.278 E2.18589
G1 X107.142 Y111.277 E2.26481
G1 X108.034 Y111.277 E2.27890
G1 X108.034 Y105.193 E2.37494
G1 X108.927 Y105.193 E2.38903
G1 X108.927 Y111.141 E2.48293
G1 X109.255 Y111.030 E2.48840
G1 X109.640 Y110.840 E2.49517
G1 X109.820 Y110.720 E2.49859
G1 X109.820 Y105.193 E2.58583
G1 X110.712 Y105.193 E2.59993
G1 X110.712 Y109.831 E2.67314
G1 E0.67314 F2400.00000
G92 E0
G1 X103.571 Y111.277 F7800.000
G1 E2.00000 F2400.00000
G1 F1800
G1 X104.087 Y111.277 E2.00815
G1 X104.087 Y100.933 E2.17144
G1 X103.883 Y100.933 E2.17465
G1 X103.883 Y105.529 E2.24720
G1 X103.571 Y105.529 E2.25213
G1 X103.571 Y111.277 E2.34288
G1 E0.34288 F2400.00000
G92 E0
G1 X93.751 Y103.867 F7800.000
G1 E2.00000 F2400.00000
G1 F1800
G1 X93.867 Y103.867 E2.00183
G1 X93.867 Y102.433 E2.02446
G1 X93.751 Y102.433 E2.02629
G1 X93.751 Y103.867 E2.04892
G1 E0.04892 F2400.00000
G92 E0
G1 X96.429 Y95.193 F7800.000
G1 E2.00000 F2400.00000
G1 F1800
G1 X96.429 Y98.787 E2.05673
G1 X97.322 Y98.787 E2.07082
G1 X97.322 Y95.193 E2.12755
G1 X98.215 Y95.193 E2.14165
G1 X98.215 Y98.787 E2.19838
G1 X99.107 Y98.787 E2.21247
G1 X99.107 Y95.193 E2.26920
G1 X99.589 Y95.193 E2.27680
G1 X99.788 Y95.276 E2.28020
G1 X100.000 Y95.304 E2.28358
G1 X100.000 Y98.787 E2.33857
G1 X100.893 Y98.787 E2.35266
G1 X100.893 Y95.193 E2.40939
G1 X101.785 Y95.193 E2.42348
G1 X101.785 Y98.787 E2.48021
G1 X102.678 Y98.787 E2.49430
G1 X102.678 Y95.193 E2.55104
G1 X103.571 Y95.193 E2.56513
G1 X103.571 Y98.787 E2.62186
G1 E0.62186 F2400.00000
G92 E0
G1 X110.712 Y93.867 F7800.000
G1 E2.00000 F2400.00000
G1 F1800
G1 X110.712 Y90.169 E2.05838
G1 X110.602 Y90.004 E2.06152
G1 X110.319 Y89.681 E2.06829
G1 X109.996 Y89.398 E2.07506
G1 X109.820 Y89.280 E2.07842
G1 X109.820 Y93.867 E2.15083
G1 X108.927 Y93.867 E2.16492
G1 X108.927 Y88.859 E2.24398
G1 X108.428 Y88.748 E2.25204
G1 X108.042 Y88.723 E2.25816
G1 X108.034 Y93.867 E2.33936
G1 X107.788 Y93.867 E2.34325
G1 X107.788 Y93.724 E2.34550
G1 X107.142 Y93.724 E2.35570
G1 X107.142 Y88.723 E2.43464
G1 X106.249 Y88.723 E2.44873
G1 X106.249 Y93.723 E2.52766
G1 X105.356 Y93.722 E2.54176
G1 X105.356 Y88.723 E2.62067
G1 Z0.350 F7800.000
G1 E0.62067 F2400.00000
G92 E0
G1 X108.907 Y88.616 F7800.000
G1 E2.00000 F2400.00000
G1 F3600
G1 X108.490 Y88.533 E2.00252
G1 X108.490 Y90.570 E2.01458
G1 X110.570 Y90.570 E2.02689
G1 X110.570 Y89.629 E2.03247
G1 X110.477 Y89.523 E2.03330
G1 X110.133 Y89.221 E2.03601
G1 X109.752 Y88.966 E2.03873
G1 X109.341 Y88.763 E2.04144
G1 X108.907 Y88.616 E2.04415
G1 E0.04415 F2400.00000
G92 E0
G1 X104.500 Y93.945 F7800.000
G1 E2.00000 F2400.00000
G1 F3600
G1 X104.500 Y88.500 E2.03224
G1 X94.750 Y88.500 E2.08997
G1 X94.750 Y93.938 E2.12217
G1 X96.560 Y93.939 E2.13289
G1 X96.560 Y89.560 E2.15881
G1 X97.170 Y89.560 E2.16243
G1 X97.170 Y91.890 E2.17622
G1 X101.890 Y91.890 E2.20417
G1 X101.890 Y89.560 E2.21797
G1 X103.440 Y89.560 E2.22714
G1 X103.440 Y93.944 E2.25310
G1 X104.500 Y93.945 E2.25938
G1 E0.25938 F2400.00000
G92 E0
G1 X101.273 Y91.273 F7800.000
G1 E2.00000 F2400.00000
G1 F3600
G1 X101.273 Y90.647 E2.00371
G1 X101.146 Y90.647 E2.00446
G1 X100.784 Y91.273 E2.00874
G1 X101.273 Y91.273 E2.01164
G1 X101.273 Y90.250 F7800.000
G1 F3600
G1 X101.273 Y89.117 E2.01834
G1 X100.492 Y89.117 E2.02297
G1 X101.146 Y90.250 E2.03071
G1 X101.273 Y90.250 E2.03147
G1 E0.03147 F2400.00000
G92 E0
G1 X95.943 Y92.827 F7800.000
G1 E2.00000 F2400.00000
G1 F3600
G1 X95.367 Y91.829 E2.00682
G1 X95.367 Y93.321 E2.01565
G1 X95.943 Y93.321 E2.01906
G1 X95.943 Y92.827 E2.02199
G1 E0.02199 F2400.00000
G92 E0
G1 X90.570 Y90.570 F7800.000
G1 E2.00000 F2400.00000
G1 F3600
G1 X90.570 Y88.808 E2.01044
G1 X90.248 Y88.966 E2.01256
G1 X89.867 Y89.221 E2.01527
G1 X89.523 Y89.523 E2.01799
G1 X89.221 Y89.867 E2.02070
G1 X88.966 Y90.248 E2.02341
G1 X88.808 Y90.570 E2.02554
G1 X90.570 Y90.570 E2.03597
G1 E0.03597 F2400.00000
G92 E0
G1 X89.953 Y99.834 F7800.000
G1 E2.00000 F2400.00000
G1 F3600
G1 X89.953 Y99.107 E2.00431
G1 X89.117 Y99.107 E2.00925
G1 X89.117 Y99.338 E2.01062
G1 X89.666 Y99.338 E2.01387
G1 X89.953 Y99.834 E2.01727
G1 X90.570 Y100.570 F7800.000
G1 F3600
G1 X90.570 Y98.490 E2.02958
G1 X88.500 Y98.490 E2.04184
G1 X88.500 Y100.570 E2.05416
G1 X90.570 Y100.570 E2.06641
G1 E0.06641 F2400.00000
G92 E0
G1 X95.526 Y103.693 F7800.000
G1 E2.00000 F2400.00000
G1 F3600
G1 X95.367 Y103.418 E2.00188
G1 X95.367 Y103.693 E2.00351
G1 X95.526 Y103.693 E2.00445
G1 X96.340 Y104.310 F7800.000
G1 F3600
G1 X96.340 Y102.210 E2.01689
G1 X94.750 Y102.210 E2.02630
G1 X94.750 Y104.310 E2.03874
G1 X96.340 Y104.310 E2.04815
G1 E0.04815 F2400.00000
G92 E0
G1 X98.500 Y110.021 F7800.000
G1 E2.00000 F2400.00000
G1 F3600
G1 X98.490 Y108.490 E2.00907
G1 X98.490 Y110.031 E2.01819
G1 X98.500 Y110.021 E2.01828
G1 E0.01828 F2400.00000
G92 E0
G1 X103.693 Y110.883 F7800.000
G1 E2.00000 F2400.00000
G1 F3600
G1 X103.693 Y108.029 E2.01690
G1 X103.307 Y108.029 E2.01918
G1 X103.307 Y110.883 E2.03608
G1 X103.693 Y110.883 E2.03836
G1 X104.310 Y111.500 F7800.000
G1 F3600
G1 X104.310 Y100.710 E2.10225
G1 X103.660 Y100.710 E2.10610
G1 X103.660 Y105.305 E2.13331
G1 X102.690 Y105.305 E2.13906
G1 X102.690 Y111.211 E2.17403
G1 X102.979 Y111.500 E2.17644
G1 X104.310 Y111.500 E2.18433
G1 X103.693 Y107.632 F7800.000
G1 F3600
G1 X103.693 Y105.923 E2.19445
G1 X103.307 Y105.923 E2.19673
G1 X103.307 Y107.632 E2.20686
G1 X103.693 Y107.632 E2.20914
G1 E0.20914 F2400.00000
G92 E0
G1 X110.570 Y110.371 F7800.000
G1 E2.00000 F2400.00000
G1 F3600
G1 X110.570 Y108.490 E2.01114
G1 X108.490 Y108.490 E2.02346
G1 X108.490 Y110.570 E2.03577
G1 X110.371 Y110.570 E2.04691
G1 X110.570 Y110.371 E2.04857
G1 E0.04857 F2400.00000
G92 E0
G1 X110.570 Y100.570 F7800.000
G1 E2.00000 F2400.00000
G1 F3600
G1 X110.570 Y98.490 E2.01232
G1 X108.490 Y98.490 E2.02463
G1 X108.490 Y100.570 E2.03695
G1 X110.570 Y100.570 E2.04926
G1 X109.953 Y99.710 F7800.000
G1 F3600
G1 X109.953 Y99.107 E2.05284
G1 X109.107 Y99.107 E2.05784
G1 X109.107 Y99.338 E2.05921
G1 X109.738 Y99.338 E2.06295
G1 X109.953 Y99.710 E2.06549
G1 E0.06549 F2400.00000
G92 E0
G1 X101.890 Y99.010 F7800.000
G1 E2.00000 F2400.00000
G1 F3600
G1 X101.890 Y97.170 E2.01089
G1 X97.170 Y97.170 E2.03884
G1 X97.170 Y99.010 E2.04974
G1 X101.890 Y99.010 E2.07769
G1 X101.273 Y98.393 F7800.000
G1 F3600
G1 X101.273 Y97.787 E2.08127
G1 X100.368 Y97.787 E2.08663
G1 X100.019 Y98.393 E2.09077
G1 X101.273 Y98.393 E2.09820
G1 E0.09820 F2400.00000
G92 E0
G1 X90.570 Y110.570 F7800.000
G1 E2.00000 F2400.00000
G1 F3600
G1 X90.570 Y108.490 E2.01232
G1 X88.533 Y108.490 E2.02438
G1 X88.616 Y108.907 E2.02689
G1 X88.763 Y109.341 E2.02960
G1 X88.966 Y109.752 E2.03232
G1 X89.221 Y110.133 E2.03503
G1 X89.523 Y110.477 E2.03774
G1 X89.629 Y110.570 E2.03858
G1 X90.570 Y110.570 E2.04415
G1 Z0.450 F7800.000
G1 E0.04415 F2400.00000
G92 E0
G1 X101.277 Y101.583 F7800.000
G1 E2.00000 F2400.00000
G1 F900
G1 X98.723 Y101.583 E2.03737
G1 X98.723 Y103.968 E2.07226
G1 X97.927 Y103.968 E2.08390
G1 X97.927 Y100.927 E2.12840
G1 X102.073 Y100.927 E2.18906
G1 X102.073 Y103.968 E2.23355
G1 X101.277 Y103.968 E2.24519
G1 X101.277 Y101.643 E2.27921
G1 X100.820 Y102.041 F7800.000
G1 F900
G1 X99.180 Y102.041 E2.29763
G1 X99.180 Y104.254 E2.32251
G1 X99.009 Y104.425 E2.32523
G1 X97.470 Y104.425 E2.34252
G1 X97.470 Y100.470 E2.38696
G1 X102.530 Y100.470 E2.44380
G1 X102.530 Y104.425 E2.48824
G1 X100.991 Y104.425 E2.50553
G1 X100.820 Y104.254 E2.50825
G1 X100.820 Y102.101 E2.53245
G1 X100.810 Y101.641 F7800.000
G1 X101.582 Y101.278 F7800.000
G1 F1200
G1 X101.536 Y101.255 E2.53266
G1 X98.464 Y101.255 E2.54507
G1 X98.372 Y101.302 E2.54549
G1 F1200
G1 X98.325 Y101.325 E2.54584
G1 X98.325 Y103.710 E2.56174
G1 E0.56174 F2400.00000
G92 E0
G1 X101.675 Y103.710 F7800.000
G1 E2.00000 F2400.00000
G1 F1200
G1 X101.675 Y101.325 E2.01591
G1 X101.582 Y101.278 E2.01661
G1 Z0.650 F7800.000
G1 X101.277 Y101.583 F7800.000
G1 F900
G1 X98.723 Y101.583 E2.05398
G1 X98.723 Y103.968 E2.08887
G1 X97.727 Y103.968 E2.10344
G1 X97.727 Y100.727 E2.15086
G1 X102.273 Y100.727 E2.21737
G1 X102.273 Y103.968 E2.26479
G1 X101.277 Y103.968 E2.27936
G1 X101.277 Y101.643 E2.31337
G1 X100.820 Y102.041 F7800.000
G1 F900
G1 X99.180 Y102.041 E2.33180
G1 X99.180 Y104.254 E2.35667
G1 X99.009 Y104.425 E2.35939
G1 X97.270 Y104.425 E2.37893
G1 X97.270 Y100.270 E2.42561
G1 X102.730 Y100.270 E2.48696
G1 X102.730 Y104.425 E2.53364
G1 X100.991 Y104.425 E2.55318
G1 X100.820 Y104.254 E2.55590
G1 X100.820 Y102.101 E2.58010
G1 X100.810 Y101.641 F7800.000
G1 X101.536 Y101.155 F7800.000
G1 F1200
G1 X98.464 Y101.155 E2.60585
G1 X98.407 Y101.175 E2.60636
G1 F1200
G1 X98.291 Y101.214 E2.60765
G1 F1200
G1 X98.234 Y101.234 E2.60843
G1 X98.225 Y101.325 E2.60961
