; generated by Slic3r 1.3.0 on 2019-01-05 at 16:17:40

; external perimeters extrusion width = 0.44mm (2.18mm^3/s)
; perimeters extrusion width = 0.56mm (5.69mm^3/s)
; infill extrusion width = 0.50mm (7.31mm^3/s)
; solid infill extrusion width = 0.56mm (2.07mm^3/s)
; top infill extrusion width = 0.56mm (1.55mm^3/s)

M107
M104 S200 ; set temperature
G28 ; home all axes
G1 Z5 F5000 ; lift nozzle

; Filament gcode

M109 S200 ; set temperature and wait for it to be reached
G21 ; set units to millimeters
G90 ; use absolute coordinates
M82 ; use absolute distances for extrusion
G92 E0
G1 Z0.250 F7800.000
G1 E-2.00000 F2400.00000
G92 E0
G1 X75.092 Y75.820 F7800.000
G1 E2.00000 F2400.00000
G1 F1800
G1 X76.839 Y74.382 E2.03571
G1 X80.000 Y73.554 E2.08730
G1 X120.000 Y73.554 E2.71876
G1 X122.227 Y73.951 E2.75447
G1 X124.180 Y75.092 E2.79018
G1 X125.618 Y76.839 E2.82589
G1 X126.446 Y80.000 E2.87748
G1 X126.446 Y120.000 E3.50894
G1 X126.049 Y122.227 E3.54465
G1 X124.908 Y124.180 E3.58036
G1 X123.161 Y125.618 E3.61607
G1 X120.000 Y126.446 E3.66766
G1 X80.000 Y126.446 E4.29912
G1 X77.773 Y126.049 E4.33483
G1 X75.820 Y124.908 E4.37054
G1 X74.382 Y123.161 E4.40625
G1 X73.554 Y120.000 E4.45784
G1 X73.554 Y80.000 E5.08930
G1 X73.951 Y77.773 E5.12501
G1 X75.062 Y75.872 E5.15977
G1 E3.15977 F2400.00000
G92 E0
G1 X119.304 Y119.304 F7800.000
G1 E2.00000 F2400.00000
G1 F1800
G1 X80.696 Y119.304 E2.60947
G1 X80.696 Y80.696 E3.21894
G1 X119.304 Y80.696 E3.82841
G1 X119.304 Y119.244 E4.43693
G1 X119.750 Y119.750 F7800.000
G1 F1800
G1 X80.250 Y119.750 E5.06049
G1 X80.250 Y80.250 E5.68406
G1 X119.750 Y80.250 E6.30762
G1 X119.750 Y119.690 E6.93023
G1 X119.364 Y119.646 F7800.000
G1 X118.684 Y119.031 F7800.000
G1 F1800
G1 X119.031 Y118.684 E6.93802
G1 X119.031 Y118.050 E6.94807
G1 X118.050 Y119.031 E6.97006
G1 X117.416 Y119.031 E6.98011
G1 X119.031 Y117.416 E7.01632
G1 X119.031 Y116.782 E7.02637
G1 X116.782 Y119.031 E7.07678
G1 X116.148 Y119.031 E7.08683
G1 X119.031 Y116.148 E7.15145
G1 X119.031 Y115.514 E7.16150
G1 X115.514 Y119.031 E7.24034
G1 X114.880 Y119.031 E7.25039
G1 X119.031 Y114.880 E7.34343
G1 X119.031 Y114.247 E7.35348
G1 X114.247 Y119.031 E7.46073
G1 X113.613 Y119.031 E7.47078
G1 X119.031 Y113.613 E7.59225
G1 X119.031 Y112.979 E7.60229
G1 X112.979 Y119.031 E7.73797
G1 X112.345 Y119.031 E7.74802
G1 X119.031 Y112.345 E7.89790
G1 X119.031 Y111.711 E7.90795
G1 X111.711 Y119.031 E8.07204
G1 X111.077 Y119.031 E8.08209
G1 X119.031 Y111.077 E8.26040
G1 X119.031 Y110.443 E8.27044
G1 X110.443 Y119.031 E8.46296
G1 X109.810 Y119.031 E8.47301
G1 X119.031 Y109.810 E8.67973
G1 X119.031 Y109.176 E8.68978
G1 X109.176 Y119.031 E8.91071
G1 X108.542 Y119.031 E8.92076
G1 X119.031 Y108.542 E9.15590
G1 X119.031 Y107.908 E9.16595
G1 X107.908 Y119.031 E9.41530
G1 X107.274 Y119.031 E9.42535
G1 X119.031 Y107.274 E9.68892
G1 X119.031 Y106.640 E9.69896
G1 X106.640 Y119.031 E9.97674
G1 X106.006 Y119.031 E9.98678
G1 X119.031 Y106.006 E10.27877
G1 X119.031 Y105.373 E10.28882
G1 X105.373 Y119.031 E10.59501
G1 X104.739 Y119.031 E10.60506
G1 X119.031 Y104.739 E10.92546
G1 X119.031 Y104.105 E10.93551
G1 X104.105 Y119.031 E11.27012
G1 X103.471 Y119.031 E11.28017
G1 X119.031 Y103.471 E11.62899
G1 X119.031 Y102.837 E11.63904
G1 X102.837 Y119.031 E12.00207
G1 X102.203 Y119.031 E12.01212
G1 X119.031 Y102.203 E12.38936
G1 X119.031 Y101.569 E12.39941
G1 X101.569 Y119.031 E12.79086
G1 X100.936 Y119.031 E12.80091
G1 X119.031 Y100.936 E13.20657
G1 X119.031 Y100.302 E13.21662
G1 X100.302 Y119.031 E13.63649
G1 X99.668 Y119.031 E13.64654
G1 X119.031 Y99.668 E14.08062
G1 X119.031 Y99.034 E14.09066
G1 X99.034 Y119.031 E14.53896
G1 X98.400 Y119.031 E14.54900
G1 X119.031 Y98.400 E15.01150
G1 X119.031 Y97.766 E15.02155
G1 X97.766 Y119.031 E15.49826
G1 X97.132 Y119.031 E15.50831
G1 X119.031 Y97.132 E15.99923
G1 X119.031 Y96.499 E16.00928
G1 X96.499 Y119.031 E16.51441
G1 X95.865 Y119.031 E16.52446
G1 X119.031 Y95.865 E17.04380
G1 X119.031 Y95.231 E17.05385
G1 X95.231 Y119.031 E17.58740
G1 X94.597 Y119.031 E17.59744
G1 X119.031 Y94.597 E18.14520
G1 X119.031 Y93.963 E18.15525
G1 X93.963 Y119.031 E18.71722
G1 X93.329 Y119.031 E18.72727
G1 X119.031 Y93.329 E19.30345
G1 X119.031 Y92.695 E19.31350
G1 X92.695 Y119.031 E19.90389
G1 X92.062 Y119.031 E19.91394
G1 X119.031 Y92.062 E20.51853
G1 X119.031 Y91.428 E20.52858
G1 X91.428 Y119.031 E21.14739
G1 X90.794 Y119.031 E21.15744
G1 X119.031 Y90.794 E21.79046
G1 X119.031 Y90.160 E21.80051
G1 X90.160 Y119.031 E22.44774
G1 X89.526 Y119.031 E22.45778
G1 X119.031 Y89.526 E23.11922
G1 X119.031 Y88.892 E23.12927
G1 X88.892 Y119.031 E23.80492
G1 X88.258 Y119.031 E23.81497
G1 X119.031 Y88.259 E24.50482
G1 X119.031 Y87.625 E24.51487
G1 X87.625 Y119.031 E25.21894
G1 X86.991 Y119.031 E25.22899
G1 X119.031 Y86.991 E25.94727
G1 X119.031 Y86.357 E25.95731
G1 X86.357 Y119.031 E26.68980
G1 X85.723 Y119.031 E26.69985
G1 X119.031 Y85.723 E27.44655
G1 X119.031 Y85.089 E27.45660
G1 X85.089 Y119.031 E28.21750
G1 X84.455 Y119.031 E28.22755
G1 X119.031 Y84.455 E29.00267
G1 X119.031 Y83.822 E29.01272
G1 X83.821 Y119.031 E29.80204
G1 X83.188 Y119.031 E29.81209
G1 X119.031 Y83.188 E30.61563
G1 X119.031 Y82.554 E30.62568
G1 X82.554 Y119.031 E31.44342
G1 X81.920 Y119.031 E31.45347
G1 X119.031 Y81.920 E32.28543
G1 X119.031 Y81.286 E32.29548
G1 X81.286 Y119.031 E33.14164
G1 X80.969 Y119.031 E33.14667
G1 X80.969 Y118.714 E33.15169
G1 X118.714 Y80.969 E33.99786
G1 X118.080 Y80.969 E34.00791
G1 X80.969 Y118.080 E34.83987
G1 X80.969 Y117.446 E34.84992
G1 X117.446 Y80.969 E35.66767
G1 X116.812 Y80.969 E35.67771
G1 X80.969 Y116.812 E36.48125
G1 X80.969 Y116.179 E36.49130
G1 X116.179 Y80.969 E37.28063
G1 X115.545 Y80.969 E37.29068
G1 X80.969 Y115.545 E38.06580
G1 X80.969 Y114.911 E38.07585
G1 X114.911 Y80.969 E38.83676
G1 X114.277 Y80.969 E38.84680
G1 X80.969 Y114.277 E39.59351
G1 X80.969 Y113.643 E39.60355
G1 X113.643 Y80.969 E40.33604
G1 X113.009 Y80.969 E40.34609
G1 X80.969 Y113.009 E41.06437
G1 X80.969 Y112.375 E41.07442
G1 X112.375 Y80.969 E41.77849
G1 X111.742 Y80.969 E41.78854
G1 X80.969 Y111.742 E42.47840
G1 X80.969 Y111.108 E42.48845
G1 X111.108 Y80.969 E43.16410
G1 X110.474 Y80.969 E43.17415
G1 X80.969 Y110.474 E43.83559
G1 X80.969 Y109.840 E43.84564
G1 X109.840 Y80.969 E44.49287
G1 X109.206 Y80.969 E44.50292
G1 X80.969 Y109.206 E45.13594
G1 X80.969 Y108.572 E45.14599
G1 X108.572 Y80.969 E45.76480
G1 X107.938 Y80.969 E45.77485
G1 X80.969 Y107.938 E46.37945
G1 X80.969 Y107.305 E46.38950
G1 X107.305 Y80.969 E46.97989
G1 X106.671 Y80.969 E46.98994
G1 X80.969 Y106.671 E47.56612
G1 X80.969 Y106.037 E47.57617
G1 X106.037 Y80.969 E48.13814
G1 X105.403 Y80.969 E48.14819
G1 X80.969 Y105.403 E48.69595
G1 X80.969 Y104.769 E48.70600
G1 X104.769 Y80.969 E49.23955
G1 X104.135 Y80.969 E49.24960
G1 X80.969 Y104.135 E49.76894
G1 X80.969 Y103.501 E49.77899
G1 X103.502 Y80.969 E50.28412
G1 X102.868 Y80.969 E50.29417
G1 X80.969 Y102.868 E50.78509
G1 X80.969 Y102.234 E50.79514
G1 X102.234 Y80.969 E51.27186
G1 X101.600 Y80.969 E51.28190
G1 X80.969 Y101.600 E51.74441
G1 X80.969 Y100.966 E51.75446
G1 X100.966 Y80.969 E52.20275
G1 X100.332 Y80.969 E52.21280
G1 X80.969 Y100.332 E52.64688
G1 X80.969 Y99.698 E52.65693
G1 X99.698 Y80.969 E53.07680
G1 X99.065 Y80.969 E53.08685
G1 X80.969 Y99.065 E53.49252
G1 X80.969 Y98.431 E53.50256
G1 X98.431 Y80.969 E53.89402
G1 X97.797 Y80.969 E53.90407
G1 X80.969 Y97.797 E54.28131
G1 X80.969 Y97.163 E54.29136
G1 X97.163 Y80.969 E54.65439
G1 X96.529 Y80.969 E54.66444
G1 X80.969 Y96.529 E55.01327
G1 X80.969 Y95.895 E55.02331
G1 X95.895 Y80.969 E55.35793
G1 X95.261 Y80.969 E55.36798
G1 X80.969 Y95.261 E55.68838
G1 X80.969 Y94.628 E55.69843
G1 X94.628 Y80.969 E56.00463
G1 X93.994 Y80.969 E56.01467
G1 X80.969 Y93.994 E56.30666
G1 X80.969 Y93.360 E56.31671
G1 X93.360 Y80.969 E56.59448
G1 X92.726 Y80.969 E56.60453
G1 X80.969 Y92.726 E56.86810
G1 X80.969 Y92.092 E56.87815
G1 X92.092 Y80.969 E57.12750
G1 X91.458 Y80.969 E57.13755
G1 X80.969 Y91.458 E57.37270
G1 X80.969 Y90.824 E57.38274
G1 X90.824 Y80.969 E57.60368
G1 X90.191 Y80.969 E57.61373
G1 X80.969 Y90.191 E57.82045
G1 X80.969 Y89.557 E57.83050
G1 X89.557 Y80.969 E58.02302
G1 X88.923 Y80.969 E58.03307
G1 X80.969 Y88.923 E58.21137
G1 X80.969 Y88.289 E58.22142
G1 X88.289 Y80.969 E58.38552
G1 X87.655 Y80.969 E58.39557
G1 X80.969 Y87.655 E58.54545
G1 X80.969 Y87.021 E58.55550
G1 X87.021 Y80.969 E58.69118
G1 X86.387 Y80.969 E58.70123
G1 X80.969 Y86.387 E58.82270
G1 X80.969 Y85.754 E58.83274
G1 X85.754 Y80.969 E58.94000
G1 X85.120 Y80.969 E58.95005
G1 X80.969 Y85.120 E59.04310
G1 X80.969 Y84.486 E59.05315
G1 X84.486 Y80.969 E59.13198
G1 X83.852 Y80.969 E59.14203
G1 X80.969 Y83.852 E59.20666
G1 X80.969 Y83.218 E59.21671
G1 X83.218 Y80.969 E59.26713
G1 X82.584 Y80.969 E59.27717
G1 X80.969 Y82.584 E59.31338
G1 X80.969 Y81.950 E59.32343
G1 X81.950 Y80.969 E59.34543
G1 X81.317 Y80.969 E59.35548
G1 X80.969 Y81.316 E59.36326
G1 Z0.450 F7800.000
G1 X119.323 Y119.323 F7800.000
G1 F3300
G1 X80.677 Y119.323 E59.92866
G1 X80.677 Y80.677 E60.49407
G1 X119.323 Y80.677 E61.05947
G1 X119.323 Y119.263 E61.62399
G1 X119.780 Y119.780 F7800.000
G1 F1650
G1 X80.220 Y119.780 E62.06845
G1 X80.220 Y80.220 E62.51291
G1 X119.780 Y80.220 E62.95737
G1 X119.780 Y119.720 E63.40115
G1 X119.394 Y119.676 F7800.000
G1 X119.007 Y81.395 F7800.000
G1 F1200
G1 X118.605 Y80.993 E63.40955
G1 X117.867 Y80.993 E63.42043
G1 X119.007 Y82.133 E63.44421
G1 X119.007 Y82.870 E63.45510
G1 X117.130 Y80.993 E63.49427
G1 X116.392 Y80.993 E63.50515
G1 X119.007 Y83.608 E63.55971
G1 X119.007 Y84.345 E63.57059
G1 X115.655 Y80.993 E63.64054
G1 X114.917 Y80.993 E63.65142
G1 X119.007 Y85.083 E63.73676
G1 X119.007 Y85.820 E63.74764
G1 X114.180 Y80.993 E63.84837
G1 X113.442 Y80.993 E63.85925
G1 X119.007 Y86.558 E63.97537
G1 X119.007 Y87.295 E63.98625
G1 X112.705 Y80.993 E64.11775
G1 X111.967 Y80.993 E64.12864
G1 X119.007 Y88.033 E64.27553
G1 X119.007 Y88.770 E64.28641
G1 X111.230 Y80.993 E64.44869
G1 X110.492 Y80.993 E64.45957
G1 X119.007 Y89.508 E64.63724
G1 X119.007 Y90.245 E64.64812
G1 X109.755 Y80.993 E64.84118
G1 X109.017 Y80.993 E64.85206
G1 X119.007 Y90.983 E65.06051
G1 X119.007 Y91.720 E65.07139
G1 X108.280 Y80.993 E65.29523
G1 X107.542 Y80.993 E65.30611
G1 X119.007 Y92.458 E65.54533
G1 X119.007 Y93.195 E65.55622
G1 X106.805 Y80.993 E65.81083
G1 X106.067 Y80.993 E65.82171
G1 X119.007 Y93.933 E66.09171
G1 X119.007 Y94.670 E66.10259
G1 X105.330 Y80.993 E66.38798
G1 X104.592 Y80.993 E66.39887
G1 X119.007 Y95.408 E66.69964
G1 X119.007 Y96.145 E66.71053
G1 X103.855 Y80.993 E67.02669
G1 X103.118 Y80.993 E67.03757
G1 X119.007 Y96.882 E67.36913
G1 X119.007 Y97.620 E67.38001
G1 X102.380 Y80.993 E67.72696
G1 X101.643 Y80.993 E67.73784
G1 X119.007 Y98.357 E68.10017
G1 X119.007 Y99.095 E68.11105
G1 X100.905 Y80.993 E68.48878
G1 X100.168 Y80.993 E68.49966
G1 X119.007 Y99.832 E68.89277
G1 X119.007 Y100.570 E68.90365
G1 X99.430 Y80.993 E69.31215
G1 X98.693 Y80.993 E69.32303
G1 X119.007 Y101.307 E69.74692
G1 X119.007 Y102.045 E69.75780
G1 X97.955 Y80.993 E70.19708
G1 X97.218 Y80.993 E70.20796
G1 X119.007 Y102.782 E70.66262
G1 X119.007 Y103.520 E70.67350
G1 X96.480 Y80.993 E71.14356
G1 X95.743 Y80.993 E71.15444
G1 X119.007 Y104.257 E71.63988
G1 X119.007 Y104.995 E71.65076
G1 X95.005 Y80.993 E72.15159
G1 X94.268 Y80.993 E72.16247
G1 X119.007 Y105.732 E72.67869
G1 X119.007 Y106.470 E72.68958
G1 X93.530 Y80.993 E73.22118
G1 X92.793 Y80.993 E73.23207
G1 X119.007 Y107.207 E73.77906
G1 X119.007 Y107.945 E73.78994
G1 X92.055 Y80.993 E74.35233
G1 X91.318 Y80.993 E74.36321
G1 X119.007 Y108.682 E74.94098
G1 X119.007 Y109.420 E74.95187
G1 X90.580 Y80.993 E75.54503
G1 X89.843 Y80.993 E75.55591
G1 X119.007 Y110.157 E76.16446
G1 X119.007 Y110.895 E76.17534
G1 X89.105 Y80.993 E76.79928
G1 X88.368 Y80.993 E76.81016
G1 X119.007 Y111.632 E77.44949
G1 X119.007 Y112.370 E77.46037
G1 X87.630 Y80.993 E78.11509
G1 X86.893 Y80.993 E78.12597
G1 X119.007 Y113.107 E78.79608
G1 X119.007 Y113.845 E78.80696
G1 X86.155 Y80.993 E79.49245
G1 X85.418 Y80.993 E79.50334
G1 X119.007 Y114.582 E80.20422
G1 X119.007 Y115.320 E80.21510
G1 X84.680 Y80.993 E80.93137
G1 X83.943 Y80.993 E80.94225
G1 X119.007 Y116.057 E81.67391
G1 X119.007 Y116.794 E81.68479
G1 X83.206 Y80.993 E82.43184
G1 X82.468 Y80.993 E82.44272
G1 X119.007 Y117.532 E83.20516
G1 X119.007 Y118.269 E83.21604
G1 X81.731 Y80.993 E83.99387
G1 X80.993 Y80.993 E84.00475
G1 X119.007 Y119.007 E84.79797
G1 X118.270 Y119.007 E84.80885
G1 X80.993 Y81.730 E85.58668
G1 X80.993 Y82.468 E85.59756
G1 X117.532 Y119.007 E86.36000
G1 X116.795 Y119.007 E86.37088
G1 X80.993 Y83.205 E87.11793
G1 X80.993 Y83.943 E87.12881
G1 X116.057 Y119.007 E87.86047
G1 X115.320 Y119.007 E87.87135
G1 X80.993 Y84.680 E88.58763
G1 X80.993 Y85.418 E88.59851
G1 X114.582 Y119.007 E89.29939
G1 X113.845 Y119.007 E89.31027
G1 X80.993 Y86.155 E89.99577
G1 X80.993 Y86.893 E90.00665
G1 X113.107 Y119.007 E90.67676
G1 X112.370 Y119.007 E90.68764
G1 X80.993 Y87.630 E91.34236
G1 X80.993 Y88.368 E91.35324
G1 X111.632 Y119.007 E91.99257
G1 X110.895 Y119.007 E92.00345
G1 X80.993 Y89.105 E92.62739
G1 X80.993 Y89.843 E92.63828
G1 X110.157 Y119.007 E93.24683
G1 X109.420 Y119.007 E93.25771
G1 X80.993 Y90.580 E93.85087
G1 X80.993 Y91.318 E93.86176
G1 X108.682 Y119.007 E94.43953
G1 X107.945 Y119.007 E94.45041
G1 X80.993 Y92.055 E95.01280
G1 X80.993 Y92.793 E95.02368
G1 X107.207 Y119.007 E95.57068
G1 X106.470 Y119.007 E95.58156
G1 X80.993 Y93.530 E96.11317
G1 X80.993 Y94.268 E96.12405
G1 X105.732 Y119.007 E96.64027
G1 X104.995 Y119.007 E96.65116
G1 X80.993 Y95.005 E97.15199
G1 X80.993 Y95.743 E97.16287
G1 X104.257 Y119.007 E97.64831
G1 X103.520 Y119.007 E97.65920
G1 X80.993 Y96.480 E98.12925
G1 X80.993 Y97.218 E98.14013
G1 X102.782 Y119.007 E98.59480
G1 X102.045 Y119.007 E98.60568
G1 X80.993 Y97.955 E99.04496
G1 X80.993 Y98.693 E99.05584
G1 X101.307 Y119.007 E99.47973
G1 X100.570 Y119.007 E99.49061
G1 X80.993 Y99.430 E99.89911
G1 X80.993 Y100.168 E99.90999
G1 X99.832 Y119.007 E100.30311
G1 X99.095 Y119.007 E100.31399
G1 X80.993 Y100.905 E100.69171
G1 X80.993 Y101.642 E100.70259
G1 X98.358 Y119.007 E101.06493
G1 X97.620 Y119.007 E101.07581
G1 X80.993 Y102.380 E101.42276
G1 X80.993 Y103.117 E101.43364
G1 X96.883 Y119.007 E101.76520
G1 X96.145 Y119.007 E101.77608
G1 X80.993 Y103.855 E102.09225
G1 X80.993 Y104.592 E102.10313
G1 X95.408 Y119.007 E102.40391
G1 X94.670 Y119.007 E102.41479
G1 X80.993 Y105.330 E102.70018
G1 X80.993 Y106.067 E102.71106
G1 X93.933 Y119.007 E102.98107
G1 X93.195 Y119.007 E102.99195
G1 X80.993 Y106.805 E103.24656
G1 X80.993 Y107.542 E103.25744
G1 X92.458 Y119.007 E103.49667
G1 X91.720 Y119.007 E103.50755
G1 X80.993 Y108.280 E103.73139
G1 X80.993 Y109.017 E103.74227
G1 X90.983 Y119.007 E103.95072
G1 X90.245 Y119.007 E103.96160
G1 X80.993 Y109.755 E104.15466
G1 X80.993 Y110.492 E104.16554
G1 X89.508 Y119.007 E104.34321
G1 X88.770 Y119.007 E104.35410
G1 X80.993 Y111.230 E104.51638
G1 X80.993 Y111.967 E104.52726
G1 X88.033 Y119.007 E104.67416
G1 X87.295 Y119.007 E104.68504
G1 X80.993 Y112.705 E104.81654
G1 X80.993 Y113.442 E104.82742
G1 X86.558 Y119.007 E104.94354
G1 X85.820 Y119.007 E104.95442
G1 X80.993 Y114.180 E105.05515
G1 X80.993 Y114.917 E105.06603
G1 X85.083 Y119.007 E105.15137
G1 X84.345 Y119.007 E105.16225
G1 X80.993 Y115.655 E105.23221
G1 X80.993 Y116.392 E105.24309
G1 X83.608 Y119.007 E105.29765
G1 X82.870 Y119.007 E105.30853
G1 X80.993 Y117.130 E105.34771
G1 X80.993 Y117.867 E105.35859
G1 X82.133 Y119.007 E105.38237
G1 X81.395 Y119.007 E105.39325
G1 X80.993 Y118.605 E105.40165
G1 Z0.650 F7800.000
G1 X119.323 Y119.323 F7800.000
G1 F3300
G1 X80.677 Y119.323 E105.96705
G1 X80.677 Y80.677 E106.53246
G1 X119.323 Y80.677 E107.09786
G1 X119.323 Y119.263 E107.66238
G1 X119.780 Y119.780 F7800.000
G1 F1650
G1 X80.220 Y119.780 E108.10684
G1 X80.220 Y80.220 E108.55130
G1 X119.780 Y80.220 E108.99576
G1 X119.780 Y119.720 E109.43955
G1 X119.394 Y119.676 F7800.000
G1 X118.605 Y119.007 F7800.000
G1 F1200
G1 X119.007 Y118.605 E109.44794
G1 X119.007 Y117.867 E109.45882
