; generated by Slic3r 1.3.1-dev (Build (Unknown revision)) on 2018-12-30 at 22:40:18

; external perimeters extrusion width = 0.55mm (4.37mm^3/s)
; perimeters extrusion width = 0.70mm (11.44mm^3/s)
; infill extrusion width = 0.62mm (13.45mm^3/s)
; solid infill extrusion width = 0.70mm (3.81mm^3/s)
; top infill extrusion width = 0.70mm (2.86mm^3/s)

M107
M104 S200 ; set temperature
G28 ; home all axes
G1 Z5 F5000 ; lift nozzle

; Filament gcode

M109 S200 ; set temperature and wait for it to be reached
G21 ; set units to millimeters
G90 ; use absolute coordinates
M82 ; use absolute distances for extrusion
G92 E0
G92 E0
G1 Z0.350 F7800.000
G1 E-2.00000 F2400.00000
G92 E0
G1 X100.153 Y87.866 F7800.000
G1 E2.00000 F2400.00000
G1 F1144.79
G1 X101.907 Y86.387 E2.07096
G1 X104.059 Y85.595 E2.14192
G1 X105.236 Y85.490 E2.17848
G1 X106.541 Y85.490 E2.21886
G1 X108.800 Y85.887 E2.28982
G1 X110.788 Y87.030 E2.36078
G1 X112.267 Y88.783 E2.43174
G1 X113.060 Y90.935 E2.50271
G1 X113.166 Y92.115 E2.53936
G1 X113.166 Y107.885 E3.02730
G1 X112.769 Y110.144 E3.09826
G1 X111.625 Y112.132 E3.16923
G1 X109.873 Y113.611 E3.24019
G1 X107.721 Y114.404 E3.31115
G1 X106.541 Y114.510 E3.34780
G1 X105.236 Y114.510 E3.38818
G1 X102.977 Y114.113 E3.45914
G1 X100.989 Y112.970 E3.53011
G1 X99.510 Y111.217 E3.60107
G1 X98.717 Y109.065 E3.67203
G1 X98.611 Y107.889 E3.70857
G1 X98.611 Y92.112 E4.19673
G1 X99.009 Y89.853 E4.26769
G1 X100.116 Y87.931 E4.33633
G1 E2.33633 F2400.00000
G92 E0
G1 X106.191 Y107.535 F7800.000
G1 E2.00000 F2400.00000
G1 F1800
G1 X105.586 Y107.535 E2.01872
G1 X105.586 Y92.465 E2.48501
G1 X106.190 Y92.465 E2.50372
G1 X106.191 Y107.460 E2.96768
G1 X105.754 Y107.291 F7800.000
G1 Z0.650 F7800.000
G1 X105.604 Y107.049 F7800.000
G1 F600
G1 X105.129 Y107.049 E2.98051
G1 X105.129 Y92.951 E3.36084
G1 X105.603 Y92.951 E3.37365
G1 X105.604 Y106.974 E3.75196
G1 X106.165 Y107.610 F7800.000
G1 F1800
G1 X104.986 Y107.610 E3.77626

G1 F3600
G1 X104.568 Y107.610 E3.78786
G1 X104.568 Y92.390 E4.21064
G1 X104.986 Y92.390 E4.22224

G1 F1800
G1 X106.164 Y92.390 E4.24653
G1 X106.165 Y107.535 E4.55868
G1 X105.732 Y107.360 F7800.000
G1 Z0.950 F7800.000
G1 X104.995 Y107.049 F7800.000
G1 F600
G1 X104.389 Y107.049 E4.57503
G1 X104.389 Y92.951 E4.95536
G1 X104.995 Y92.951 E4.97171
G1 X104.995 Y106.974 E5.35002
G1 X105.556 Y107.610 F7800.000
G1 F1800
G1 X104.043 Y107.610 E5.38120

G1 F3600
G1 X103.828 Y107.610 E5.38716
G1 X103.828 Y92.390 E5.80994
G1 X104.043 Y92.390 E5.81590

G1 F1800
G1 X105.556 Y92.390 E5.84707
G1 X105.556 Y107.535 E6.15922
G1 X105.115 Y107.374 F7800.000
M106 S255
G1 Z1.250 F7800.000
G1 X104.145 Y107.049 F7800.000
G1 F600
G1 X103.739 Y107.049 E6.17017
G1 X103.739 Y92.951 E6.55051
G1 X104.145 Y92.951 E6.56146
G1 X104.145 Y106.974 E6.93977
G1 X104.705 Y107.610 F7800.000
G1 F1800
G1 X103.303 Y107.610 E6.96867
M106 S255

G1 F3600
G1 X103.178 Y107.610 E6.97215
G1 X103.178 Y92.390 E7.39493
G1 X103.303 Y92.390 E7.39841
M106 S255

G1 F1800
G1 X104.705 Y92.390 E7.42730
G1 X104.705 Y107.535 E7.73945
G1 X104.265 Y107.373 F7800.000
G1 E5.73945 F2400.00000
G92 E0
G1 X104.705 Y92.515 F7800.000
G1 E2.00000 F2400.00000
G1 F1800
G1 X105.863 Y92.515 E2.03371
G1 X106.262 Y92.915 E2.05016
G1 Z1.550 F7800.000
G1 E0.05016 F2400.00000
G92 E0
G1 X103.973 Y107.610 F7800.000
G1 E2.00000 F2400.00000
G1 F600
G1 X102.653 Y107.610 E2.02722
M106 S255

G1 F3600
G1 X102.589 Y107.610 E2.02900
G1 X102.589 Y92.390 E2.45178
G1 X102.653 Y92.390 E2.45356
M106 S255

G1 F600
G1 X103.973 Y92.390 E2.48078
G1 X103.973 Y107.535 E2.79292
G1 X103.540 Y107.360 F7800.000
G1 E0.79292 F2400.00000
G92 E0
G1 X103.973 Y92.515 F7800.000
G1 E2.00000 F2400.00000
G1 F600
G1 X105.781 Y92.515 E2.05454
G1 X106.181 Y92.915 E2.07161
G1 E0.07161 F2400.00000
G92 E0
G1 X106.181 Y107.485 F7800.000
G1 E2.00000 F2400.00000
G1 F600
G1 X103.973 Y107.485 E2.06892
G1 X103.281 Y107.330 F7800.000
G1 F600
G1 X103.281 Y92.670 E2.54159
G1 Z1.850 F7800.000
G1 E0.54159 F2400.00000
G92 E0
G1 X103.329 Y107.610 F7800.000
G1 E2.00000 F2400.00000
G1 F600
G1 X102.064 Y107.610 E2.02607
M106 S255

G1 F3600
G1 X102.064 Y92.390 E2.44885
M106 S255

G1 F600
G1 X103.328 Y92.390 E2.47492
G1 X103.329 Y107.535 E2.78706
G1 X102.895 Y107.360 F7800.000
G1 E0.78706 F2400.00000
G92 E0
G1 X103.328 Y92.515 F7800.000
G1 E2.00000 F2400.00000
G1 F600
G1 X106.099 Y92.515 E2.08651
G1 E0.08651 F2400.00000
G92 E0
G1 X106.100 Y107.485 F7800.000
G1 E2.00000 F2400.00000
G1 F600
G1 X103.329 Y107.485 E2.08652
G1 X102.690 Y107.330 F7800.000
G1 F600
G1 X102.690 Y92.670 E2.49163
G1 Z2.150 F7800.000
G1 E0.49163 F2400.00000
G92 E0
G1 X102.743 Y107.610 F7800.000
G1 E2.00000 F2400.00000
G1 F600
G1 X101.555 Y107.610 E2.02449
G1 X101.555 Y92.390 E2.33818
G1 X102.743 Y92.390 E2.36267
G1 X102.743 Y107.535 E2.67482
G1 X102.310 Y107.360 F7800.000
G1 X102.743 Y107.485 F7800.000
G1 F1130.37
G1 X106.023 Y107.485 E2.77722
G1 E0.77722 F2400.00000
G92 E0
G1 X106.023 Y92.915 F7800.000
G1 E2.00000 F2400.00000
G1 F1130.37
G1 X105.645 Y92.537 E2.01469
G1 F1130.37
G1 X105.623 Y92.515 E2.01566
G1 X102.743 Y92.515 E2.10557
G1 X102.149 Y92.670 F7800.000
G1 F753.583
G1 X102.149 Y107.330 E2.45603
G1 Z2.450 F7800.000
G1 X102.212 Y107.610 F7800.000
G1 F600
G1 X101.097 Y107.610 E2.47901
G1 X101.097 Y92.390 E2.79270
G1 X102.212 Y92.390 E2.81568
G1 X102.212 Y107.535 E3.12783
G1 X101.779 Y107.360 F7800.000
G1 X102.212 Y107.485 F7800.000
G1 F1135.81
G1 X105.948 Y107.485 E3.24447
G1 E1.24447 F2400.00000
G92 E0
G1 X105.948 Y92.515 F7800.000
G1 E2.00000 F2400.00000
G1 F1135.81
G1 X102.212 Y92.515 E2.11664
G1 X101.655 Y92.670 F7800.000
G1 F757.207
G1 X101.655 Y107.330 E2.42150
G1 Z2.750 F7800.000
G1 X101.720 Y107.610 F7800.000
G1 F600
G1 X100.668 Y107.610 E2.44316
G1 X100.668 Y92.390 E2.75685
G1 X101.720 Y92.390 E2.77852
G1 X101.720 Y107.535 E3.09066
G1 X101.287 Y107.360 F7800.000
G1 X101.720 Y107.485 F7800.000
G1 F1144.87
G1 X105.878 Y107.485 E3.22048
G1 E1.22048 F2400.00000
G92 E0
G1 X105.877 Y92.915 F7800.000
G1 E2.00000 F2400.00000
G1 F1144.87
G1 X105.525 Y92.563 E2.01255
G1 F1144.87
G1 X105.477 Y92.515 E2.01451
G1 X101.720 Y92.515 E2.12426
G1 X101.194 Y92.670 F7800.000
G1 F763.244
G1 X101.194 Y107.330 E2.38938
G1 Z3.050 F7800.000
G1 X101.263 Y107.610 F7800.000
G1 F658.594
G1 X100.266 Y107.610 E2.40994
G1 X100.266 Y92.390 E2.72363
G1 X101.263 Y92.390 E2.74419
G1 X101.263 Y107.535 E3.05634
G1 X100.825 Y107.370 F7800.000
G1 X101.263 Y107.485 F7800.000
G1 F1317.19
G1 X105.046 Y107.485 E3.17442
G1 F1317.19
G1 X105.350 Y107.427 E3.18512
G1 X105.389 Y107.256 E3.19117
G1 F1317.19
G1 X105.427 Y107.085 E3.19665
G1 X105.427 Y92.915 E3.63968
G1 X105.408 Y92.830 E3.64242
G1 F1317.19
G1 X105.350 Y92.573 E3.65149
G1 X105.147 Y92.534 E3.65862
G1 F1317.19
G1 X105.046 Y92.515 E3.66185
G1 X101.263 Y92.515 E3.77993
G1 X100.764 Y92.670 F7800.000
G1 F878.126
G1 X100.764 Y107.330 E4.01187
G1 Z3.350 F7800.000
G1 X100.839 Y107.610 F7800.000
G1 F661.555
G1 X99.886 Y107.610 E4.03150
G1 X99.886 Y92.390 E4.34518
G1 X100.839 Y92.390 E4.36481
G1 X100.839 Y107.535 E4.67696
G1 X100.400 Y107.369 F7800.000
G1 X100.839 Y107.485 F7800.000
G1 F1323.11
G1 X104.940 Y107.485 E4.80502
G1 X105.052 Y107.462 E4.80857
G1 F1323.11
G1 X105.274 Y107.415 E4.81658
G1 X105.342 Y107.085 E4.82843
G1 F1323.11
G1 X105.342 Y92.915 E5.27322
G1 X105.320 Y92.805 E5.27674
G1 F1323.11
G1 X105.274 Y92.585 E5.28466
G1 X104.940 Y92.515 E5.29668
G1 F1323.11
G1 X100.839 Y92.515 E5.42474
G1 X100.362 Y92.670 F7800.000
G1 F882.074
G1 X100.362 Y107.330 E5.62845
G1 Z3.650 F7800.000
G1 X100.439 Y107.610 F7800.000
G1 F664.588
G1 X99.528 Y107.610 E5.64723
G1 X99.528 Y92.390 E5.96092
G1 X100.439 Y92.390 E5.97970
G1 X100.439 Y107.535 E6.29185
G1 X100.001 Y107.369 F7800.000
G1 X100.439 Y107.485 F7800.000
G1 F1329.18
G1 X104.875 Y107.485 E6.43033
G1 X104.987 Y107.462 E6.43390
G1 F1329.18
G1 X105.210 Y107.415 E6.44194
G1 X105.278 Y107.085 E6.45379
G1 F1329.18
G1 X105.278 Y92.915 E6.89960
G1 X105.255 Y92.805 E6.90313
G1 F1329.18
G1 X105.210 Y92.585 E6.91105
G1 X104.875 Y92.515 E6.92314
G1 F1329.18
G1 X100.439 Y92.515 E7.06162
G1 X99.984 Y92.670 F7800.000
G1 F886.117
G1 X99.984 Y107.330 E7.23983
G1 Z3.950 F7800.000
G1 X100.063 Y107.610 F7800.000
G1 F667.486
G1 X99.189 Y107.610 E7.25785
G1 X99.189 Y92.390 E7.57153
G1 X100.063 Y92.390 E7.58955
G1 X100.063 Y107.535 E7.90170
G1 X99.625 Y107.368 F7800.000
G1 X100.063 Y107.485 F7800.000
G1 F1334.97
G1 X104.813 Y107.485 E8.05000
G1 X104.926 Y107.461 E8.05360
G1 F1334.97
G1 X105.151 Y107.414 E8.06171
G1 X105.218 Y107.085 E8.07353
G1 F1334.97
G1 X105.218 Y92.915 E8.52140
G1 X105.196 Y92.805 E8.52493
G1 F1334.97
G1 X105.151 Y92.586 E8.53284
G1 X104.926 Y92.539 E8.54099
G1 F1334.97
G1 X104.813 Y92.515 E8.54481
G1 X100.063 Y92.515 E8.70270
G1 X99.626 Y92.670 F7800.000
G1 F889.981
G1 X99.626 Y107.330 E8.85774
G1 Z4.250 F7800.000
G1 X99.708 Y107.610 F7800.000
G1 F670.229
G1 X98.868 Y107.610 E8.87506
G1 X98.868 Y92.390 E9.18875
G1 X99.708 Y92.390 E9.20607
G1 X99.708 Y107.535 E9.51821
G1 X99.270 Y107.368 F7800.000
G1 X99.708 Y107.485 F7800.000
G1 F1340.46
G1 X104.754 Y107.485 E9.67575
G1 X104.867 Y107.461 E9.67936
G1 F1340.46
G1 X105.093 Y107.413 E9.68751
G1 X105.159 Y107.085 E9.69932
G1 F1340.46
G1 X105.159 Y92.915 E10.14824
G1 X105.138 Y92.782 E10.15250
G1 F1340.46
G1 X105.093 Y92.587 E10.15959
G1 X104.754 Y92.515 E10.17185
G1 F1340.46
G1 X99.708 Y92.515 E10.32939
G1 X99.288 Y92.670 F7800.000
G1 F893.639
G1 X99.288 Y107.330 E10.46329
G1 Z4.550 F7800.000
G1 X99.372 Y107.610 F7800.000
G1 F672.863
G1 X98.563 Y107.610 E10.47996
G1 X98.563 Y92.390 E10.79365
G1 X99.372 Y92.390 E10.81032
G1 X99.372 Y107.535 E11.12247
G1 X98.934 Y107.368 F7800.000
G1 X99.372 Y107.485 F7800.000
G1 F1345.73
G1 X104.699 Y107.485 E11.28877
G1 X104.812 Y107.461 E11.29240
G1 F1345.73
G1 X105.040 Y107.412 E11.30061
G1 X105.105 Y107.085 E11.31241
G1 F1345.73
G1 X105.105 Y92.915 E11.76304
G1 X105.084 Y92.806 E11.76658
G1 F1345.73
G1 X105.040 Y92.588 E11.77449
G1 X104.812 Y92.539 E11.78275
G1 F1345.73
G1 X104.699 Y92.515 E11.78662
G1 X99.372 Y92.515 E11.96388
G1 X98.967 Y92.670 F7800.000
G1 F897.151
G1 X98.967 Y107.330 E12.07838
G1 Z4.850 F7800.000
G1 X99.053 Y107.610 F7800.000
G1 F675.368
G1 X98.273 Y107.610 E12.09446
G1 X98.273 Y92.390 E12.40815
G1 X99.053 Y92.390 E12.42423
G1 X99.053 Y107.535 E12.73637
G1 X98.616 Y107.367 F7800.000
G1 X99.053 Y107.485 F7800.000
G1 F1350.74
G1 X104.645 Y107.485 E12.91095
G1 X104.759 Y107.461 E12.91459
G1 F1350.74
G1 X104.987 Y107.412 E12.92284
G1 X105.053 Y107.085 E12.93463
G1 F1350.74
G1 X105.047 Y92.821 E13.38930
G1 X105.047 Y92.821 F7800.000
G1 F1350.74
G1 X105.007 Y92.666 E13.39476
G1 F1350.74
G1 X104.987 Y92.588 E13.39777
G1 X104.759 Y92.539 E13.40650
G1 F1350.74
G1 X104.645 Y92.515 E13.41038
G1 X99.053 Y92.515 E13.59654
G1 X98.663 Y92.670 F7800.000
G1 F900.491
G1 X98.663 Y107.330 E13.69316
G1 Z5.150 F7800.000
G1 X98.751 Y107.610 F7800.000
G1 F677.773
G1 X97.997 Y107.610 E13.70869
G1 X97.997 Y92.390 E14.02238
G1 X98.751 Y92.390 E14.03791
G1 X98.751 Y107.535 E14.35005
G1 X98.314 Y107.367 F7800.000
G1 X98.751 Y107.485 F7800.000
G1 F1355.55
G1 X104.596 Y107.485 E14.54476
G1 X104.711 Y107.460 E14.54867
G1 F1355.55
G1 X104.940 Y107.411 E14.55703
G1 X104.983 Y107.194 E14.56493
G1 F1355.55
G1 X105.005 Y107.085 E14.56848
G1 X105.005 Y92.915 E15.02157
G1 F1355.55
G1 X104.940 Y92.589 E15.03334
G1 X104.711 Y92.540 E15.04165
G1 F1355.55
G1 X104.596 Y92.515 E15.04531
G1 X98.751 Y92.515 E15.22779
G1 X98.374 Y92.670 F7800.000
G1 F903.698
G1 X98.374 Y107.330 E15.30785
G1 Z5.450 F7800.000
G1 X98.463 Y107.610 F7800.000
G1 F680.065
G1 X97.734 Y107.610 E15.32287
G1 X97.734 Y92.390 E15.63656
G1 X98.463 Y92.390 E15.65158
G1 X98.463 Y107.535 E15.96373
G1 X98.026 Y107.367 F7800.000
G1 X98.463 Y107.485 F7800.000
G1 F1360.13
G1 X104.548 Y107.485 E16.15370
G1 X104.663 Y107.460 E16.15737
G1 F1360.13
G1 X104.893 Y107.411 E16.16571
G1 X104.958 Y107.085 E16.17747
G1 F1360.13
G1 X104.958 Y92.915 E16.63161
G1 X104.936 Y92.806 E16.63515
G1 F1360.13
G1 X104.893 Y92.589 E16.64305
G1 X104.663 Y92.540 E16.65146
G1 F1360.13
G1 X104.548 Y92.515 E16.65538
G1 X98.463 Y92.515 E16.85816
G1 X98.099 Y92.670 F7800.000
G1 F906.754
G1 X98.099 Y107.330 E16.92283
G1 Z5.750 F7800.000
G1 X98.190 Y107.610 F7800.000
G1 F682.287
G1 X97.484 Y107.610 E16.93737
G1 X97.484 Y92.390 E17.25106
G1 X98.190 Y92.390 E17.26561
G1 X98.190 Y107.535 E17.57775
G1 X97.753 Y107.367 F7800.000
G1 X98.190 Y107.485 F7800.000
G1 F1364.57
G1 X104.505 Y107.485 E17.77492
G1 F1364.57
G1 X104.678 Y107.447 E17.78102
G1 F1364.57
G1 X104.851 Y107.410 E17.78768
G1 X104.873 Y107.302 E17.79183
G1 F1364.57
G1 X104.916 Y107.085 E17.79933
G1 X104.916 Y92.915 E18.28038
G1 X104.894 Y92.807 E18.28413
G1 F1364.57
G1 X104.851 Y92.590 E18.29243
G1 X104.765 Y92.571 E18.29576
G1 F1364.57
G1 X104.592 Y92.534 E18.30186
G1 F1364.57
G1 X104.505 Y92.515 E18.30462
G1 X98.190 Y92.515 E18.50179
G1 X97.837 Y92.670 F7800.000
G1 F909.717
G1 X97.837 Y107.330 E18.55209
G1 Z6.050 F7800.000
G1 X97.929 Y107.610 F7800.000
G1 F684.402
G1 X97.245 Y107.610 E18.56619
G1 X97.245 Y92.390 E18.87988
G1 X97.929 Y92.390 E18.89398
G1 X97.929 Y107.535 E19.20613
G1 X97.492 Y107.367 F7800.000
G1 X97.929 Y107.485 F7800.000
G1 F1368.8
G1 X104.463 Y107.485 E19.41013
G1 X104.550 Y107.466 E19.41290
G1 F1368.8
G1 X104.724 Y107.428 E19.41902
G1 F1368.8
G1 X104.811 Y107.409 E19.42237
G1 X104.853 Y107.193 E19.43067
G1 F1368.8
G1 X104.875 Y107.085 E19.43442
G1 X104.875 Y92.915 E19.91633
G1 X104.832 Y92.699 E19.92383
G1 F1368.8
G1 X104.811 Y92.590 E19.92798
G1 X104.637 Y92.553 E19.93467
G1 F1368.8
G1 X104.463 Y92.515 E19.94079
G1 F1368.8
G1 X97.929 Y92.515 E20.14479
G1 X97.587 Y92.670 F7800.000
G1 F912.536
G1 X97.587 Y107.330 E20.18164
G1 Z6.350 F7800.000
G1 X97.680 Y107.610 F7800.000
G1 F686.462
G1 X97.016 Y107.610 E20.19532
G1 X97.016 Y92.390 E20.50901
G1 X97.680 Y92.390 E20.52269
G1 X97.680 Y107.535 E20.83484
G1 X97.244 Y107.366 F7800.000
G1 X97.680 Y107.485 F7800.000
G1 F1372.92
G1 X104.426 Y107.485 E21.04544
G1 X104.513 Y107.466 E21.04823
G1 F1372.92
G1 X104.687 Y107.428 E21.05437
G1 F1372.92
G1 X104.775 Y107.409 E21.05773
G1 X104.817 Y107.193 E21.06603
G1 F1372.92
G1 X104.838 Y107.085 E21.06978
G1 X104.838 Y92.915 E21.55246
G1 X104.796 Y92.699 E21.55996
G1 F1372.92
G1 X104.775 Y92.591 E21.56411
G1 X104.600 Y92.553 E21.57083
G1 F1372.92
G1 X104.426 Y92.515 E21.57697
G1 F1372.92
G1 X97.680 Y92.515 E21.78758
G1 X97.348 Y92.670 F7800.000
G1 F915.282
G1 X97.348 Y107.330 E21.81178
G1 Z6.650 F7800.000
G1 X97.443 Y107.610 F7800.000
G1 F688.424
G1 X96.798 Y107.610 E21.82507
G1 X96.798 Y92.390 E22.13876
G1 X97.443 Y92.390 E22.15204
G1 X97.443 Y107.535 E22.46419
G1 X97.006 Y107.366 F7800.000
G1 X97.443 Y107.485 F7800.000
G1 F1376.85
G1 X104.390 Y107.485 E22.68108
G1 X104.477 Y107.466 E22.68387
G1 F1376.85
G1 X104.652 Y107.428 E22.69004
G1 F1376.85
G1 X104.740 Y107.409 E22.69341
G1 X104.782 Y107.193 E22.70170
G1 F1376.85
G1 X104.803 Y107.085 E22.70545
G1 X104.803 Y92.915 E23.18896
G1 X104.761 Y92.699 E23.19646
G1 F1376.85
G1 X104.740 Y92.591 E23.20061
G1 X104.565 Y92.553 E23.20735
G1 F1376.85
G1 X104.390 Y92.515 E23.21352
G1 F1376.85
G1 X97.443 Y92.515 E23.43041
G1 X97.120 Y92.670 F7800.000
G1 F917.898
G1 X97.120 Y107.330 E23.44268
G1 Z6.950 F7800.000
G1 X97.216 Y107.610 F7800.000
G1 F600
G1 X96.589 Y107.610 E23.45560
G1 X96.589 Y92.390 E23.76929
G1 X97.216 Y92.390 E23.78220
G1 X97.216 Y107.535 E24.09434
G1 X96.780 Y107.366 F7800.000
G1 X97.216 Y107.485 F7800.000
G1 F1116.81
G1 X104.359 Y107.485 E24.31734
G1 X104.446 Y107.466 E24.32014
G1 F1116.81
G1 X104.622 Y107.427 E24.32633
G1 F1116.81
G1 X104.709 Y107.408 E24.32971
G1 X104.751 Y107.193 E24.33800
G1 F1116.81
G1 X104.772 Y107.085 E24.34175
G1 X104.772 Y92.915 E24.82583
G1 X104.730 Y92.700 E24.83333
G1 F1116.81
G1 X104.709 Y92.592 E24.83747
G1 X104.534 Y92.553 E24.84424
G1 F1116.81
G1 X104.359 Y92.515 E24.85043
G1 F1116.81
G1 X97.216 Y92.515 E25.07343
G1 Z7.250 F7800.000
G1 E23.07343 F2400.00000
G92 E0
G1 X96.999 Y107.610 F7800.000
G1 E2.00000 F2400.00000
G1 F600
