; generated by Slic3r 1.3.0 on 2019-01-16 at 15:50:10

; external perimeters extrusion width = 0.44mm (0.95mm^3/s)
; perimeters extrusion width = 0.56mm (4.14mm^3/s)
; infill extrusion width = 0.50mm (3.66mm^3/s)
; solid infill extrusion width = 0.56mm (2.07mm^3/s)
; top infill extrusion width = 0.56mm (1.55mm^3/s)

M107
M190 S55 ; set bed temperature and wait for it to be reached
M104 S200 ; set temperature
"G28 ; home all axes
M150 B180 G210
M150 B180 G210
G92 E0
G1 E6 F1800"
; Filament gcode

M109 S200 ; set temperature and wait for it to be reached
G21 ; set units to millimeters
G90 ; use absolute coordinates
M82 ; use absolute distances for extrusion
G92 E0
G1 Z0.250 F6000.000
G1 E-1.80000 F2400.00000
G92 E0
G1 X43.213 Y53.972 F6000.000
G1 E1.80000 F2400.00000
G1 F1680
G1 X45.423 Y53.001 E1.90083
G1 X47.230 Y52.775 E1.97682
G1 X152.300 Y52.775 E6.36388
G1 X154.682 Y53.172 E6.46471
G1 X156.806 Y54.321 E6.56553
G1 X158.442 Y56.097 E6.66636
G1 X159.414 Y58.308 E6.76719
G1 X159.634 Y59.837 E6.83170
G1 X161.040 Y97.084 E8.38800
G1 X161.047 Y140.544 E10.20260
G1 X161.025 Y141.984 E10.26274
G1 X160.930 Y142.924 E10.30216
G1 X160.760 Y143.816 E10.34007
G1 X160.587 Y144.469 E10.36829
G1 X160.277 Y145.360 E10.40769
G1 X159.890 Y146.221 E10.44709
G1 X159.430 Y147.045 E10.48649
G1 X159.266 Y147.302 E10.49922
G1 X158.714 Y148.066 E10.53858
G1 X158.098 Y148.781 E10.57798
G1 X157.645 Y149.233 E10.60470
G1 X156.931 Y149.850 E10.64412
G1 X156.689 Y150.035 E10.65682
G1 X155.909 Y150.565 E10.69620
G1 X155.085 Y151.026 E10.73560
G1 X154.224 Y151.412 E10.77502
G1 X153.623 Y151.631 E10.80174
G1 X152.715 Y151.888 E10.84114
G1 X151.788 Y152.065 E10.88055
G1 X151.486 Y152.105 E10.89326
G1 X150.546 Y152.174 E10.93261
G1 X107.042 Y152.183 E12.74903
G1 X105.602 Y152.161 E12.80919
G1 X104.663 Y152.065 E12.84857
G1 X104.033 Y151.954 E12.87532
G1 X103.118 Y151.723 E12.91471
G1 X102.227 Y151.412 E12.95412
G1 X101.946 Y151.296 E12.96680
G1 X101.096 Y150.885 E13.00621
G1 X100.285 Y150.402 E13.04564
G1 X99.520 Y149.850 E13.08502
G1 X99.030 Y149.438 E13.11175
G1 X98.353 Y148.781 E13.15114
G1 X97.737 Y148.066 E13.19055
G1 X97.448 Y147.687 E13.21043
G1 X41.304 Y70.844 E17.18407
G1 X40.219 Y68.686 E17.28489
G1 X39.891 Y66.514 E17.37661
G1 X39.891 Y60.114 E17.64384
G1 X40.288 Y57.732 E17.74466
G1 X41.437 Y55.608 E17.84549
G1 X43.168 Y54.012 E17.94381
G1 X43.641 Y54.229 F6000.000
G1 F1680
G1 X45.817 Y53.368 E18.04150
G1 X47.230 Y53.221 E18.10080
G1 X152.300 Y53.221 E22.48785
G1 X154.606 Y53.618 E22.58554
G1 X156.646 Y54.764 E22.68324
G1 X158.185 Y56.526 E22.78093
G1 X159.188 Y59.854 E22.92605
G1 X160.599 Y97.344 E24.49250
G1 X160.601 Y140.544 E26.29625
G1 X160.579 Y141.965 E26.35558
G1 X160.487 Y142.865 E26.39337
G1 X160.325 Y143.719 E26.42965
G1 X160.161 Y144.335 E26.45625
G1 X159.864 Y145.189 E26.49402
G1 X159.494 Y146.015 E26.53180
G1 X159.053 Y146.805 E26.56958
G1 X158.889 Y147.062 E26.58231
G1 X158.360 Y147.795 E26.62004
G1 X157.769 Y148.479 E26.65781
G1 X157.344 Y148.904 E26.68291
G1 X156.659 Y149.496 E26.72070
G1 X156.418 Y149.681 E26.73340
G1 X155.669 Y150.189 E26.77115
G1 X154.879 Y150.630 E26.80894
G1 X154.053 Y151.000 E26.84672
G1 X153.489 Y151.206 E26.87182
G1 X152.618 Y151.453 E26.90959
G1 X151.729 Y151.623 E26.94738
G1 X151.428 Y151.662 E26.96008
G1 X150.526 Y151.728 E26.99782
G1 X107.042 Y151.737 E28.81342
G1 X105.621 Y151.715 E28.87277
G1 X104.722 Y151.623 E28.91052
G1 X104.129 Y151.518 E28.93564
G1 X103.252 Y151.297 E28.97341
G1 X102.397 Y151.000 E29.01119
G1 X101.572 Y150.630 E29.04898
G1 X101.302 Y150.489 E29.06166
G1 X100.525 Y150.025 E29.09946
G1 X99.792 Y149.496 E29.13721
G1 X99.331 Y149.109 E29.16232
G1 X98.682 Y148.479 E29.20009
G1 X98.091 Y147.795 E29.23787
G1 X97.809 Y147.424 E29.25731
G1 X41.664 Y70.580 E33.23095
G1 X40.624 Y68.484 E33.32864
G1 X40.337 Y66.514 E33.41177
G1 X40.337 Y60.114 E33.67900
G1 X40.734 Y57.808 E33.77669
G1 X41.879 Y55.768 E33.87438
G1 X43.596 Y54.268 E33.96956
G1 X44.068 Y54.496 F6000.000
G1 F1680
G1 X47.230 Y53.668 E34.10602
G1 X152.300 Y53.668 E38.49308
G1 X154.527 Y54.064 E38.58753
G1 X156.480 Y55.206 E38.68198
G1 X157.918 Y56.952 E38.77643
G1 X158.742 Y59.871 E38.90304
G1 X160.153 Y97.345 E40.46884
G1 X160.146 Y141.642 E42.31838
G1 X160.133 Y141.946 E42.33106
G1 X160.045 Y142.807 E42.36722
G1 X159.881 Y143.657 E42.40338
G1 X159.644 Y144.490 E42.43952
G1 X159.336 Y145.299 E42.47567
G1 X158.958 Y146.078 E42.51183
G1 X158.513 Y146.822 E42.54802
G1 X158.006 Y147.523 E42.58413
G1 X157.440 Y148.177 E42.62028
G1 X157.042 Y148.575 E42.64375
G1 X156.387 Y149.142 E42.67992
G1 X156.146 Y149.327 E42.69262
G1 X155.430 Y149.812 E42.72874
G1 X154.673 Y150.234 E42.76490
G1 X153.883 Y150.588 E42.80106
G1 X153.354 Y150.780 E42.82453
G1 X152.522 Y151.017 E42.86068
G1 X151.671 Y151.180 E42.89684
G1 X151.370 Y151.220 E42.90954
G1 X150.507 Y151.282 E42.94565
G1 X105.944 Y151.282 E44.80630
G1 X105.081 Y151.220 E44.84244
G1 X104.226 Y151.083 E44.87860
G1 X103.386 Y150.871 E44.91474
G1 X102.568 Y150.588 E44.95090
G1 X101.778 Y150.234 E44.98706
G1 X101.508 Y150.093 E44.99973
G1 X100.765 Y149.649 E45.03591
G1 X100.064 Y149.142 E45.07204
G1 X99.633 Y148.780 E45.09552
G1 X99.012 Y148.178 E45.13166
G1 X98.445 Y147.523 E45.16782
G1 X98.169 Y147.161 E45.18682
G1 X42.025 Y70.317 E49.16046
G1 X41.031 Y68.285 E49.25491
G1 X40.783 Y66.514 E49.32956
G1 X40.783 Y60.114 E49.59678
G1 X41.180 Y57.887 E49.69123
G1 X42.322 Y55.934 E49.78568
G1 X44.022 Y54.534 E49.87763
G1 E48.07763 F2400.00000
G92 E0
G1 X104.529 Y112.916 F6000.000
G1 E1.80000 F2400.00000
G1 F1680
G1 X104.781 Y112.047 E1.83778
G1 X105.040 Y111.264 E1.87224
G1 X105.325 Y110.490 E1.90669
G1 X105.973 Y108.972 E1.97556
G1 X106.334 Y108.230 E2.01003
G1 X106.721 Y107.501 E2.04449
G1 X107.131 Y106.785 E2.07894
G1 X107.565 Y106.084 E2.11339
G1 X108.023 Y105.397 E2.14784
G1 X108.504 Y104.726 E2.18229
G1 X109.006 Y104.073 E2.21672
G1 X109.531 Y103.435 E2.25120
G1 X110.076 Y102.816 E2.28565
G1 X110.643 Y102.216 E2.32010
G1 X111.228 Y101.635 E2.35455
G1 X111.834 Y101.074 E2.38901
G1 X112.457 Y100.533 E2.42346
G1 X113.098 Y100.014 E2.45791
G1 X113.757 Y99.517 E2.49236
G1 X114.432 Y99.042 E2.52681
G1 X115.122 Y98.590 E2.56126
G1 X115.745 Y98.212 E2.59171
G1 X116.546 Y97.757 E2.63015
G1 X117.279 Y97.377 E2.66462
G1 X118.023 Y97.022 E2.69907
G1 X118.780 Y96.692 E2.73352
G1 X119.547 Y96.387 E2.76797
G1 X120.323 Y96.109 E2.80243
G1 X121.109 Y95.856 E2.83688
G1 X121.902 Y95.630 E2.87133
G1 X123.510 Y95.260 E2.94021
G1 X124.323 Y95.115 E2.97468
G1 X125.959 Y94.907 E3.04355
G1 X126.782 Y94.845 E3.07802
G1 X127.607 Y94.810 E3.11247
G1 X129.256 Y94.824 E3.18135
G1 X130.080 Y94.873 E3.21582
G1 X130.902 Y94.949 E3.25027
G1 X131.625 Y95.040 E3.28072
G1 X132.535 Y95.184 E3.31916
G1 X133.345 Y95.342 E3.35363
G1 X134.149 Y95.528 E3.38808
G1 X134.946 Y95.740 E3.42253
G1 X135.736 Y95.979 E3.45698
G1 X136.517 Y96.245 E3.49143
G1 X137.289 Y96.536 E3.52588
G1 X138.051 Y96.854 E3.56034
G1 X138.800 Y97.196 E3.59472
G1 X139.540 Y97.564 E3.62924
G1 X140.266 Y97.957 E3.66369
G1 X140.895 Y98.325 E3.69414
G1 X141.676 Y98.813 E3.73258
G1 X142.359 Y99.277 E3.76705
G1 X142.948 Y99.706 E3.79749
G1 X143.675 Y100.271 E3.83593
G1 X144.308 Y100.801 E3.87040
G1 X144.851 Y101.288 E3.90085
G1 X145.518 Y101.922 E3.93928
G1 X146.094 Y102.514 E3.97375
G1 X146.650 Y103.123 E4.00821
G1 X147.185 Y103.751 E4.04266
G1 X147.699 Y104.397 E4.07711
G1 X148.190 Y105.060 E4.11156
G1 X148.660 Y105.739 E4.14601
G1 X149.528 Y107.141 E4.21489
G1 X149.927 Y107.864 E4.24936
G1 X150.299 Y108.596 E4.28366
G1 X150.650 Y109.347 E4.31826
G1 X150.973 Y110.106 E4.35271
G1 X151.272 Y110.875 E4.38717
G1 X151.544 Y111.654 E4.42162
G1 X151.789 Y112.442 E4.45607
G1 X152.008 Y113.238 E4.49052
G1 X152.201 Y114.040 E4.52497
G1 X152.366 Y114.848 E4.55943
G1 X152.504 Y115.662 E4.59388
G1 X152.614 Y116.480 E4.62833
G1 X152.698 Y117.301 E4.66278
G1 X152.753 Y118.124 E4.69723
G1 X152.781 Y118.949 E4.73169
G1 X152.781 Y119.774 E4.76614
G1 X152.753 Y120.598 E4.80059
G1 X152.698 Y121.422 E4.83504
G1 X152.614 Y122.243 E4.86949
G1 X152.517 Y122.965 E4.89994
G1 X152.366 Y123.873 E4.93838
G1 X152.201 Y124.682 E4.97285
G1 X152.008 Y125.485 E5.00730
G1 X151.789 Y126.280 E5.04175
G1 X151.544 Y127.068 E5.07620
G1 X151.272 Y127.847 E5.11065
G1 X150.973 Y128.616 E5.14511
G1 X150.650 Y129.375 E5.17956
G1 X150.299 Y130.126 E5.21416
G1 X149.927 Y130.858 E5.24846
G1 X149.528 Y131.581 E5.28291
G1 X149.106 Y132.290 E5.31737
G1 X148.191 Y133.662 E5.38624
G1 X147.699 Y134.325 E5.42071
G1 X147.185 Y134.971 E5.45516
G1 X146.712 Y135.526 E5.48561
G1 X146.094 Y136.208 E5.52405
G1 X145.518 Y136.799 E5.55852
G1 X144.922 Y137.371 E5.59297
G1 X144.308 Y137.921 E5.62742
G1 X143.675 Y138.451 E5.66187
G1 X143.020 Y138.964 E5.69662
G1 X142.359 Y139.445 E5.73078
G1 X141.676 Y139.909 E5.76523
G1 X140.978 Y140.349 E5.79968
G1 X140.266 Y140.766 E5.83413
G1 X139.540 Y141.158 E5.86859
G1 X138.800 Y141.527 E5.90310
G1 X138.051 Y141.869 E5.93749
G1 X137.289 Y142.186 E5.97194
G1 X136.517 Y142.478 E6.00639
G1 X135.736 Y142.743 E6.04084
G1 X134.946 Y142.982 E6.07530
G1 X134.149 Y143.195 E6.10975
G1 X133.345 Y143.380 E6.14420
G1 X132.535 Y143.539 E6.17865
G1 X131.721 Y143.670 E6.21310
G1 X130.902 Y143.773 E6.24756
G1 X130.080 Y143.850 E6.28201
G1 X129.257 Y143.898 E6.31646
G1 X128.432 Y143.919 E6.35091
G1 X127.607 Y143.912 E6.38536
G1 X126.782 Y143.877 E6.41982
G1 X125.960 Y143.815 E6.45427
G1 X125.139 Y143.725 E6.48872
G1 X124.323 Y143.608 E6.52317
G1 X123.510 Y143.463 E6.55762
G1 X122.703 Y143.291 E6.59207
G1 X121.902 Y143.092 E6.62653
G1 X121.109 Y142.866 E6.66098
G1 X120.323 Y142.614 E6.69543
G1 X119.547 Y142.335 E6.72988
G1 X118.780 Y142.031 E6.76433
G1 X118.023 Y141.700 E6.79879
G1 X117.279 Y141.345 E6.83324
G1 X116.546 Y140.965 E6.86769
G1 X115.827 Y140.560 E6.90214
G1 X115.122 Y140.132 E6.93659
G1 X114.432 Y139.680 E6.97105
G1 X113.757 Y139.205 E7.00550
G1 X113.098 Y138.708 E7.03995
G1 X112.457 Y138.189 E7.07440
G1 X111.834 Y137.648 E7.10885
G1 X111.228 Y137.087 E7.14331
G1 X110.643 Y136.506 E7.17776
G1 X110.076 Y135.906 E7.21221
G1 X109.531 Y135.287 E7.24666
G1 X109.006 Y134.650 E7.28113
G1 X108.504 Y133.996 E7.31556
G1 X108.023 Y133.325 E7.35002
G1 X107.565 Y132.638 E7.38447
G1 X107.131 Y131.937 E7.41892
G1 X106.721 Y131.221 E7.45337
G1 X106.334 Y130.492 E7.48782
G1 X105.973 Y129.750 E7.52228
G1 X105.636 Y128.997 E7.55673
G1 X105.325 Y128.233 E7.59118
G1 X105.073 Y127.548 E7.62163
G1 X104.781 Y126.675 E7.66006
G1 X104.549 Y125.883 E7.69453
G1 X104.367 Y125.177 E7.72498
G1 X104.164 Y124.279 E7.76342
G1 X104.013 Y123.468 E7.79789
G1 X103.903 Y122.747 E7.82834
G1 X103.792 Y121.833 E7.86677
G1 X103.722 Y121.010 E7.90124
G1 X103.686 Y120.282 E7.93169
G1 X103.667 Y119.362 E7.97012
G1 X103.681 Y118.536 E8.00459
G1 X103.718 Y117.808 E8.03504
G1 X103.792 Y116.890 E8.07348
G1 X103.888 Y116.070 E8.10795
G1 X104.013 Y115.255 E8.14240
G1 X104.164 Y114.444 E8.17685
G1 X104.343 Y113.638 E8.21130
G1 X104.514 Y112.974 E8.23992
G1 X104.472 Y112.861 F6000.000
G1 X103.683 Y114.587 F6000.000
G1 F1680
G1 X103.440 Y114.564 E8.25011
G1 X103.441 Y97.376 E8.96777
G1 X103.484 Y96.878 E8.98866
G1 X103.610 Y96.409 E9.00892
G1 X103.808 Y95.982 E9.02859
G1 X104.084 Y95.585 E9.04876
G1 X104.259 Y95.391 E9.05970
G1 X104.629 Y95.081 E9.07983
G1 X105.036 Y94.845 E9.09950
G1 X105.490 Y94.678 E9.11967
G1 X105.745 Y94.619 E9.13061
G1 X106.241 Y94.577 E9.15137
G1 X123.423 Y94.577 E9.86880
G1 X123.449 Y94.816 E9.87885
G1 X122.509 Y95.020 E9.91901
G1 X121.788 Y95.199 E9.95005
G1 X120.980 Y95.429 E9.98513
G1 X120.180 Y95.686 E10.02020
G1 X119.389 Y95.970 E10.05528
G1 X118.608 Y96.280 E10.09036
G1 X117.838 Y96.616 E10.12544
G1 X117.080 Y96.978 E10.16052
G1 X116.333 Y97.365 E10.19565
G1 X114.884 Y98.213 E10.26574
G1 X114.181 Y98.673 E10.30082
G1 X113.494 Y99.156 E10.33590
G1 X112.824 Y99.663 E10.37098
G1 X112.170 Y100.191 E10.40605
G1 X111.536 Y100.741 E10.44113
G1 X110.919 Y101.313 E10.47621
G1 X110.323 Y101.904 E10.51129
G1 X109.747 Y102.515 E10.54637
G1 X109.191 Y103.146 E10.58144
G1 X108.657 Y103.795 E10.61655
G1 X108.145 Y104.460 E10.65160
G1 X107.656 Y105.143 E10.68668
G1 X107.190 Y105.842 E10.72176
G1 X106.748 Y106.557 E10.75684
G1 X106.330 Y107.285 E10.79191
G1 X105.936 Y108.028 E10.82699
G1 X105.568 Y108.784 E10.86212
G1 X105.189 Y109.640 E10.90118
G1 X104.909 Y110.328 E10.93222
G1 X104.619 Y111.117 E10.96730
G1 X104.355 Y111.914 E11.00238
G1 X104.118 Y112.720 E11.03746
G1 X103.909 Y113.534 E11.07254
G1 X103.694 Y114.528 E11.11499
G1 E9.31499 F2400.00000
G92 E0
G1 X132.995 Y94.819 F6000.000
G1 E1.80000 F2400.00000
G1 F1680
G1 X133.018 Y94.577 E1.81015
G1 X150.210 Y94.577 E2.52798
G1 X150.709 Y94.620 E2.54888
G1 X151.178 Y94.745 E2.56914
G1 X151.617 Y94.950 E2.58940
G1 X152.015 Y95.229 E2.60966
G1 X152.194 Y95.393 E2.61980
G1 X152.500 Y95.757 E2.63965
G1 X152.748 Y96.185 E2.66032
G1 X152.914 Y96.641 E2.68058
G1 X152.997 Y97.108 E2.70040
G1 X153.012 Y98.183 E2.74527
G1 X153.011 Y114.573 E3.42964
G1 X152.770 Y114.598 E3.43975
G1 X152.441 Y113.126 E3.50271
G1 X152.218 Y112.316 E3.53779
G1 X151.967 Y111.514 E3.57287
G1 X151.690 Y110.721 E3.60794
G1 X151.387 Y109.938 E3.64302
G1 X151.057 Y109.165 E3.67810
G1 X150.700 Y108.401 E3.71333
G1 X150.321 Y107.655 E3.74826
G1 X149.915 Y106.918 E3.78339
G1 X149.031 Y105.491 E3.85348
G1 X148.553 Y104.800 E3.88856
G1 X148.053 Y104.125 E3.92364
G1 X147.530 Y103.468 E3.95872
G1 X146.985 Y102.828 E3.99379
G1 X146.419 Y102.207 E4.02887
G1 X145.831 Y101.605 E4.06400
G1 X144.600 Y100.464 E4.13410
G1 X143.955 Y99.923 E4.16923
G1 X142.616 Y98.912 E4.23932
G1 X141.919 Y98.439 E4.27445
G1 X141.126 Y97.943 E4.31351
G1 X140.485 Y97.567 E4.34455
G1 X139.746 Y97.168 E4.37963
G1 X138.992 Y96.793 E4.41478
G1 X138.229 Y96.444 E4.44979
G1 X137.454 Y96.121 E4.48487
G1 X136.668 Y95.824 E4.51994
G1 X135.873 Y95.554 E4.55502
G1 X135.068 Y95.311 E4.59010
G1 X134.257 Y95.094 E4.62518
G1 X133.054 Y94.830 E4.67661
G1 E2.87661 F2400.00000
G92 E0
G1 X152.770 Y124.127 F6000.000
G1 E1.80000 F2400.00000
G1 F1680
G1 X153.011 Y124.151 E1.81011
G1 X153.010 Y141.346 E2.52805
G1 X152.999 Y141.589 E2.53823
G1 X152.917 Y142.066 E2.55841
G1 X152.840 Y142.316 E2.56935
G1 X152.636 Y142.753 E2.58948
G1 X152.506 Y142.958 E2.59961
G1 X152.194 Y143.330 E2.61988
G1 X151.822 Y143.641 E2.64014
G1 X151.617 Y143.772 E2.65028
G1 X151.191 Y143.972 E2.66994
G1 X150.724 Y144.098 E2.69011
G1 X150.210 Y144.146 E2.71167
G1 X133.014 Y144.146 E3.42968
G1 X132.991 Y143.904 E3.43983
G1 X134.257 Y143.628 E3.49393
G1 X135.068 Y143.412 E3.52901
G1 X135.873 Y143.168 E3.56409
G1 X136.668 Y142.898 E3.59917
G1 X137.454 Y142.601 E3.63425
G1 X138.229 Y142.278 E3.66932
G1 X138.992 Y141.929 E3.70434
G1 X139.746 Y141.554 E3.73948
G1 X140.485 Y141.155 E3.77456
G1 X141.210 Y140.731 E3.80964
G1 X141.920 Y140.282 E3.84472
G1 X142.615 Y139.811 E3.87979
G1 X143.289 Y139.320 E3.91458
G1 X143.956 Y138.798 E3.94995
G1 X144.600 Y138.259 E3.98503
G1 X145.226 Y137.698 E4.02011
G1 X145.832 Y137.116 E4.05518
G1 X146.420 Y136.514 E4.09031
G1 X147.048 Y135.820 E4.12938
G1 X147.530 Y135.255 E4.16042
G1 X148.053 Y134.597 E4.19550
G1 X148.554 Y133.921 E4.23062
G1 X149.485 Y132.525 E4.30072
G1 X149.915 Y131.803 E4.33580
G1 X150.321 Y131.067 E4.37088
G1 X150.700 Y130.322 E4.40581
G1 X151.057 Y129.557 E4.44103
G1 X151.387 Y128.784 E4.47611
G1 X151.690 Y128.001 E4.51119
G1 X151.967 Y127.208 E4.54627
G1 X152.218 Y126.406 E4.58135
G1 X152.441 Y125.596 E4.61642
G1 X152.758 Y124.185 E4.67678
G1 E2.87678 F2400.00000
G92 E0
G1 X123.453 Y143.907 F6000.000
G1 E1.80000 F2400.00000
G1 F1680
G1 X123.428 Y144.147 E1.81007
G1 X107.047 Y144.148 E2.49402
G1 X105.972 Y144.133 E2.53890
G1 X105.505 Y144.050 E2.55872
G1 X105.049 Y143.884 E2.57898
G1 X104.846 Y143.779 E2.58852
G1 X104.450 Y143.502 E2.60870
G1 X104.255 Y143.327 E2.61964
G1 X103.945 Y142.958 E2.63977
G1 X103.822 Y142.765 E2.64931
G1 X103.617 Y142.328 E2.66948
G1 X103.536 Y142.078 E2.68042
G1 X103.454 Y141.614 E2.70012
G1 X103.439 Y140.539 E2.74499
G1 X103.440 Y124.155 E3.42908
G1 X103.683 Y124.133 E3.43927
