; generated by Slic3r 1.3.0 on 2019-01-14 at 19:05:01

; external perimeters extrusion width = 0.44mm (2.18mm^3/s)
; perimeters extrusion width = 0.56mm (5.69mm^3/s)
; infill extrusion width = 0.50mm (7.31mm^3/s)
; solid infill extrusion width = 0.56mm (2.07mm^3/s)
; top infill extrusion width = 0.56mm (1.55mm^3/s)

M107
M104 S200 ; set temperature
"G28 ; home all axes
M150 B180 G210
M150 B180 G210
G92 E0
G1 E6 F1800"
; Filament gcode

M109 S200 ; set temperature and wait for it to be reached
G21 ; set units to millimeters
G90 ; use absolute coordinates
M82 ; use absolute distances for extrusion
G92 E0
G1 Z0.250 F7800.000
G1 X56.215 Y74.630 F7800.000
G1 F1800
G1 X56.899 Y74.136 E0.03914
G1 X57.526 Y73.736 E0.07366
G1 X58.263 Y73.322 E0.11290
G1 X59.182 Y72.885 E0.16010
G1 X59.909 Y72.595 E0.19641
G1 X60.716 Y72.327 E0.23584
G1 X61.428 Y72.134 E0.27007
G1 X62.262 Y71.958 E0.30961
G1 X62.989 Y71.849 E0.34372
G1 X63.841 Y71.769 E0.38342
G1 X64.572 Y71.742 E0.41738
G1 X65.430 Y71.760 E0.45716
G1 X66.158 Y71.817 E0.49104
G1 X67.011 Y71.932 E0.53098
G1 X67.993 Y72.133 E0.57748
G1 X68.748 Y72.338 E0.61379
G1 X69.616 Y72.631 E0.65628
G1 X152.386 Y103.539 E4.75522
G1 X154.940 Y105.285 E4.89872
G1 X155.419 Y105.822 E4.93210
G1 X155.996 Y106.572 E4.97602
G1 X156.399 Y107.234 E5.01197
G1 X156.803 Y108.050 E5.05420
G1 X157.140 Y108.917 E5.09736
G1 X157.379 Y109.725 E5.13646
G1 X157.474 Y110.128 E5.15566
G1 X157.604 Y110.867 E5.19045
G1 X157.740 Y112.040 E5.24524
G1 X157.783 Y112.799 E5.28051
G1 X157.758 Y113.887 E5.33100
G1 X157.650 Y114.916 E5.37898
G1 X157.447 Y116.025 E5.43132
G1 X157.163 Y117.155 E5.48535
G1 X156.189 Y119.282 E5.59388
G1 X155.636 Y120.070 E5.63857
G1 X154.977 Y120.866 E5.68650
G1 X154.349 Y121.510 E5.72822
G1 X152.511 Y122.829 E5.83316
G1 X149.732 Y123.459 E5.96539
G1 X55.679 Y123.459 E10.32873
G1 X53.452 Y123.062 E10.43367
G1 X51.500 Y121.920 E10.53862
G1 X50.109 Y120.256 E10.63921
G1 X45.779 Y112.823 E11.03830
G1 X45.002 Y110.699 E11.14324
G1 X45.077 Y108.093 E11.26415
G1 X51.127 Y82.539 E12.48244
G1 X51.274 Y81.964 E12.51000
G1 X51.516 Y81.180 E12.54803
G1 X51.900 Y80.182 E12.59765
G1 X52.342 Y79.250 E12.64554
G1 X52.723 Y78.566 E12.68185
G1 X53.297 Y77.677 E12.73095
G1 X53.938 Y76.834 E12.78005
G1 X54.640 Y76.043 E12.82915
G1 X55.401 Y75.307 E12.87825
G1 X56.167 Y74.667 E12.92456
G92 E0
G1 X145.161 Y115.829 F7800.000
G1 F1800
G1 X144.863 Y115.361 E0.02575
G1 X144.665 Y114.895 E0.04923
G1 X144.542 Y114.381 E0.07375
G1 X144.478 Y113.807 E0.10054
G1 X150.096 Y113.807 E0.36115
G1 X149.982 Y114.587 E0.39769
G1 X149.905 Y114.865 E0.41108
G1 X149.734 Y115.284 E0.43208
G1 X149.393 Y115.829 E0.46193
G1 X145.221 Y115.829 E0.65547
G1 X144.795 Y115.992 F7800.000
G1 X144.129 Y115.829 F7800.000
G1 F1800
G1 X141.168 Y115.829 E0.79285
G1 X141.253 Y115.157 E0.82428
G1 X141.278 Y114.596 E0.85036
G1 X141.278 Y110.761 E1.02824
G1 X144.016 Y110.761 E1.15529
G1 X143.764 Y111.462 E1.18983
G1 X143.625 Y112.000 E1.21560
G1 X143.530 Y112.569 E1.24237
G1 X143.478 Y113.246 E1.27386
G1 X143.498 Y113.730 E1.29636
G1 X143.557 Y114.196 E1.31813
G1 X143.646 Y114.603 E1.33747
G1 X143.768 Y114.990 E1.35629
G1 X144.106 Y115.774 E1.39590
G1 X144.179 Y116.226 F7800.000
G92 E0
G1 X140.116 Y115.829 F7800.000
G1 F1800
G1 X136.066 Y115.829 E0.18790
G1 X135.828 Y115.450 E0.20869
G1 X135.620 Y114.962 E0.23330
G1 X135.513 Y114.535 E0.25372
G1 X135.464 Y114.179 E0.27038
G1 X135.447 Y113.791 E0.28841
G1 X135.447 Y110.761 E0.42896
G1 X140.333 Y110.761 E0.65565
G1 X140.328 Y114.948 E0.84987
G1 X140.279 Y115.313 E0.86697
G1 X140.134 Y115.772 E0.88929
G1 X140.085 Y116.228 F7800.000
G92 E0
G1 X134.502 Y115.829 F7800.000
G1 F1800
G1 X131.680 Y115.829 E0.13090
G1 X132.041 Y114.940 E0.17544
G1 X132.208 Y114.277 E0.20715
G1 X132.278 Y113.755 E0.23158
G1 X132.301 Y113.206 E0.25707
G1 X132.286 Y112.767 E0.27745
G1 X132.246 Y112.380 E0.29550
G1 X132.159 Y111.904 E0.31796
G1 X132.042 Y111.484 E0.33819
G1 X131.765 Y110.761 E0.37409
G1 X134.502 Y110.761 E0.50107
G1 X134.502 Y115.769 E0.73340
G1 X134.567 Y116.224 F7800.000
G92 E0
G1 X131.110 Y116.046 F7800.000
G1 F1800
G1 X131.001 Y116.316 E0.01353
G1 X130.631 Y116.316 E0.03070
G1 X130.900 Y115.931 E0.05249
G1 X131.058 Y116.017 E0.06080
G92 E0
G1 X134.948 Y116.316 F7800.000
G1 F1800
G1 X134.948 Y115.069 E0.05786
G1 X135.162 Y115.025 E0.06801
G1 X135.431 Y115.657 E0.09989
G1 X135.844 Y116.316 E0.13596
G1 X135.008 Y116.316 E0.17477
G92 E0
G1 X125.926 Y116.316 F7800.000
G1 F1800
G1 X125.554 Y116.316 E0.01728
G1 X125.434 Y116.012 E0.03243
G1 X125.646 Y115.900 E0.04358
G1 X125.893 Y116.266 E0.06406
G1 X126.137 Y115.829 F7800.000
G1 F1800
G1 X125.797 Y115.325 E0.09229
G1 X125.653 Y115.038 E0.10717
G1 X125.522 Y114.704 E0.12382
G1 X125.378 Y114.150 E0.15036
G1 X125.320 Y113.723 E0.17037
G1 X125.297 Y113.208 E0.19427
G1 X125.313 Y112.780 E0.21415
G1 X125.353 Y112.415 E0.23118
G1 X125.428 Y112.033 E0.24925
G1 X125.608 Y111.480 E0.27622
G1 X125.712 Y111.252 E0.28786
G1 X126.003 Y110.761 E0.31432
G1 X130.573 Y110.761 E0.52633
G1 X130.916 Y111.376 E0.55898
G1 X131.126 Y111.975 E0.58842
G1 X131.191 Y112.269 E0.60240
G1 X131.249 Y112.692 E0.62220
G1 X131.272 Y113.206 E0.64609
G1 X131.257 Y113.629 E0.66572
G1 X131.216 Y113.999 E0.68301
G1 X131.142 Y114.378 E0.70089
G1 X131.045 Y114.709 E0.71689
G1 X130.883 Y115.110 E0.73695
G1 X130.734 Y115.391 E0.75174
G1 X130.427 Y115.829 E0.77657
G1 X126.197 Y115.829 E0.97280
G1 X125.773 Y115.995 F7800.000
G1 X124.881 Y115.829 F7800.000
G1 F1800
G1 X115.482 Y115.829 E1.40884
G1 X115.744 Y115.254 E1.43816
G1 X115.888 Y114.844 E1.45833
G1 X115.995 Y114.415 E1.47886
G1 X116.089 Y113.843 E1.50574
G1 X116.133 Y113.324 E1.52989
G1 X116.134 Y113.032 E1.54344
G1 X109.546 Y113.032 E1.84905
G1 X109.574 Y112.262 E1.88481
G1 X109.624 Y111.932 E1.90027
G1 X109.702 Y111.612 E1.91556
G1 X109.839 Y111.242 E1.93389
G1 X110.108 Y110.761 E1.95943
G1 X114.785 Y110.761 E2.17641
G1 X115.013 Y111.359 E2.20610
G1 X115.924 Y111.359 E2.24834
G1 X115.765 Y110.761 E2.27704
G1 X124.800 Y110.761 E2.69616
G1 X124.527 Y111.484 E2.73198
G1 X124.426 Y111.839 E2.74910
G1 X124.356 Y112.171 E2.76487
G1 X124.291 Y112.660 E2.78773
G1 X124.268 Y113.209 E2.81322
G1 X124.280 Y113.611 E2.83191
G1 X124.318 Y114.001 E2.85009
G1 X124.403 Y114.482 E2.87272
G1 X124.527 Y114.939 E2.89468
G1 X124.859 Y115.774 E2.93636
G1 X124.926 Y116.227 F7800.000
G92 E0
G1 X115.144 Y113.807 F7800.000
G1 F1800
G1 X115.030 Y114.587 E0.03655
G1 X114.953 Y114.865 E0.04993
G1 X114.782 Y115.284 E0.07093
G1 X114.441 Y115.829 E0.10079
G1 X110.209 Y115.829 E0.29711
G1 X109.911 Y115.361 E0.32285
G1 X109.713 Y114.895 E0.34634
G1 X109.590 Y114.381 E0.37086
G1 X109.526 Y113.807 E0.39765
G1 X115.084 Y113.807 E0.65547
G1 X115.543 Y113.832 F7800.000
G92 E0
G1 X101.354 Y116.091 F7800.000
G1 F1800
G1 X101.297 Y116.316 E0.01075
G1 X100.970 Y116.316 E0.02593
G1 X101.131 Y116.007 E0.04209
G1 X101.298 Y116.070 E0.05036
G1 X101.879 Y115.829 F7800.000
G1 F1800
G1 X102.077 Y115.038 E0.08820
G1 X101.057 Y115.038 E0.13554
G1 X100.921 Y115.442 E0.15527
G1 X100.720 Y115.829 E0.17555
G1 X96.468 Y115.829 E0.37282
G1 X96.177 Y115.369 E0.39808
G1 X96.045 Y115.092 E0.41233
G1 X95.931 Y114.777 E0.42788
G1 X95.842 Y114.443 E0.44387
G1 X95.770 Y114.050 E0.46242
G1 X95.725 Y113.675 E0.47995
G1 X95.700 Y113.106 E0.50638
G1 X95.716 Y112.698 E0.52532
G1 X95.763 Y112.296 E0.54407
G1 X95.853 Y111.850 E0.56520
G1 X96.049 Y111.270 E0.59361
G1 X96.318 Y110.761 E0.62030
G1 X100.780 Y110.761 E0.82729
G1 X101.021 Y111.309 E0.85503
G1 X101.140 Y111.784 E0.87778
G1 X102.118 Y111.784 E0.92313
G1 X102.013 Y111.364 E0.94323
G1 X101.812 Y110.761 E0.97269
G1 X109.064 Y110.761 E1.30911
G1 X108.812 Y111.462 E1.34365
G1 X108.673 Y112.000 E1.36942
G1 X108.578 Y112.569 E1.39619
G1 X108.526 Y113.246 E1.42768
G1 X108.546 Y113.730 E1.45018
G1 X108.605 Y114.196 E1.47195
G1 X108.694 Y114.603 E1.49129
G1 X108.816 Y114.990 E1.51011
G1 X109.177 Y115.829 E1.55251
G1 X101.939 Y115.829 E1.88831
G1 X101.482 Y115.780 F7800.000
G92 E0
G1 X95.292 Y115.829 F7800.000
G1 F1800
G1 X91.763 Y115.829 E0.16374
G1 X91.455 Y115.508 E0.18440
G1 X91.204 Y115.144 E0.20491
G1 X91.078 Y114.902 E0.21755
G1 X90.963 Y114.623 E0.23154
G1 X90.863 Y114.299 E0.24731
G1 X90.772 Y113.867 E0.26777
G1 X90.713 Y113.401 E0.28956
G1 X90.686 Y112.736 E0.32041
G1 X90.686 Y110.761 E0.41205
G1 X95.147 Y110.761 E0.61904
G1 X94.923 Y111.369 E0.64907
G1 X94.768 Y111.992 E0.67888
G1 X94.697 Y112.513 E0.70328
G1 X94.671 Y113.107 E0.73088
G1 X94.710 Y113.845 E0.76513
G1 X94.791 Y114.374 E0.78998
G1 X94.916 Y114.881 E0.81418
G1 X94.998 Y115.131 E0.82641
G1 X95.269 Y115.774 E0.85878
G1 X95.343 Y116.226 F7800.000
G92 E0
G1 X89.741 Y115.829 F7800.000
G1 F1800
G1 X87.040 Y115.829 E0.12528
G1 X87.048 Y110.761 E0.36040
G1 X89.741 Y110.761 E0.48532
G1 X89.741 Y115.769 E0.71766
G1 X89.805 Y116.224 F7800.000
G92 E0
G1 X86.601 Y111.046 F7800.000
G1 F1800
G1 X86.391 Y111.092 E0.00997
G1 X86.011 Y110.275 E0.05180
G1 X86.602 Y110.275 E0.07923
G1 X86.601 Y110.986 E0.11223
G1 X85.745 Y110.761 F7800.000
G1 F1800
G1 X86.006 Y111.323 E0.14095
G1 X86.090 Y111.676 E0.15782
G1 X86.106 Y113.807 E0.25666
G1 X85.519 Y113.450 E0.28853
G1 X85.085 Y113.307 E0.30974
G1 X83.191 Y113.020 E0.39858
G1 X82.816 Y112.945 E0.41635
G1 X82.528 Y112.863 E0.43024
G1 X82.081 Y112.675 E0.45274
G1 X81.805 Y112.490 E0.46816
G1 X81.513 Y112.194 E0.48742
G1 X81.381 Y111.987 E0.49883
G1 X81.253 Y111.601 E0.51770
G1 X81.219 Y111.303 E0.53161
G1 X81.229 Y110.761 E0.55673
G1 X85.685 Y110.761 E0.76344
G1 X86.123 Y110.632 F7800.000
G92 E0
G1 X86.015 Y115.829 F7800.000
G1 F1800
G1 X81.676 Y115.829 E0.20131
G1 X81.518 Y115.286 E0.22757
G1 X81.499 Y115.123 E0.23516
G1 X80.540 Y115.123 E0.27968
G1 X80.665 Y115.829 E0.31295
G1 X78.014 Y115.829 E0.43596
G1 X78.276 Y115.254 E0.46528
G1 X78.420 Y114.844 E0.48546
G1 X78.527 Y114.415 E0.50598
G1 X78.621 Y113.835 E0.53325
G1 X78.665 Y113.324 E0.55701
G1 X78.666 Y113.032 E0.57056
G1 X72.078 Y113.032 E0.87617
G1 X72.106 Y112.262 E0.91193
G1 X72.156 Y111.932 E0.92740
G1 X72.234 Y111.612 E0.94268
G1 X72.371 Y111.242 E0.96101
G1 X72.640 Y110.761 E0.98655
G1 X77.317 Y110.761 E1.20353
G1 X77.545 Y111.359 E1.23322
G1 X78.456 Y111.359 E1.27547
G1 X78.297 Y110.761 E1.30416
G1 X80.183 Y110.761 E1.39162
G1 X80.201 Y111.406 E1.42152
G1 X80.275 Y111.836 E1.44179
G1 X80.363 Y112.085 E1.45403
G1 X80.522 Y112.372 E1.46926
G1 X80.626 Y112.513 E1.47739
G1 X80.871 Y112.768 E1.49379
G1 X81.004 Y112.872 E1.50163
G1 X81.435 Y113.123 E1.52478
G1 X81.890 Y113.291 E1.54727
G1 X82.414 Y113.427 E1.57236
G1 X82.956 Y113.539 E1.59805
G1 X84.592 Y113.790 E1.67483
G1 X85.056 Y113.893 E1.69688
G1 X85.437 Y114.032 E1.71572
G1 X85.794 Y114.264 E1.73547
G1 X85.922 Y114.402 E1.74419
G1 X86.043 Y114.624 E1.75592
G1 X86.101 Y114.835 E1.76608
G1 X86.120 Y115.073 E1.77712
G1 X86.110 Y115.305 E1.78793
G1 X86.026 Y115.770 E1.80986
G1 X85.997 Y116.229 F7800.000
G92 E0
G1 X77.676 Y113.807 F7800.000
G1 F1800
G1 X77.562 Y114.587 E0.03655
G1 X77.485 Y114.865 E0.04993
G1 X77.314 Y115.284 E0.07093
G1 X76.973 Y115.829 E0.10079
G1 X72.741 Y115.829 E0.29711
G1 X72.443 Y115.361 E0.32285
G1 X72.245 Y114.895 E0.34634
G1 X72.122 Y114.381 E0.37086
G1 X72.058 Y113.807 E0.39765
G1 X77.616 Y113.807 E0.65547
G1 X78.075 Y113.832 F7800.000
G92 E0
G1 X90.187 Y114.393 F7800.000
G1 F1800
G1 X90.415 Y114.359 E0.01069
G1 X90.543 Y114.774 E0.03086
G1 X90.673 Y115.091 E0.04674
G1 X90.821 Y115.375 E0.06158
G1 X91.108 Y115.790 E0.08502
G1 X91.611 Y116.316 E0.11876
G1 X90.187 Y116.316 E0.18481
G1 X90.187 Y114.453 E0.27122
G92 E0
G1 X71.709 Y115.829 F7800.000
G1 F1800
G1 X71.348 Y114.990 E0.04240
G1 X71.226 Y114.603 E0.06122
G1 X71.137 Y114.196 E0.08056
G1 X71.078 Y113.730 E0.10233
G1 X71.058 Y113.246 E0.12483
G1 X71.110 Y112.569 E0.15632
G1 X71.205 Y112.000 E0.18308
G1 X71.344 Y111.462 E0.20886
G1 X71.596 Y110.761 E0.24340
G1 X52.328 Y110.761 E1.13728
G1 X51.785 Y109.829 E1.18736
G1 X149.988 Y109.829 E5.74325
G1 X150.300 Y110.365 E5.77207
G1 X150.466 Y110.365 E5.77977
G1 X150.633 Y110.654 E5.79526
G1 X150.768 Y110.976 E5.81146
G1 X150.891 Y111.359 E5.83012
G1 X149.965 Y111.359 E5.87309
G1 X149.737 Y110.761 E5.90278
G1 X145.069 Y110.761 E6.11934
G1 X144.904 Y111.022 E6.13365
G1 X144.719 Y111.416 E6.15383
G1 X144.576 Y111.928 E6.17852
G1 X144.526 Y112.262 E6.19417
G1 X144.498 Y113.032 E6.22993
G1 X151.086 Y113.032 E6.53554
G1 X151.085 Y113.324 E6.54909
G1 X151.041 Y113.843 E6.57324
G1 X150.947 Y114.415 E6.60012
G1 X150.840 Y114.844 E6.62065
G1 X150.696 Y115.254 E6.64082
G1 X150.498 Y115.690 E6.66302
G1 X150.228 Y116.118 E6.68650
G1 X150.145 Y116.118 E6.69036
G1 X149.614 Y116.762 E6.72909
G1 X55.823 Y116.762 E11.08029
G1 X55.280 Y115.829 E11.13037
G1 X71.649 Y115.829 E11.88980
G1 X72.093 Y115.715 F7800.000
G92 E0
G1 X117.893 Y113.977 F7800.000
G1 F1800
G1 X117.893 Y113.117 E0.03990
G1 X122.306 Y113.117 E0.24463
G1 X122.306 Y113.977 E0.28453
G1 X117.953 Y113.977 E0.48647
G1 X118.070 Y113.619 F7800.000
G1 X118.116 Y113.547 F7800.000
G1 F1800
G1 X122.082 Y113.547 E0.63490
G92 E0
G1 X125.143 Y111.283 F7800.000
G1 F1800
G1 X124.940 Y111.888 E0.03388
G1 X124.850 Y112.326 E0.05763
G1 X124.801 Y112.753 E0.08043
G1 X124.783 Y113.212 E0.10479
G1 X124.796 Y113.578 E0.12427
G1 X124.876 Y114.232 E0.15923
G1 X125.013 Y114.777 E0.18903
G1 X125.187 Y115.232 E0.21491
G1 X125.425 Y115.765 E0.24588
G1 X125.306 Y116.296 F7800.000
G1 F1800
G1 X115.135 Y116.296 E0.70343
G1 X115.063 Y116.275 E0.70677
G1 F1800
G1 X114.921 Y116.233 E0.71474
G1 F1800
G1 X114.850 Y116.212 E0.71937
G1 X114.882 Y116.082 F7800.000
G1 F1800
G1 X114.850 Y116.212 E0.72715
G1 X114.654 Y116.271 E0.73901
G1 F1800
G1 X114.564 Y116.296 E0.74368
G1 X110.086 Y116.296 E0.96821
G1 X109.908 Y116.247 E0.97747
G1 F1800
G1 X109.801 Y116.213 E0.98425
G1 X109.770 Y116.085 F7800.000
G1 F1800
G1 X109.801 Y116.213 E0.99187
G1 X109.588 Y116.275 E1.00476
G1 F1800
G1 X109.516 Y116.296 E1.00841
G1 X101.532 Y116.296 E1.40214
G1 X100.729 Y116.296 F7800.000
G1 F1800
G1 X96.345 Y116.296 E1.59938
G1 X96.050 Y116.215 E1.61311
G1 F1800
G1 X95.462 Y116.053 E1.64681
G1 X95.687 Y116.275 F7800.000
G1 F1800
G1 X95.804 Y116.232 E1.65351
G1 F1800
G1 X95.922 Y116.190 E1.66131
G1 F1800
G1 X95.980 Y116.169 E1.66576
G1 X95.933 Y116.012 E1.67742
G1 F1800
G1 X95.829 Y115.779 E1.69333
G1 F1800
G1 X95.598 Y115.292 E1.72286
G1 X95.465 Y114.956 E1.74264
G1 X95.355 Y114.564 E1.76498
G1 X95.292 Y114.274 E1.78121
G1 X95.221 Y113.785 E1.80829
G1 X95.186 Y113.119 E1.84481
G1 X95.212 Y112.559 E1.87551
G1 X95.277 Y112.090 E1.90148
G1 X95.418 Y111.521 E1.93358
G1 X95.677 Y110.847 E1.97312
G1 F1800
G1 X95.785 Y110.574 E1.99093
G1 F1800
G1 X95.822 Y110.424 E2.00141
G1 X95.645 Y110.360 E2.01427
G1 F1800
G1 X95.527 Y110.316 E2.02163
G1 F1800
G1 X95.468 Y110.295 E2.02474
G1 X90.462 Y110.295 E2.27234
G1 X90.296 Y110.338 E2.28083
G1 F1800
G1 X90.213 Y110.359 E2.28582
G1 X90.047 Y110.316 F7800.000
G1 F1800
G1 X90.213 Y110.359 E2.29506
G1 X90.213 Y110.538 E2.30472
G1 F1800
G1 X90.228 Y113.453 E2.43952
G1 F1800
G1 X90.272 Y114.155 E2.47617
G1 X90.420 Y115.163 F7800.000
G1 F1800
G1 X90.679 Y116.093 E2.49495
G1 X91.065 Y116.093 F7800.000
G1 F1800
G1 X90.410 Y115.781 E2.50639
G1 X89.964 Y116.296 F7800.000
G1 F1800
G1 X86.817 Y116.296 E2.64796
G1 X86.740 Y116.272 E2.65159
G1 F1800
G1 X86.586 Y116.223 E2.66046
G1 F1800
G1 X86.509 Y116.199 E2.66571
G1 X86.432 Y116.223 F7800.000
G1 F1800
G1 X86.509 Y116.199 E2.67097
G1 X86.509 Y116.108 E2.67688
G1 F1800
G1 X86.532 Y115.826 E2.69367
G1 F1800
G1 X86.573 Y115.373 E2.71803
G1 F1800
G1 X86.566 Y114.731 E2.74714
G1 F1800
G1 X86.525 Y114.428 E2.76260
G1 X86.576 Y114.204 E2.77428
G1 X86.568 Y111.647 E2.90392
G1 X86.530 Y111.290 E2.92213
G1 X86.825 Y110.295 F7800.000
G1 F1800
G1 X89.964 Y110.295 E3.06330
G1 X90.047 Y110.316 E3.06716
G92 E0
G1 X85.774 Y110.295 F7800.000
G1 F1800
G1 X81.011 Y110.295 E0.21429
G1 X80.934 Y110.319 E0.21789
G1 F1800
G1 X80.781 Y110.367 E0.22669
G1 F1800
G1 X80.705 Y110.391 E0.23188
G1 X80.629 Y110.367 F7800.000
G1 F1800
G1 X80.705 Y110.391 E0.23708
G1 X80.705 Y110.530 E0.24609
