; generated by Slic3r 1.3.0 on 2019-01-20 at 16:43:14

; external perimeters extrusion width = 0.44mm (2.18mm^3/s)
; perimeters extrusion width = 0.56mm (5.69mm^3/s)
; infill extrusion width = 0.50mm (7.31mm^3/s)
; solid infill extrusion width = 0.56mm (2.07mm^3/s)
; top infill extrusion width = 0.56mm (1.55mm^3/s)

M107
M104 S200 ; set temperature
G28 ; home all axes
M150 B180 G210
M150 B180 G210
G92 E0
G1 E6 F1800
; Filament gcode

M109 S200 ; set temperature and wait for it to be reached
G21 ; set units to millimeters
G90 ; use absolute coordinates
M82 ; use absolute distances for extrusion
G92 E0
G1 Z0.250 F7800.000
G1 E-2.00000 F2400.00000
G92 E0
G1 X45.031 Y91.231 F7800.000
G1 E2.00000 F2400.00000
G1 F1800
G1 X48.192 Y90.402 E2.15162
G1 X153.263 Y90.402 E7.02613
G1 X155.490 Y90.799 E7.13108
G1 X157.443 Y91.941 E7.23602
G1 X158.881 Y93.687 E7.34097
G1 X159.709 Y96.849 E7.49259
G1 X159.709 Y103.249 E7.78950
G1 X159.312 Y105.476 E7.89445
G1 X158.171 Y107.428 E7.99939
G1 X156.424 Y108.866 E8.10434
G1 X153.263 Y109.695 E8.25596
G1 X48.192 Y109.695 E13.13047
G1 X45.965 Y109.298 E13.23541
G1 X44.012 Y108.156 E13.34036
G1 X42.574 Y106.410 E13.44530
G1 X41.746 Y103.249 E13.59692
G1 X41.746 Y96.849 E13.89384
G1 X42.143 Y94.622 E13.99878
G1 X43.285 Y92.669 E14.10373
G1 X44.984 Y91.269 E14.20589
G1 E12.20589 F2400.00000
G92 E0
G1 X48.889 Y102.552 F7800.000
G1 E2.00000 F2400.00000
G1 F1800
G1 X48.889 Y97.545 E2.23230
G1 X152.567 Y97.545 E7.04220
G1 X152.567 Y102.552 E7.27450
G1 X48.949 Y102.552 E12.08162
G1 X48.442 Y102.999 F7800.000
G1 F1800
G1 X48.442 Y97.099 E12.35533
G1 X153.013 Y97.099 E17.20665
G1 X153.013 Y102.999 E17.48036
G1 X48.502 Y102.999 E22.32889
G1 X48.636 Y102.648 F7800.000
G1 E20.32889 F2400.00000
G92 E0
G1 X49.161 Y98.165 F7800.000
G1 E2.00000 F2400.00000
G1 F1800
G1 X49.509 Y97.818 E2.02283
G1 X50.141 Y97.818 E2.05223
G1 X49.161 Y98.798 E2.11666
G1 X49.161 Y99.430 E2.14606
G1 X50.774 Y97.818 E2.25208
G1 X51.406 Y97.818 E2.28148
G1 X49.161 Y100.063 E2.42908
G1 X49.161 Y100.695 E2.45849
G1 X52.039 Y97.818 E2.64767
G1 X52.671 Y97.818 E2.67708
G1 X49.161 Y101.328 E2.90785
G1 X49.161 Y101.960 E2.93726
G1 X53.304 Y97.818 E3.20961
G1 X53.936 Y97.818 E3.23902
G1 X49.475 Y102.279 E3.53236
G1 X50.107 Y102.279 E3.56177
G1 X54.569 Y97.818 E3.85511
G1 X55.202 Y97.818 E3.88452
G1 X50.740 Y102.279 E4.17786
G1 X51.372 Y102.279 E4.20727
G1 X55.834 Y97.818 E4.50061
G1 X56.467 Y97.818 E4.53002
G1 X52.005 Y102.279 E4.82336
G1 X52.637 Y102.279 E4.85277
G1 X57.099 Y97.818 E5.14611
G1 X57.732 Y97.818 E5.17552
G1 X53.270 Y102.279 E5.46886
G1 X53.902 Y102.279 E5.49827
G1 X58.364 Y97.818 E5.79161
G1 X58.997 Y97.818 E5.82102
G1 X54.535 Y102.279 E6.11436
G1 X55.167 Y102.279 E6.14376
G1 X59.629 Y97.818 E6.43711
G1 X60.262 Y97.818 E6.46651
G1 X55.800 Y102.279 E6.75986
G1 X56.433 Y102.279 E6.78926
G1 X60.894 Y97.818 E7.08261
G1 X61.527 Y97.818 E7.11201
G1 X57.065 Y102.279 E7.40536
G1 X57.698 Y102.279 E7.43476
G1 X62.159 Y97.818 E7.72811
G1 X62.792 Y97.818 E7.75751
G1 X58.330 Y102.279 E8.05086
G1 X58.963 Y102.279 E8.08026
G1 X63.425 Y97.818 E8.37360
G1 X64.057 Y97.818 E8.40301
G1 X59.595 Y102.279 E8.69635
G1 X60.228 Y102.279 E8.72576
G1 X64.690 Y97.818 E9.01910
G1 X65.322 Y97.818 E9.04851
G1 X60.860 Y102.279 E9.34185
G1 X61.493 Y102.279 E9.37126
G1 X65.955 Y97.818 E9.66460
G1 X66.587 Y97.818 E9.69401
G1 X62.125 Y102.279 E9.98735
G1 X62.758 Y102.279 E10.01676
G1 X67.220 Y97.818 E10.31010
G1 X67.852 Y97.818 E10.33951
G1 X63.391 Y102.279 E10.63285
G1 X64.023 Y102.279 E10.66226
G1 X68.485 Y97.818 E10.95560
G1 X69.117 Y97.818 E10.98501
G1 X64.656 Y102.279 E11.27835
G1 X65.288 Y102.279 E11.30776
G1 X69.750 Y97.818 E11.60110
G1 X70.383 Y97.818 E11.63051
G1 X65.921 Y102.279 E11.92385
G1 X66.553 Y102.279 E11.95325
G1 X71.015 Y97.818 E12.24660
G1 X71.648 Y97.818 E12.27600
G1 X67.186 Y102.279 E12.56935
G1 X67.818 Y102.279 E12.59875
G1 X72.280 Y97.818 E12.89210
G1 X72.913 Y97.818 E12.92150
G1 X68.451 Y102.279 E13.21485
G1 X69.083 Y102.279 E13.24425
G1 X73.545 Y97.818 E13.53760
G1 X74.178 Y97.818 E13.56700
G1 X69.716 Y102.279 E13.86035
G1 X70.349 Y102.279 E13.88975
G1 X74.810 Y97.818 E14.18309
G1 X75.443 Y97.818 E14.21250
G1 X70.981 Y102.279 E14.50584
G1 X71.614 Y102.279 E14.53525
G1 X76.075 Y97.818 E14.82859
G1 X76.708 Y97.818 E14.85800
G1 X72.246 Y102.279 E15.15134
G1 X72.879 Y102.279 E15.18075
G1 X77.341 Y97.818 E15.47409
G1 X77.973 Y97.818 E15.50350
G1 X73.511 Y102.279 E15.79684
G1 X74.144 Y102.279 E15.82625
G1 X78.606 Y97.818 E16.11959
G1 X79.238 Y97.818 E16.14900
G1 X74.776 Y102.279 E16.44234
G1 X75.409 Y102.279 E16.47175
G1 X79.871 Y97.818 E16.76509
G1 X80.503 Y97.818 E16.79450
G1 X76.041 Y102.279 E17.08784
G1 X76.674 Y102.279 E17.11725
G1 X81.136 Y97.818 E17.41059
G1 X81.768 Y97.818 E17.44000
G1 X77.306 Y102.279 E17.73334
G1 X77.939 Y102.279 E17.76275
G1 X82.401 Y97.818 E18.05609
G1 X83.033 Y97.818 E18.08549
G1 X78.572 Y102.279 E18.37884
G1 X79.204 Y102.279 E18.40824
G1 X83.666 Y97.818 E18.70159
G1 X84.298 Y97.818 E18.73099
G1 X79.837 Y102.279 E19.02434
G1 X80.469 Y102.279 E19.05374
G1 X84.931 Y97.818 E19.34709
G1 X85.564 Y97.818 E19.37649
G1 X81.102 Y102.279 E19.66984
G1 X81.734 Y102.279 E19.69924
G1 X86.196 Y97.818 E19.99259
G1 X86.829 Y97.818 E20.02199
G1 X82.367 Y102.279 E20.31533
G1 X82.999 Y102.279 E20.34474
G1 X87.461 Y97.818 E20.63808
G1 X88.094 Y97.818 E20.66749
G1 X83.632 Y102.279 E20.96083
G1 X84.264 Y102.279 E20.99024
G1 X88.726 Y97.818 E21.28358
G1 X89.359 Y97.818 E21.31299
G1 X84.897 Y102.279 E21.60633
G1 X85.530 Y102.279 E21.63574
G1 X89.991 Y97.818 E21.92908
G1 X90.624 Y97.818 E21.95849
G1 X86.162 Y102.279 E22.25183
G1 X86.795 Y102.279 E22.28124
G1 X91.256 Y97.818 E22.57458
G1 X91.889 Y97.818 E22.60399
G1 X87.427 Y102.279 E22.89733
G1 X88.060 Y102.279 E22.92674
G1 X92.522 Y97.818 E23.22008
G1 X93.154 Y97.818 E23.24949
G1 X88.692 Y102.279 E23.54283
G1 X89.325 Y102.279 E23.57224
G1 X93.787 Y97.818 E23.86558
G1 X94.419 Y97.818 E23.89499
G1 X89.957 Y102.279 E24.18833
G1 X90.590 Y102.279 E24.21773
G1 X95.052 Y97.818 E24.51108
G1 X95.684 Y97.818 E24.54048
G1 X91.222 Y102.279 E24.83383
G1 X91.855 Y102.279 E24.86323
G1 X96.317 Y97.818 E25.15658
G1 X96.949 Y97.818 E25.18598
G1 X92.487 Y102.279 E25.47933
G1 X93.120 Y102.279 E25.50873
G1 X97.582 Y97.818 E25.80208
G1 X98.214 Y97.818 E25.83148
G1 X93.753 Y102.279 E26.12483
G1 X94.385 Y102.279 E26.15423
G1 X98.847 Y97.818 E26.44757
G1 X99.479 Y97.818 E26.47698
G1 X95.018 Y102.279 E26.77032
G1 X95.650 Y102.279 E26.79973
G1 X100.112 Y97.818 E27.09307
G1 X100.745 Y97.818 E27.12248
G1 X96.283 Y102.279 E27.41582
G1 X96.915 Y102.279 E27.44523
G1 X101.377 Y97.818 E27.73857
G1 X102.010 Y97.818 E27.76798
G1 X97.548 Y102.279 E28.06132
G1 X98.180 Y102.279 E28.09073
G1 X102.642 Y97.818 E28.38407
G1 X103.275 Y97.818 E28.41348
G1 X98.813 Y102.279 E28.70682
G1 X99.445 Y102.279 E28.73623
G1 X103.907 Y97.818 E29.02957
G1 X104.540 Y97.818 E29.05898
G1 X100.078 Y102.279 E29.35232
G1 X100.711 Y102.279 E29.38173
G1 X105.172 Y97.818 E29.67507
G1 X105.805 Y97.818 E29.70448
G1 X101.343 Y102.279 E29.99782
G1 X101.976 Y102.279 E30.02722
G1 X106.437 Y97.818 E30.32057
G1 X107.070 Y97.818 E30.34997
G1 X102.608 Y102.279 E30.64332
G1 X103.241 Y102.279 E30.67272
G1 X107.703 Y97.818 E30.96607
G1 X108.335 Y97.818 E30.99547
G1 X103.873 Y102.279 E31.28882
G1 X104.506 Y102.279 E31.31822
G1 X108.968 Y97.818 E31.61157
G1 X109.600 Y97.818 E31.64097
G1 X105.138 Y102.279 E31.93432
G1 X105.771 Y102.279 E31.96372
G1 X110.233 Y97.818 E32.25707
G1 X110.865 Y97.818 E32.28647
G1 X106.403 Y102.279 E32.57981
G1 X107.036 Y102.279 E32.60922
G1 X111.498 Y97.818 E32.90256
G1 X112.130 Y97.818 E32.93197
G1 X107.669 Y102.279 E33.22531
G1 X108.301 Y102.279 E33.25472
G1 X112.763 Y97.818 E33.54806
G1 X113.395 Y97.818 E33.57747
G1 X108.934 Y102.279 E33.87081
G1 X109.566 Y102.279 E33.90022
G1 X114.028 Y97.818 E34.19356
G1 X114.661 Y97.818 E34.22297
G1 X110.199 Y102.279 E34.51631
G1 X110.831 Y102.279 E34.54572
G1 X115.293 Y97.818 E34.83906
G1 X115.926 Y97.818 E34.86847
G1 X111.464 Y102.279 E35.16181
G1 X112.096 Y102.279 E35.19122
G1 X116.558 Y97.818 E35.48456
G1 X117.191 Y97.818 E35.51397
G1 X112.729 Y102.279 E35.80731
G1 X113.361 Y102.279 E35.83672
G1 X117.823 Y97.818 E36.13006
G1 X118.456 Y97.818 E36.15947
G1 X113.994 Y102.279 E36.45281
G1 X114.626 Y102.279 E36.48221
G1 X119.088 Y97.818 E36.77556
G1 X119.721 Y97.818 E36.80496
G1 X115.259 Y102.279 E37.09831
G1 X115.892 Y102.279 E37.12771
G1 X120.353 Y97.818 E37.42106
G1 X120.986 Y97.818 E37.45046
G1 X116.524 Y102.279 E37.74381
G1 X117.157 Y102.279 E37.77321
G1 X121.618 Y97.818 E38.06656
G1 X122.251 Y97.818 E38.09596
G1 X117.789 Y102.279 E38.38931
G1 X118.422 Y102.279 E38.41871
G1 X122.884 Y97.818 E38.71205
G1 X123.516 Y97.818 E38.74146
G1 X119.054 Y102.279 E39.03480
G1 X119.687 Y102.279 E39.06421
G1 X124.149 Y97.818 E39.35755
G1 X124.781 Y97.818 E39.38696
G1 X120.319 Y102.279 E39.68030
G1 X120.952 Y102.279 E39.70971
G1 X125.414 Y97.818 E40.00305
G1 X126.046 Y97.818 E40.03246
G1 X121.584 Y102.279 E40.32580
G1 X122.217 Y102.279 E40.35521
G1 X126.679 Y97.818 E40.64855
G1 X127.311 Y97.818 E40.67796
G1 X122.850 Y102.279 E40.97130
G1 X123.482 Y102.279 E41.00071
G1 X127.944 Y97.818 E41.29405
G1 X128.576 Y97.818 E41.32346
G1 X124.115 Y102.279 E41.61680
G1 X124.747 Y102.279 E41.64621
G1 X129.209 Y97.818 E41.93955
G1 X129.842 Y97.818 E41.96896
G1 X125.380 Y102.279 E42.26230
G1 X126.012 Y102.279 E42.29170
G1 X130.474 Y97.818 E42.58505
G1 X131.107 Y97.818 E42.61445
G1 X126.645 Y102.279 E42.90780
G1 X127.277 Y102.279 E42.93720
G1 X131.739 Y97.818 E43.23055
G1 X132.372 Y97.818 E43.25995
G1 X127.910 Y102.279 E43.55330
G1 X128.542 Y102.279 E43.58270
G1 X133.004 Y97.818 E43.87605
G1 X133.637 Y97.818 E43.90545
G1 X129.175 Y102.279 E44.19880
G1 X129.808 Y102.279 E44.22820
G1 X134.269 Y97.818 E44.52154
G1 X134.902 Y97.818 E44.55095
G1 X130.440 Y102.279 E44.84429
G1 X131.073 Y102.279 E44.87370
G1 X135.534 Y97.818 E45.16704
G1 X136.167 Y97.818 E45.19645
G1 X131.705 Y102.279 E45.48979
G1 X132.338 Y102.279 E45.51920
G1 X136.799 Y97.818 E45.81254
G1 X137.432 Y97.818 E45.84195
G1 X132.970 Y102.279 E46.13529
G1 X133.603 Y102.279 E46.16470
G1 X138.065 Y97.818 E46.45804
G1 X138.697 Y97.818 E46.48745
G1 X134.235 Y102.279 E46.78079
G1 X134.868 Y102.279 E46.81020
G1 X139.330 Y97.818 E47.10354
G1 X139.962 Y97.818 E47.13295
G1 X135.500 Y102.279 E47.42629
G1 X136.133 Y102.279 E47.45570
G1 X140.595 Y97.818 E47.74904
G1 X141.227 Y97.818 E47.77845
G1 X136.765 Y102.279 E48.07179
G1 X137.398 Y102.279 E48.10120
G1 X141.860 Y97.818 E48.39454
G1 X142.492 Y97.818 E48.42394
G1 X138.031 Y102.279 E48.71729
G1 X138.663 Y102.279 E48.74669
G1 X143.125 Y97.818 E49.04004
G1 X143.757 Y97.818 E49.06944
G1 X139.296 Y102.279 E49.36279
G1 X139.928 Y102.279 E49.39219
G1 X144.390 Y97.818 E49.68554
G1 X145.023 Y97.818 E49.71494
G1 X140.561 Y102.279 E50.00829
G1 X141.193 Y102.279 E50.03769
G1 X145.655 Y97.818 E50.33104
G1 X146.288 Y97.818 E50.36044
G1 X141.826 Y102.279 E50.65378
G1 X142.458 Y102.279 E50.68319
G1 X146.920 Y97.818 E50.97653
G1 X147.553 Y97.818 E51.00594
G1 X143.091 Y102.279 E51.29928
G1 X143.723 Y102.279 E51.32869
G1 X148.185 Y97.818 E51.62203
G1 X148.818 Y97.818 E51.65144
G1 X144.356 Y102.279 E51.94478
G1 X144.989 Y102.279 E51.97419
G1 X149.450 Y97.818 E52.26753
G1 X150.083 Y97.818 E52.29694
G1 X145.621 Y102.279 E52.59028
G1 X146.254 Y102.279 E52.61969
G1 X150.715 Y97.818 E52.91303
G1 X151.348 Y97.818 E52.94244
G1 X146.886 Y102.279 E53.23578
G1 X147.519 Y102.279 E53.26519
G1 X151.981 Y97.818 E53.55853
G1 X152.294 Y97.818 E53.57309
G1 X152.294 Y98.137 E53.58793
G1 X148.151 Y102.279 E53.86029
G1 X148.784 Y102.279 E53.88970
G1 X152.294 Y98.769 E54.12046
G1 X152.294 Y99.402 E54.14987
G1 X149.416 Y102.279 E54.33905
G1 X150.049 Y102.279 E54.36846
G1 X152.294 Y100.035 E54.51605
G1 X152.294 Y100.667 E54.54546
G1 X150.681 Y102.279 E54.65146
G1 X151.314 Y102.279 E54.68087
G1 X152.294 Y101.300 E54.74529
G1 X152.294 Y101.932 E54.77470
G1 X151.946 Y102.279 E54.79753
G1 Z0.450 F7800.000
G1 X48.869 Y102.571 F7800.000
G1 F3300
G1 X48.869 Y97.526 E55.01448
G1 X152.586 Y97.526 E59.47381
G1 X152.586 Y102.571 E59.69076
G1 X48.929 Y102.571 E64.14751
G1 X48.412 Y103.029 F7800.000
G1 F1650
G1 X48.412 Y97.069 E64.34429
G1 X153.043 Y97.069 E67.79892
G1 X153.043 Y103.029 E67.99570
G1 X48.472 Y103.029 E71.44834
G1 X48.606 Y102.678 F7800.000
G1 X49.587 Y102.255 F7800.000
G1 F1200
G1 X49.185 Y101.853 E71.47295
G1 X49.185 Y101.117 E71.50479
G1 X50.323 Y102.256 E71.57443
G1 X51.059 Y102.256 E71.60626
G1 X49.185 Y100.381 E71.72092
G1 X49.185 Y99.646 E71.75275
G1 X51.795 Y102.256 E71.91244
G1 X52.531 Y102.256 E71.94427
G1 X49.185 Y98.910 E72.14897
G1 X49.185 Y98.174 E72.18081
G1 X53.267 Y102.256 E72.43053
G1 X54.003 Y102.256 E72.46236
G1 X49.589 Y97.842 E72.73242
G1 X50.324 Y97.842 E72.76425
G1 X54.738 Y102.256 E73.03431
G1 X55.474 Y102.256 E73.06615
G1 X51.060 Y97.842 E73.33621
G1 X51.796 Y97.842 E73.36804
G1 X56.210 Y102.256 E73.63810
G1 X56.946 Y102.256 E73.66994
G1 X52.532 Y97.842 E73.94000
G1 X53.268 Y97.842 E73.97183
G1 X57.682 Y102.256 E74.24189
G1 X58.417 Y102.256 E74.27372
G1 X54.004 Y97.842 E74.54378
G1 X54.739 Y97.842 E74.57562
G1 X59.153 Y102.256 E74.84568
G1 X59.889 Y102.256 E74.87751
G1 X55.475 Y97.842 E75.14757
G1 X56.211 Y97.842 E75.17941
G1 X60.625 Y102.256 E75.44946
G1 X61.361 Y102.256 E75.48130
G1 X56.947 Y97.842 E75.75136
G1 X57.683 Y97.842 E75.78319
G1 X62.097 Y102.256 E76.05325
G1 X62.832 Y102.256 E76.08509
G1 X58.418 Y97.842 E76.35515
G1 X59.154 Y97.842 E76.38698
G1 X63.568 Y102.256 E76.65704
G1 X64.304 Y102.256 E76.68887
G1 X59.890 Y97.842 E76.95893
G1 X60.626 Y97.842 E76.99077
G1 X65.040 Y102.256 E77.26083
G1 X65.776 Y102.256 E77.29266
G1 X61.362 Y97.842 E77.56272
G1 X62.098 Y97.842 E77.59456
G1 X66.511 Y102.256 E77.86462
G1 X67.247 Y102.256 E77.89645
G1 X62.833 Y97.842 E78.16651
G1 X63.569 Y97.842 E78.19834
G1 X67.983 Y102.256 E78.46840
G1 X68.719 Y102.256 E78.50024
G1 X64.305 Y97.842 E78.77030
G1 X65.041 Y97.842 E78.80213
G1 X69.455 Y102.256 E79.07219
G1 X70.191 Y102.256 E79.10403
G1 X65.777 Y97.842 E79.37409
G1 X66.512 Y97.842 E79.40592
G1 X70.926 Y102.256 E79.67598
G1 X71.662 Y102.256 E79.70781
G1 X67.248 Y97.842 E79.97787
G1 X67.984 Y97.842 E80.00971
G1 X72.398 Y102.256 E80.27977
G1 X73.134 Y102.256 E80.31160
G1 X68.720 Y97.842 E80.58166
G1 X69.456 Y97.842 E80.61349
G1 X73.870 Y102.256 E80.88355
G1 X74.605 Y102.256 E80.91539
G1 X70.192 Y97.842 E81.18545
G1 X70.927 Y97.842 E81.21728
G1 X75.341 Y102.256 E81.48734
G1 X76.077 Y102.256 E81.51918
G1 X71.663 Y97.842 E81.78924
G1 X72.399 Y97.842 E81.82107
G1 X76.813 Y102.256 E82.09113
G1 X77.549 Y102.256 E82.12296
G1 X73.135 Y97.842 E82.39302
G1 X73.871 Y97.842 E82.42486
G1 X78.285 Y102.256 E82.69492
G1 X79.020 Y102.256 E82.72675
G1 X74.606 Y97.842 E82.99681
G1 X75.342 Y97.842 E83.02865
G1 X79.756 Y102.256 E83.29871
G1 X80.492 Y102.256 E83.33054
G1 X76.078 Y97.842 E83.60060
G1 X76.814 Y97.842 E83.63243
G1 X81.228 Y102.256 E83.90249
G1 X81.964 Y102.256 E83.93433
G1 X77.550 Y97.842 E84.20439
G1 X78.286 Y97.842 E84.23622
G1 X82.699 Y102.256 E84.50628
G1 X83.435 Y102.256 E84.53812
G1 X79.021 Y97.842 E84.80818
G1 X79.757 Y97.842 E84.84001
G1 X84.171 Y102.256 E85.11007
G1 X84.907 Y102.256 E85.14190
G1 X80.493 Y97.842 E85.41196
G1 X81.229 Y97.842 E85.44380
G1 X85.643 Y102.256 E85.71386
G1 X86.379 Y102.256 E85.74569
G1 X81.965 Y97.842 E86.01575
G1 X82.700 Y97.842 E86.04758
G1 X87.114 Y102.256 E86.31764
G1 X87.850 Y102.256 E86.34948
G1 X83.436 Y97.842 E86.61954
G1 X84.172 Y97.842 E86.65137
G1 X88.586 Y102.256 E86.92143
G1 X89.322 Y102.256 E86.95327
G1 X84.908 Y97.842 E87.22333
G1 X85.644 Y97.842 E87.25516
G1 X90.058 Y102.256 E87.52522
G1 X90.794 Y102.256 E87.55705
G1 X86.380 Y97.842 E87.82711
G1 X87.115 Y97.842 E87.85895
G1 X91.529 Y102.256 E88.12901
G1 X92.265 Y102.256 E88.16084
G1 X87.851 Y97.842 E88.43090
G1 X88.587 Y97.842 E88.46273
G1 X93.001 Y102.256 E88.73279
G1 X93.737 Y102.256 E88.76463
G1 X89.323 Y97.842 E89.03469
G1 X90.059 Y97.842 E89.06652
G1 X94.473 Y102.256 E89.33658
