; generated by Slic3r 1.3.0 on 2019-01-06 at 13:10:45

; external perimeters extrusion width = 0.44mm (2.18mm^3/s)
; perimeters extrusion width = 0.56mm (5.69mm^3/s)
; infill extrusion width = 0.50mm (7.31mm^3/s)
; solid infill extrusion width = 0.56mm (2.07mm^3/s)
; top infill extrusion width = 0.56mm (1.55mm^3/s)

M107
M104 S200 ; set temperature
G28
; Filament gcode

M109 S200 ; set temperature and wait for it to be reached
G21 ; set units to millimeters
G90 ; use absolute coordinates
M82 ; use absolute distances for extrusion
G92 E0
G1 Z0.250 F7800.000
G1 E-2.00000 F2400.00000
G92 E0
G1 X100.494 Y87.933 F7800.000
G1 E2.00000 F2400.00000
G1 F1352.75
G1 X102.241 Y86.496 E2.03571
G1 X105.400 Y85.669 E2.08726
G1 X106.556 Y85.669 E2.10552
G1 X108.783 Y86.066 E2.14123
G1 X110.736 Y87.207 E2.17694
G1 X112.174 Y88.954 E2.21265
G1 X113.003 Y92.115 E2.26424
G1 X113.003 Y107.885 E2.51319
G1 X112.606 Y110.112 E2.54890
G1 X111.464 Y112.065 E2.58461
G1 X109.718 Y113.503 E2.62033
G1 X106.556 Y114.331 E2.67192
G1 X105.400 Y114.331 E2.69018
G1 X103.173 Y113.934 E2.72589
G1 X101.220 Y112.793 E2.76160
G1 X99.782 Y111.046 E2.79731
G1 X98.953 Y107.889 E2.84885
G1 X98.953 Y92.112 E3.09791
G1 X99.351 Y89.885 E3.13362
G1 X100.464 Y87.985 E3.16838
G1 E1.16838 F2400.00000
G92 E0
G1 X106.306 Y107.635 F7800.000
G1 E2.00000 F2400.00000
G1 F1800
G1 X105.650 Y107.635 E2.01037
G1 X105.650 Y92.365 E2.25143
G1 X106.306 Y92.365 E2.26179
G1 X106.306 Y107.575 E2.50190
G1 X105.957 Y107.440 F7800.000
G1 X105.978 Y107.412 F7800.000
G1 F1352.75
G1 X105.978 Y92.588 E2.58410
G1 Z0.450 F7800.000
G1 X105.809 Y107.208 F7800.000
G1 F600
G1 X105.382 Y107.208 E2.59036
G1 X105.382 Y92.792 E2.80127
G1 X105.809 Y92.792 E2.80751
G1 X105.809 Y107.148 E3.01754
G1 X106.266 Y107.665 F7800.000
G1 F1650
G1 X105.199 Y107.665 E3.02953

G1 F3600
G1 X104.925 Y107.665 E3.03441
G1 X104.925 Y92.335 E3.30694
G1 X105.199 Y92.335 E3.31183

G1 F1650
G1 X106.266 Y92.335 E3.32381
G1 X106.266 Y107.605 E3.49537
G1 X105.920 Y107.465 F7800.000
G1 Z0.650 F7800.000
G1 X105.747 Y107.208 F7800.000
G1 F605.746
G1 X104.842 Y107.208 E3.50861
G1 X104.842 Y92.792 E3.71952
G1 X105.747 Y92.792 E3.73276
G1 X105.747 Y107.148 E3.94279
G1 X106.204 Y107.665 F7800.000
G1 F1650
G1 X104.505 Y107.665 E3.96188

G1 F3600
G1 X104.385 Y107.665 E3.96401
G1 X104.385 Y92.335 E4.23654
G1 X104.505 Y92.335 E4.23867

G1 F1650
G1 X106.204 Y92.335 E4.25776
G1 X106.204 Y107.605 E4.42932
G1 X105.850 Y107.478 F7800.000
G1 X105.294 Y106.949 F7800.000
G1 F807.661
G1 X105.294 Y93.051 E4.56497
M106 S255
G1 Z0.850 F7800.000
G1 X105.326 Y107.208 F7800.000
G1 F616.932
G1 X104.349 Y107.208 E4.57925
G1 X104.349 Y92.792 E4.79016
G1 X105.326 Y92.792 E4.80444
G1 X105.326 Y107.148 E5.01447
G1 X105.783 Y107.305 F7800.000
G1 F1650
G1 X106.145 Y107.305 E5.01855
G1 X106.145 Y107.665 E5.02259
G1 X103.965 Y107.665 E5.04709
M106 S255

G1 F3600
G1 X103.892 Y107.665 E5.04838
G1 X103.892 Y92.335 E5.32091
G1 X103.965 Y92.335 E5.32220
M106 S255

G1 F1650
G1 X106.145 Y92.335 E5.34669
G1 X106.145 Y92.695 E5.35074
G1 X105.783 Y92.695 E5.35481
G1 X105.783 Y107.245 E5.51828
G1 X105.780 Y107.668 F7800.000
G1 X104.838 Y106.949 F7800.000
G1 F822.576
G1 X104.838 Y93.051 E5.68193
G1 Z1.050 F7800.000
G1 X104.711 Y107.208 F7800.000
G1 F623.092
G1 X103.896 Y107.208 E5.69384
G1 X103.896 Y92.792 E5.90475
G1 X104.711 Y92.792 E5.91666
G1 X104.711 Y107.148 E6.12669
G1 X105.168 Y107.305 F7800.000
G1 F1650
G1 X106.087 Y107.305 E6.13702
G1 X106.087 Y107.665 E6.14106
G1 X103.472 Y107.665 E6.17044
M106 S255

G1 F3600
G1 X103.439 Y107.665 E6.17103
G1 X103.439 Y92.335 E6.44356
G1 X103.472 Y92.335 E6.44415
M106 S255

G1 F1650
G1 X106.087 Y92.335 E6.47352
G1 X106.086 Y92.695 E6.47757
G1 X105.168 Y92.695 E6.48789
G1 X105.168 Y107.245 E6.65136
G1 X105.159 Y107.705 F7800.000
G1 X104.303 Y106.949 F7800.000
G1 F830.79
G1 X104.303 Y93.051 E6.75139
G1 Z1.250 F7800.000
G1 X104.176 Y107.208 F7800.000
G1 F650.896
G1 X103.476 Y107.208 E6.76164
G1 X103.476 Y92.793 E6.97254
G1 X104.176 Y92.793 E6.98278
G1 X104.176 Y107.148 E7.19280
G1 X104.634 Y107.305 F7800.000
G1 F1650
G1 X106.029 Y107.305 E7.20848
G1 X106.029 Y107.665 E7.21252
G1 X103.019 Y107.665 E7.24634
M106 S255

G1 F3600
G1 X103.019 Y107.238 E7.25392
M106 S255

G1 F1650
G1 X103.019 Y104.238 E7.28764
M106 S255

G1 F3600
G1 X103.019 Y96.304 E7.42868
M106 S255

G1 F1650
G1 X103.019 Y92.858 E7.46739
M106 S255

G1 F3600
G1 X103.019 Y92.335 E7.47669
M106 S255

G1 F1650
G1 X106.029 Y92.338 E7.51050
G1 X106.029 Y92.695 E7.51451
G1 X104.634 Y92.695 E7.53019
G1 X104.634 Y107.245 E7.69366
G1 X104.621 Y107.705 F7800.000
G1 X103.826 Y106.949 F7800.000
G1 F867.862
G1 X103.826 Y93.052 E7.74889
G1 Z1.450 F7800.000
G1 X103.689 Y107.208 F7800.000
G1 F690.542
G1 X103.084 Y107.208 E7.75774
G1 X103.084 Y92.792 E7.96865
G1 X103.689 Y92.792 E7.97751
G1 X103.689 Y107.148 E8.18754
G1 X104.146 Y107.305 F7800.000
G1 F1650
G1 X105.975 Y107.305 E8.20808
G1 X105.975 Y107.665 E8.21213
G1 X102.627 Y107.665 E8.24974
G1 X102.627 Y92.335 E8.42197
G1 X105.974 Y92.335 E8.45958
G1 X105.974 Y92.695 E8.46363
G1 X104.146 Y92.695 E8.48417
G1 X104.146 Y107.245 E8.64764
G1 X104.146 Y107.705 F7800.000
G1 X103.386 Y106.949 F7800.000
G1 F920.723
G1 X103.386 Y93.051 E8.66543
G1 Z1.650 F7800.000
G1 X103.240 Y107.208 F7800.000
G1 F600
G1 X102.715 Y107.208 E8.67311
G1 X102.715 Y92.792 E8.88402
G1 X103.240 Y92.792 E8.89169
G1 X103.240 Y107.148 E9.10173
G1 X103.697 Y107.305 F7800.000
G1 F1650
G1 X105.920 Y107.305 E9.12670
G1 X105.920 Y107.665 E9.13074
G1 X102.258 Y107.665 E9.17188
G1 X102.258 Y92.335 E9.34411
G1 X105.920 Y92.335 E9.38525
G1 X105.920 Y92.695 E9.38930
G1 X103.697 Y92.695 E9.41427
G1 X103.697 Y107.245 E9.57774
G1 X103.677 Y107.704 F7800.000
G1 Z1.850 F7800.000
G1 X102.824 Y107.208 F7800.000
G1 F600
G1 X102.368 Y107.208 E9.58441
G1 X102.368 Y92.792 E9.79531
G1 X102.824 Y92.792 E9.80198
G1 X102.824 Y107.148 E10.01201
G1 X103.281 Y107.305 F7800.000
G1 F1650
G1 X105.867 Y107.305 E10.04107
G1 X105.867 Y107.665 E10.04511
G1 X101.911 Y107.665 E10.08955
G1 X101.911 Y92.335 E10.26179
G1 X105.866 Y92.335 E10.30623
G1 X105.867 Y92.695 E10.31027
G1 X103.281 Y92.695 E10.33933
G1 X103.281 Y107.245 E10.50280
G1 X103.281 Y107.705 F7800.000
G1 Z2.050 F7800.000
G1 X102.435 Y107.208 F7800.000
G1 F600
G1 X102.039 Y107.208 E10.50860
G1 X102.039 Y92.792 E10.71950
G1 X102.435 Y92.792 E10.72530
G1 X102.435 Y107.148 E10.93533
G1 X102.892 Y107.305 F7800.000
G1 F1650
G1 X105.816 Y107.305 E10.96818
G1 X105.816 Y107.665 E10.97223
G1 X101.582 Y107.665 E11.01980
G1 X101.582 Y92.335 E11.19204
G1 X105.816 Y92.335 E11.23961
G1 X105.816 Y92.695 E11.24365
G1 X102.892 Y92.695 E11.27650
G1 X102.892 Y107.245 E11.43997
G1 X102.892 Y107.705 F7800.000
G1 Z2.250 F7800.000
G1 X102.070 Y107.208 F7800.000
G1 F600
G1 X101.725 Y107.208 E11.44501
G1 X101.725 Y92.792 E11.65592
G1 X102.070 Y92.792 E11.66096
G1 X102.070 Y107.148 E11.87099
G1 X102.527 Y107.305 F7800.000
G1 F1650
G1 X105.765 Y107.305 E11.90737
G1 X105.765 Y107.665 E11.91142
G1 X101.268 Y107.665 E11.96194
G1 X101.268 Y92.335 E12.13418
G1 X105.765 Y92.335 E12.18470
G1 X105.765 Y92.695 E12.18875
G1 X102.527 Y92.695 E12.22513
G1 X102.527 Y107.245 E12.38860
G1 X102.527 Y107.705 F7800.000
G1 Z2.450 F7800.000
G1 X102.182 Y107.305 F7800.000
G1 F811.359
G1 X105.716 Y107.305 E12.42831
G1 X105.716 Y107.665 E12.43235
G1 X100.969 Y107.665 E12.48569
G1 X100.969 Y92.335 E12.65792
G1 X105.716 Y92.335 E12.71125
G1 X105.716 Y92.695 E12.71530
G1 X102.182 Y92.695 E12.75501
G1 X102.182 Y107.245 E12.91848
G1 X102.182 Y107.705 F7800.000
G1 X101.576 Y107.436 F7800.000
G1 F600
G1 X101.576 Y92.564 E13.21844
G1 Z2.650 F7800.000
G1 E11.21844 F2400.00000
G92 E0
G1 X101.855 Y107.305 F7800.000
G1 E2.00000 F2400.00000
G1 F823.831
G1 X105.670 Y107.305 E2.04286
G1 X105.670 Y107.665 E2.04690
G1 X100.683 Y107.665 E2.10293
G1 X100.683 Y92.335 E2.27516
G1 X105.669 Y92.335 E2.33119
G1 X105.669 Y92.695 E2.33523
G1 X101.855 Y92.695 E2.37809
G1 X101.855 Y107.245 E2.54156
G1 X101.855 Y107.705 F7800.000
G1 X101.269 Y107.436 F7800.000
G1 F600
G1 X101.269 Y92.564 E2.82449
G1 Z2.850 F7800.000
G1 E0.82449 F2400.00000
G92 E0
G1 X101.544 Y107.305 F7800.000
G1 E2.00000 F2400.00000
G1 F835.661
G1 X105.623 Y107.305 E2.04583
G1 X105.623 Y107.665 E2.04987
G1 X100.408 Y107.665 E2.10846
G1 X100.408 Y92.335 E2.28070
G1 X105.623 Y92.335 E2.33929
G1 X105.622 Y92.695 E2.34334
G1 X101.544 Y92.695 E2.38916
G1 X101.544 Y107.245 E2.55263
G1 X101.544 Y107.705 F7800.000
G1 X100.976 Y107.436 F7800.000
G1 F607.753
G1 X100.976 Y92.564 E2.82037
G1 Z3.050 F7800.000
G1 E0.82037 F2400.00000
G92 E0
G1 X101.246 Y107.305 F7800.000
G1 E2.00000 F2400.00000
G1 F944.763
G1 X101.246 Y92.695 E2.16414
G1 X105.230 Y92.695 E2.20890
G1 X105.230 Y93.115 E2.21362
M106 S255

G1 F3600
G1 X105.230 Y106.885 E2.45842
M106 S255

G1 F944.763
G1 X105.230 Y107.305 E2.46314
G1 X101.306 Y107.305 E2.50722
G1 X100.847 Y107.319 F7800.000
G1 X100.145 Y107.665 F7800.000
G1 F944.763
G1 X100.145 Y92.335 E2.67945
G1 X105.578 Y92.335 E2.74049
G1 X105.578 Y93.115 E2.74925
M106 S255

G1 F3600
G1 X105.578 Y106.885 E2.99405
M106 S255

G1 F944.763
G1 X105.578 Y107.665 E3.00282
G1 X100.205 Y107.665 E3.06318
G1 X100.328 Y107.309 F7800.000
G1 X100.696 Y107.436 F7800.000
G1 F687.1
G1 X100.696 Y92.564 E3.31632
G1 Z3.250 F7800.000
G1 E1.31632 F2400.00000
G92 E0
G1 X100.962 Y107.305 F7800.000
G1 E2.00000 F2400.00000
G1 F858.95
G1 X100.962 Y92.695 E2.16414
G1 X105.171 Y92.695 E2.21144
G1 X105.171 Y107.305 E2.37558
G1 X101.022 Y107.305 E2.42220
G1 X100.598 Y107.472 F7800.000
G1 X99.893 Y107.665 F7800.000
G1 F1574.74
G1 X99.893 Y92.335 E2.59444
G1 X105.535 Y92.335 E2.65782
G1 X105.535 Y107.665 E2.83005
G1 X99.953 Y107.665 E2.89276
G1 X99.962 Y107.271 F7800.000
G1 X100.428 Y107.436 F7800.000
G1 F1145.27
G1 X100.428 Y92.564 E3.13187
G1 Z3.450 F7800.000
G1 E1.13187 F2400.00000
G92 E0
G1 X100.689 Y107.305 F7800.000
G1 E2.00000 F2400.00000
G1 F867.065
G1 X100.689 Y92.695 E2.16414
G1 X105.128 Y92.695 E2.21401
G1 X105.128 Y107.305 E2.37815
G1 X100.749 Y107.305 E2.42735
G1 X100.325 Y107.470 F7800.000
G1 X99.650 Y107.665 F7800.000
G1 F1589.62
G1 X99.650 Y92.335 E2.59958
G1 X105.492 Y92.335 E2.66521
G1 X105.492 Y107.665 E2.83745
G1 X99.710 Y107.665 E2.90241
G1 X99.757 Y107.280 F7800.000
G1 X100.170 Y107.436 F7800.000
G1 F1156.09
G1 X100.170 Y92.564 E3.12919
G1 Z3.650 F7800.000
G1 E1.12919 F2400.00000
G92 E0
G1 X100.430 Y107.305 F7800.000
G1 E2.00000 F2400.00000
G1 F874.789
G1 X100.430 Y92.695 E2.16414
G1 X105.084 Y92.695 E2.21644
G1 X105.084 Y107.305 E2.38058
G1 X100.490 Y107.305 E2.43220
G1 X100.065 Y107.468 F7800.000
G1 X99.415 Y107.665 F7800.000
G1 F1603.78
G1 X99.415 Y92.335 E2.60443
G1 X105.451 Y92.335 E2.67225
G1 X105.451 Y107.665 E2.84448
G1 X99.475 Y107.665 E2.91162
G1 X99.469 Y107.269 F7800.000
G1 X99.922 Y107.436 F7800.000
G1 F1166.39
G1 X99.922 Y92.564 E3.12822
G1 Z3.850 F7800.000
G1 E1.12822 F2400.00000
G92 E0
G1 X100.179 Y107.305 F7800.000
G1 E2.00000 F2400.00000
G1 F882.255
G1 X100.179 Y92.695 E2.16414
G1 X105.043 Y92.695 E2.21879
G1 X105.043 Y107.305 E2.38294
G1 X100.239 Y107.305 E2.43691
G1 X99.814 Y107.467 F7800.000
G1 X99.190 Y107.665 F7800.000
G1 F1617.47
G1 X99.190 Y92.335 E2.60914
G1 X105.412 Y92.335 E2.67905
G1 X105.412 Y107.665 E2.85128
G1 X99.250 Y107.665 E2.92051
G1 X99.265 Y107.272 F7800.000
G1 X99.685 Y107.436 F7800.000
G1 F1176.34
G1 X99.685 Y92.564 E3.12637
G1 Z4.050 F7800.000
G1 E1.12637 F2400.00000
G92 E0
G1 X99.937 Y107.305 F7800.000
G1 E2.00000 F2400.00000
G1 F889.45
G1 X99.937 Y92.695 E2.16414
G1 X105.004 Y92.695 E2.22107
G1 X105.004 Y107.305 E2.38521
G1 X99.997 Y107.305 E2.44146
G1 X99.571 Y107.465 F7800.000
G1 X98.973 Y107.665 F7800.000
G1 F1630.66
G1 X98.973 Y92.335 E2.61369
G1 X105.373 Y92.335 E2.68560
G1 X105.373 Y107.665 E2.85783
G1 X99.033 Y107.665 E2.92907
G1 X99.088 Y107.282 F7800.000
G1 X99.455 Y107.436 F7800.000
G1 F1185.93
G1 X99.455 Y92.564 E3.12441
G1 Z4.250 F7800.000
G1 X99.705 Y107.305 F7800.000
G1 F896.353
G1 X99.705 Y92.695 E3.28856
G1 X104.964 Y92.695 E3.34765
G1 X104.964 Y107.305 E3.51179
G1 X99.765 Y107.305 E3.57021
G1 X99.338 Y107.464 F7800.000
G1 X98.762 Y107.665 F7800.000
G1 F1643.31
G1 X98.762 Y92.335 E3.74244
G1 X105.336 Y92.335 E3.81630
G1 X105.336 Y107.665 E3.98853
G1 X98.822 Y107.665 E4.06172
G1 X98.820 Y107.269 F7800.000
G1 X99.233 Y107.436 F7800.000
G1 F1195.14
G1 X99.233 Y92.564 E4.24817
M106 S252.45
G1 Z4.450 F7800.000
G1 X99.482 Y107.305 F7800.000
G1 F900
G1 X99.482 Y92.695 E4.41231
G1 X104.928 Y92.695 E4.47349
G1 X104.928 Y107.305 E4.63764
G1 X99.542 Y107.305 E4.69814
G1 X99.114 Y107.462 F7800.000
G1 X98.559 Y107.665 F7800.000
G1 F1650
G1 X98.559 Y92.335 E4.87038
G1 X105.301 Y92.335 E4.94613
G1 X105.301 Y107.665 E5.11836
G1 X98.619 Y107.665 E5.19344
G1 X98.640 Y107.273 F7800.000
G1 X99.020 Y107.436 F7800.000
G1 F1200
G1 X99.020 Y92.564 E5.37162
G1 Z4.650 F7800.000
G1 X99.265 Y107.305 F7800.000
G1 F900
G1 X99.265 Y92.695 E5.53576
G1 X104.892 Y92.695 E5.59897
G1 X104.892 Y107.305 E5.76312
G1 X99.325 Y107.305 E5.82566
G1 X98.897 Y107.461 F7800.000
G1 X98.363 Y107.665 F7800.000
G1 F1650
G1 X98.363 Y92.335 E5.99789
G1 X105.266 Y92.335 E6.07545
G1 X105.266 Y107.665 E6.24768
G1 X98.423 Y107.665 E6.32457
G1 X98.484 Y107.284 F7800.000
G1 X98.814 Y107.436 F7800.000
G1 F1200
G1 X98.814 Y92.564 E6.49399
G1 Z4.850 F7800.000
G1 X99.056 Y107.305 F7800.000
G1 F900
G1 X99.056 Y92.695 E6.65813
G1 X104.856 Y92.695 E6.72330
G1 X104.856 Y107.305 E6.88744
G1 X99.116 Y107.305 E6.95193
G1 X98.687 Y107.460 F7800.000
G1 X98.172 Y107.665 F7800.000
G1 F1650
G1 X98.172 Y92.335 E7.12417
G1 X105.233 Y92.335 E7.20350
G1 X105.233 Y107.665 E7.37573
G1 X98.232 Y107.665 E7.45439
G1 X98.235 Y107.270 F7800.000
G1 X98.614 Y107.436 F7800.000
G1 F1200
G1 X98.614 Y92.564 E7.61609
M106 S255
G1 Z5.050 F7800.000
G1 X98.856 Y107.305 F7800.000
G1 F1278.88
G1 X98.856 Y92.695 E7.78023
G1 X104.824 Y92.695 E7.84729
G1 X104.824 Y107.305 E8.01143
G1 X98.916 Y107.305 E8.07781
G1 X98.486 Y107.459 F7800.000
G1 X97.988 Y107.665 F7800.000
G1 F1278.88
G1 X97.988 Y92.335 E8.25004
G1 X105.202 Y92.335 E8.33109
G1 X105.202 Y107.665 E8.50332
G1 X98.048 Y107.665 E8.58369
G1 X98.074 Y107.274 F7800.000
G1 X98.422 Y107.436 F7800.000
G1 F930.096
G1 X98.422 Y92.564 E8.73836
G1 Z5.250 F7800.000
G1 X98.660 Y107.305 F7800.000
G1 F1286.33
G1 X98.660 Y92.695 E8.90250
G1 X104.792 Y92.695 E8.97139
G1 X104.792 Y107.305 E9.13554
G1 X98.720 Y107.305 E9.20375
G1 X98.290 Y107.457 F7800.000
G1 X97.810 Y107.665 F7800.000
G1 F1286.33
G1 X97.810 Y92.335 E9.37599
G1 X105.170 Y92.335 E9.45868
G1 X105.170 Y107.665 E9.63091
G1 X97.870 Y107.665 E9.71293
G1 X97.936 Y107.285 F7800.000
G1 X98.235 Y107.436 F7800.000
G1 F935.512
G1 X98.235 Y92.564 E9.86016
G1 Z5.450 F7800.000
G1 X98.471 Y107.305 F7800.000
G1 F1293.58
G1 X98.471 Y92.695 E10.02431
G1 X104.760 Y92.695 E10.09496
G1 X104.760 Y107.305 E10.25911
G1 X98.531 Y107.305 E10.32909
G1 X98.101 Y107.456 F7800.000
G1 X97.636 Y107.665 F7800.000
G1 F1293.58
G1 X97.636 Y92.335 E10.50132
G1 X105.141 Y92.335 E10.58564
G1 X105.141 Y107.665 E10.75787
G1 X97.696 Y107.665 E10.84152
G1 X97.703 Y107.271 F7800.000
G1 X98.054 Y107.436 F7800.000
G1 F940.782
G1 X98.054 Y92.564 E10.98254
G1 Z5.650 F7800.000
G1 X98.290 Y107.305 F7800.000
G1 F1300.58
G1 X98.290 Y92.695 E11.14669
G1 X104.732 Y92.695 E11.21907
G1 X104.732 Y107.305 E11.38321
G1 X98.350 Y107.305 E11.45492
G1 X97.919 Y107.455 F7800.000
G1 X97.470 Y107.665 F7800.000
G1 F1300.58
G1 X97.470 Y92.335 E11.62715
G1 X105.113 Y92.335 E11.71302
G1 X105.113 Y107.665 E11.88526
G1 X97.530 Y107.665 E11.97045
G1 X97.561 Y107.275 F7800.000
G1 X97.880 Y107.436 F7800.000
G1 F945.873
G1 X97.880 Y92.564 E12.10482
G1 Z5.850 F7800.000
G1 X98.112 Y107.305 F7800.000
G1 F1307.41
G1 X98.112 Y92.695 E12.26896
G1 X104.704 Y92.695 E12.34303
G1 X104.704 Y107.305 E12.50717
G1 X98.172 Y107.305 E12.58056
G1 X97.741 Y107.454 F7800.000
G1 X97.308 Y107.665 F7800.000
G1 F1307.41
G1 X97.308 Y92.335 E12.75279
G1 X105.086 Y92.335 E12.84018
G1 X105.086 Y107.665 E13.01242
G1 X97.368 Y107.665 E13.09913
G1 X97.437 Y107.287 F7800.000
